LUTs/BRX_Masterclass_v2_Punchy.cube
TITLE "BRX Masterclass v2 Punchy"
LUT_3D_SIZE 5
DOMAIN_MIN 0.0 0.0 0.0
DOMAIN_MAX 1.0 1.0 1.0
0.000000 0.000000 0.000000
0.119112 0.000000 0.000000
0.436146 0.000000 0.000000
0.808655 0.000000 0.000000
1.000000 0.000000 0.000000
0.010251 0.101076 0.006244
0.114128 0.104893 0.000000
0.431404 0.098793 0.000000
0.804198 0.091627 0.000000
1.000000 0.087078 0.000000
0.088222 0.354878 0.071560
0.174290 0.361583 0.077491
0.420036 0.388661 0.000000
0.793599 0.381486 0.000000
1.000000 0.376930 0.000000
0.166092 0.663017 0.132241
0.251050 0.669733 0.139025
0.477177 0.687605 0.156978
0.773899 0.726064 0.000000
1.000000 0.721502 0.000000
0.214624 0.885836 0.182087
0.299728 0.892559 0.188728
0.526242 0.910451 0.206302
0.792384 0.931468 0.226764
0.994533 0.970568 0.000000
0.000000 0.000000 0.105078
0.118634 0.000000 0.102238
0.435691 0.000000 0.094529
0.808226 0.000000 0.085191
1.000000 0.000000 0.079104
0.000000 0.106144 0.095675
0.113677 0.104210 0.092967
0.430976 0.098110 0.084989
0.803796 0.090944 0.075336
1.000000 0.086394 0.069049
0.090481 0.356875 0.142176
0.176556 0.363581 0.148101
0.419681 0.387977 0.057575
0.793271 0.380801 0.047070
1.000000 0.376245 0.040242
0.168021 0.665018 0.203111
0.252985 0.671734 0.209888
0.479127 0.689607 0.227826
0.773266 0.725379 0.018606
1.000000 0.720816 0.013221
0.216596 0.887839 0.252914
0.301706 0.894562 0.259549
0.528235 0.912455 0.277108
0.794396 0.933473 0.297552
0.993980 0.969882 0.000000
0.000000 0.000000 0.396345
0.117323 0.000000 0.393479
0.434442 0.000000 0.385700
0.807052 0.000000 0.376281
1.000000 0.000000 0.370143
0.000000 0.104609 0.387092
0.112441 0.102317 0.384125
0.429803 0.096216 0.376077
0.802697 0.089049 0.366343
1.000000 0.084498 0.360004
0.000000 0.390391 0.357575
0.111340 0.389199 0.355477
0.418711 0.386080 0.348438
0.792375 0.378904 0.337851
1.000000 0.374347 0.331345
0.173377 0.670565 0.399556
0.258358 0.677281 0.406318
0.484543 0.695156 0.424214
0.771526 0.723478 0.309988
1.000000 0.718915 0.304552
0.222073 0.893392 0.449242
0.307199 0.900116 0.455861
0.533771 0.918011 0.473378
0.799983 0.939031 0.493773
0.992460 0.967978 0.283121
0.000000 0.000000 0.748296
0.115764 0.000000 0.745398
0.432960 0.000000 0.737535
0.805658 0.000000 0.728017
1.000000 0.000000 0.721816
0.000000 0.102321 0.738941
0.110974 0.100028 0.735943
0.428411 0.093926 0.727812
0.801394 0.086758 0.717979
1.000000 0.082207 0.711578
0.000000 0.392193 0.712029
0.099472 0.389898 0.708758
0.417566 0.383788 0.699900
0.791318 0.376610 0.689215
1.000000 0.372053 0.683695
0.012446 0.723651 0.670461
0.124198 0.723159 0.669845
0.420528 0.722150 0.668386
0.769449 0.721181 0.662078
1.000000 0.716617 0.656579
0.228709 0.900103 0.686475
0.313854 0.906828 0.693075
0.540479 0.924725 0.710541
0.806752 0.945749 0.730876
0.990649 0.965678 0.634915
0.000000 0.000000 1.000000
0.114536 0.000000 1.000000
0.431792 0.000000 1.000000
0.804562 0.000000 1.000000
1.000000 0.000000 1.000000
0.000000 0.100487 1.000000
0.109818 0.098194 1.000000
0.427317 0.092091 1.000000
0.800371 0.084923 0.999730
1.000000 0.080371 0.993279
0.000000 0.390357 0.993734
0.098514 0.388061 0.990437
0.416668 0.381950 0.981513
0.790268 0.374772 0.970927
1.000000 0.370215 0.966018
0.000000 0.734950 0.962245
0.081739 0.732650 0.959675
0.397175 0.726530 0.952685
0.767805 0.719340 0.944193
1.000000 0.714776 0.938644
0.000000 0.970710 0.931268
0.110275 0.969604 0.929785
0.412904 0.967053 0.926116
0.765478 0.964862 0.922406
0.989218 0.963835 0.916794
