LUTs/BRX_Masterclass_Look_Subtle.cube
TITLE "BRX Masterclass Look Subtle"
LUT_3D_SIZE 33
DOMAIN_MIN 0.0 0.0 0.0
DOMAIN_MAX 1.0 1.0 1.0
0.000684 0.022355 0.033143
0.025072 0.022619 0.033252
0.050457 0.022894 0.033365
0.076773 0.023180 0.033482
0.103953 0.023475 0.033603
0.131930 0.023780 0.033728
0.160638 0.024094 0.033856
0.190010 0.024416 0.033988
0.219981 0.024745 0.034122
0.250483 0.025081 0.034259
0.281450 0.025423 0.034399
0.312816 0.025770 0.034540
0.344513 0.026122 0.034684
0.376477 0.026478 0.034828
0.408640 0.026837 0.034974
0.440935 0.027198 0.035121
0.473297 0.027561 0.035268
0.505658 0.027925 0.035416
0.537953 0.028289 0.035563
0.570115 0.028653 0.035711
0.602077 0.029015 0.035857
0.633773 0.029376 0.036003
0.665137 0.029733 0.036147
0.696101 0.030087 0.036290
0.726601 0.030436 0.036431
0.756273 0.030777 0.036568
0.784023 0.031096 0.036696
0.809867 0.031394 0.036816
0.833919 0.031672 0.036928
0.856285 0.031931 0.037032
0.877057 0.032172 0.037129
0.896321 0.032396 0.037219
0.914153 0.032603 0.037302
0.002511 0.047090 0.033508
0.026899 0.047355 0.033617
0.052284 0.047632 0.033730
0.078599 0.047920 0.033848
0.105778 0.048217 0.033970
0.133755 0.048525 0.034095
0.162463 0.048841 0.034224
0.191835 0.049165 0.034356
0.221805 0.049496 0.034492
0.252306 0.049834 0.034629
0.283273 0.050179 0.034769
0.314638 0.050528 0.034912
0.346336 0.050882 0.035056
0.378299 0.051241 0.035201
0.410461 0.051602 0.035347
0.442756 0.051966 0.035495
0.475117 0.052331 0.035643
0.507478 0.052698 0.035791
0.539772 0.053064 0.035939
0.571933 0.053430 0.036087
0.603895 0.053795 0.036234
0.635591 0.054158 0.036381
0.666954 0.054517 0.036526
0.697918 0.054874 0.036669
0.728417 0.055225 0.036810
0.758089 0.055568 0.036948
0.785839 0.055889 0.037077
0.811682 0.056189 0.037198
0.835734 0.056469 0.037310
0.858099 0.056730 0.037415
0.878871 0.056972 0.037512
0.898135 0.057197 0.037602
0.915967 0.057406 0.037686
0.004411 0.072842 0.033890
0.028799 0.073109 0.033999
0.054184 0.073388 0.034113
0.080499 0.073677 0.034231
0.107677 0.073977 0.034354
0.135654 0.074287 0.034480
0.164361 0.074605 0.034609
0.193732 0.074931 0.034742
0.223702 0.075265 0.034878
0.254203 0.075606 0.035016
0.285169 0.075953 0.035157
0.316534 0.076305 0.035300
0.348231 0.076661 0.035445
0.380193 0.077022 0.035591
0.412355 0.077386 0.035738
0.444650 0.077752 0.035886
0.477010 0.078120 0.036035
0.509371 0.078489 0.036184
0.541665 0.078858 0.036333
0.573825 0.079227 0.036481
0.605787 0.079594 0.036629
0.637482 0.079959 0.036776
0.668845 0.080322 0.036922
0.699808 0.080680 0.037066
0.730307 0.081034 0.037208
0.759978 0.081379 0.037346
0.787728 0.081703 0.037476
0.813571 0.082005 0.037597
0.837622 0.082287 0.037710
0.859987 0.082549 0.037815
0.880759 0.082793 0.037912
0.900022 0.083020 0.038003
0.917853 0.083230 0.038087
0.006380 0.099544 0.034287
0.030767 0.099814 0.034397
0.056152 0.100095 0.034511
0.082466 0.100387 0.034630
0.109645 0.100689 0.034753
0.137621 0.101000 0.034880
0.166327 0.101321 0.035010
0.195698 0.101650 0.035144
0.225667 0.101986 0.035280
0.256168 0.102329 0.035419
0.287134 0.102678 0.035561
0.318498 0.103033 0.035704
0.350194 0.103392 0.035850
0.382156 0.103755 0.035997
0.414318 0.104122 0.036144
0.446611 0.104491 0.036293
0.478972 0.104862 0.036443
0.511332 0.105233 0.036592
0.543625 0.105605 0.036742
0.575785 0.105976 0.036891
0.607746 0.106346 0.037040
0.639441 0.106714 0.037188
0.670803 0.107079 0.037334
0.701766 0.107440 0.037479
0.732264 0.107796 0.037622
0.761935 0.108144 0.037761
0.789684 0.108470 0.037891
0.815527 0.108774 0.038013
0.839578 0.109057 0.038126
0.861942 0.109322 0.038232
0.882714 0.109567 0.038330
0.901977 0.109796 0.038421
0.919808 0.110007 0.038505
0.008412 0.127132 0.034700
0.032799 0.127403 0.034810
0.058183 0.127686 0.034925
0.084497 0.127980 0.035045
0.111675 0.128285 0.035168
0.139650 0.128599 0.035296
0.168357 0.128922 0.035427
0.197727 0.129253 0.035561
0.227696 0.129592 0.035698
0.258196 0.129937 0.035838
0.289161 0.130289 0.035980
0.320525 0.130646 0.036124
0.352221 0.131008 0.036270
0.384182 0.131374 0.036418
0.416343 0.131743 0.036567
0.448636 0.132115 0.036716
0.480996 0.132489 0.036866
0.513355 0.132863 0.037017
0.545648 0.133237 0.037167
0.577808 0.133611 0.037317
0.609768 0.133984 0.037467
0.641462 0.134354 0.037615
0.672824 0.134722 0.037762
0.703787 0.135085 0.037908
0.734285 0.135444 0.038051
0.763955 0.135795 0.038191
0.791704 0.136123 0.038322
0.817546 0.136429 0.038444
0.841597 0.136715 0.038558
0.863960 0.136981 0.038664
0.884731 0.137228 0.038763
0.903994 0.137458 0.038854
0.921825 0.137671 0.038939
0.010502 0.155536 0.035127
0.034889 0.155810 0.035238
0.060272 0.156095 0.035353
0.086586 0.156391 0.035473
0.113763 0.156698 0.035598
0.141738 0.157015 0.035726
0.170444 0.157340 0.035857
0.199814 0.157674 0.035992
0.229782 0.158015 0.036130
0.260282 0.158364 0.036271
0.291247 0.158718 0.036414
0.322610 0.159078 0.036559
0.354305 0.159443 0.036705
0.386266 0.159812 0.036854
0.418426 0.160184 0.037003
0.450719 0.160558 0.037154
0.483078 0.160934 0.037305
0.515437 0.161311 0.037456
0.547729 0.161689 0.037607
0.579889 0.162065 0.037758
0.611848 0.162441 0.037908
0.643542 0.162814 0.038057
0.674903 0.163184 0.038205
0.705866 0.163550 0.038351
0.736363 0.163912 0.038495
0.766032 0.164265 0.038636
0.793781 0.164595 0.038768
0.819622 0.164904 0.038891
0.843673 0.165192 0.039005
0.866036 0.165460 0.039112
0.886807 0.165709 0.039211
0.906069 0.165941 0.039303
0.923900 0.166155 0.039388
0.012645 0.184692 0.035567
0.037031 0.184968 0.035679
0.062414 0.185255 0.035795
0.088728 0.185554 0.035916
0.115905 0.185863 0.036041
0.143879 0.186182 0.036169
0.172584 0.186510 0.036302
0.201954 0.186846 0.036437
0.231922 0.187190 0.036576
0.262421 0.187541 0.036717
0.293385 0.187899 0.036861
0.324748 0.188261 0.037007
0.356442 0.188629 0.037154
0.388403 0.189001 0.037303
0.420562 0.189375 0.037454
0.452855 0.189753 0.037605
0.485213 0.190132 0.037757
0.517572 0.190512 0.037909
0.549863 0.190892 0.038061
0.582022 0.191272 0.038212
0.613981 0.191650 0.038363
0.645674 0.192026 0.038513
0.677035 0.192399 0.038662
0.707997 0.192768 0.038809
0.738493 0.193132 0.038954
0.768162 0.193488 0.039095
0.795910 0.193821 0.039227
0.821751 0.194131 0.039351
0.845801 0.194421 0.039466
0.868165 0.194691 0.039573
0.888935 0.194942 0.039673
0.908197 0.195176 0.039765
0.926027 0.195392 0.039851
0.014836 0.214531 0.036020
0.039222 0.214809 0.036132
0.064605 0.215099 0.036249
0.090917 0.215400 0.036371
0.118094 0.215712 0.036496
0.146068 0.216033 0.036626
0.174773 0.216364 0.036759
0.204142 0.216703 0.036895
0.234109 0.217050 0.037035
0.264607 0.217404 0.037177
0.295571 0.217764 0.037321
0.326933 0.218129 0.037468
0.358627 0.218500 0.037616
0.390587 0.218874 0.037766
0.422746 0.219252 0.037917
0.455038 0.219632 0.038069
0.487396 0.220014 0.038222
0.519754 0.220397 0.038375
0.552045 0.220780 0.038527
0.584203 0.221163 0.038680
0.616161 0.221544 0.038831
0.647854 0.221923 0.038982
0.679214 0.222299 0.039132
0.710175 0.222670 0.039279
0.740671 0.223038 0.039425
0.770340 0.223396 0.039567
0.798087 0.223731 0.039700
0.823928 0.224044 0.039824
0.847978 0.224336 0.039940
0.870341 0.224609 0.040048
0.891111 0.224862 0.040148
0.910372 0.225097 0.040241
0.928202 0.225314 0.040327
0.017070 0.244987 0.036485
0.041455 0.245268 0.036598
0.066837 0.245560 0.036715
0.093150 0.245863 0.036838
0.120326 0.246178 0.036964
0.148299 0.246502 0.037094
0.177004 0.246835 0.037228
0.206372 0.247177 0.037365
0.236339 0.247526 0.037505
0.266837 0.247883 0.037648
0.297800 0.248246 0.037793
0.329161 0.248614 0.037941
0.360855 0.248988 0.038090
0.392814 0.249365 0.038241
0.424973 0.249746 0.038392
0.457264 0.250129 0.038545
0.489621 0.250514 0.038699
0.521978 0.250900 0.038852
0.554269 0.251286 0.039006
0.586427 0.251672 0.039159
0.618384 0.252056 0.039312
0.650076 0.252438 0.039463
0.681436 0.252817 0.039614
0.712397 0.253191 0.039762
0.742892 0.253561 0.039909
0.772560 0.253922 0.040052
0.800307 0.254260 0.040185
0.826147 0.254576 0.040310
0.850197 0.254870 0.040426
0.872559 0.255144 0.040535
0.893329 0.255399 0.040635
0.912590 0.255636 0.040729
0.930420 0.255856 0.040815
0.019342 0.275994 0.036961
0.043727 0.276276 0.037074
0.069108 0.276571 0.037193
0.095420 0.276877 0.037315
0.122596 0.277194 0.037442
0.150568 0.277520 0.037573
0.179272 0.277856 0.037708
0.208640 0.278201 0.037846
0.238606 0.278553 0.037987
0.269104 0.278913 0.038130
0.300066 0.279279 0.038276
0.331427 0.279650 0.038425
0.363120 0.280027 0.038575
0.395079 0.280407 0.038726
0.427237 0.280791 0.038879
0.459527 0.281177 0.039033
0.491884 0.281565 0.039187
0.524241 0.281954 0.039341
0.556531 0.282343 0.039496
0.588688 0.282732 0.039650
0.620645 0.283119 0.039803
0.652337 0.283504 0.039956
0.683696 0.283886 0.040107
0.714656 0.284263 0.040256
0.745151 0.284636 0.040403
0.774818 0.285000 0.040547
0.802564 0.285341 0.040682
0.828404 0.285659 0.040807
0.852453 0.285955 0.040924
0.874815 0.286231 0.041033
0.895584 0.286488 0.041134
0.914845 0.286727 0.041228
0.932674 0.286948 0.041315
0.021646 0.307483 0.037447
0.046030 0.307768 0.037561
0.071412 0.308065 0.037680
0.097723 0.308373 0.037803
0.124898 0.308692 0.037931
0.152870 0.309022 0.038063
0.181574 0.309361 0.038198
0.210941 0.309708 0.038336
0.240907 0.310063 0.038478
0.271403 0.310426 0.038623
0.302365 0.310795 0.038770
0.333726 0.311169 0.038919
0.365418 0.311549 0.039070
0.397376 0.311932 0.039222
0.429534 0.312319 0.039376
0.461824 0.312708 0.039530
0.494180 0.313100 0.039685
0.526536 0.313492 0.039841
0.558825 0.313884 0.039996
0.590981 0.314276 0.040151
0.622938 0.314666 0.040305
0.654629 0.315054 0.040458
0.685988 0.315438 0.040610
0.716947 0.315819 0.040760
0.747441 0.316195 0.040909
0.777109 0.316561 0.041053
0.804854 0.316905 0.041188
0.830694 0.317225 0.041314
0.854742 0.317524 0.041432
0.877104 0.317802 0.041541
0.897872 0.318061 0.041643
0.917133 0.318302 0.041737
0.934962 0.318525 0.041825
0.023978 0.339388 0.037941
0.048362 0.339675 0.038056
0.073743 0.339974 0.038176
0.100053 0.340285 0.038300
0.127228 0.340607 0.038428
0.155200 0.340939 0.038561
0.183903 0.341281 0.038697
0.213270 0.341631 0.038836
0.243234 0.341989 0.038979
0.273731 0.342355 0.039124
0.304692 0.342727 0.039272
0.336052 0.343104 0.039422
0.367744 0.343487 0.039574
0.399701 0.343873 0.039727
0.431858 0.344263 0.039881
0.464147 0.344656 0.040037
0.496503 0.345050 0.040193
0.528858 0.345446 0.040349
0.561147 0.345841 0.040505
0.593303 0.346236 0.040661
0.625259 0.346629 0.040816
0.656949 0.347020 0.040970
0.688307 0.347408 0.041123
0.719266 0.347791 0.041274
0.749760 0.348170 0.041423
0.779426 0.348539 0.041568
0.807172 0.348886 0.041704
0.833010 0.349209 0.041831
0.857058 0.349510 0.041949
0.879420 0.349790 0.042059
0.900188 0.350051 0.042161
0.919448 0.350294 0.042256
0.937277 0.350518 0.042344
0.026333 0.371641 0.038444
0.050716 0.371930 0.038560
0.076096 0.372232 0.038680
0.102407 0.372546 0.038805
0.129581 0.372871 0.038934
0.157552 0.373205 0.039067
0.186254 0.373550 0.039204
0.215621 0.373903 0.039345
0.245585 0.374264 0.039488
0.276081 0.374633 0.039634
0.307042 0.375007 0.039783
0.338401 0.375388 0.039933
0.370092 0.375774 0.040086
0.402049 0.376163 0.040240
0.434205 0.376557 0.040396
0.466494 0.376952 0.040552
0.498849 0.377350 0.040709
0.531203 0.377748 0.040866
0.563492 0.378147 0.041023
0.595647 0.378545 0.041180
0.627602 0.378941 0.041336
0.659292 0.379335 0.041490
0.690649 0.379726 0.041644
0.721608 0.380113 0.041796
0.752101 0.380495 0.041946
0.781767 0.380867 0.042092
0.809511 0.381216 0.042228
0.835350 0.381541 0.042356
0.859397 0.381845 0.042475
0.881758 0.382128 0.042585
0.902526 0.382391 0.042688
0.921786 0.382635 0.042784
0.939614 0.382861 0.042872
0.028705 0.404175 0.038955
0.053088 0.404467 0.039071
0.078468 0.404771 0.039192
0.104778 0.405088 0.039317
0.131951 0.405415 0.039447
0.159922 0.405753 0.039581
0.188624 0.406100 0.039719
0.217990 0.406456 0.039860
0.247953 0.406820 0.040004
0.278448 0.407192 0.040151
0.309409 0.407570 0.040300
0.340767 0.407953 0.040452
0.372458 0.408342 0.040606
0.404414 0.408735 0.040761
0.436570 0.409131 0.040917
0.468858 0.409530 0.041074
0.501212 0.409931 0.041232
0.533566 0.410333 0.041390
0.565854 0.410734 0.041548
0.598008 0.411135 0.041705
0.629963 0.411535 0.041862
0.661652 0.411932 0.042018
0.693009 0.412326 0.042172
0.723967 0.412716 0.042325
0.754459 0.413101 0.042476
0.784125 0.413476 0.042623
0.811869 0.413828 0.042760
0.837707 0.414156 0.042888
0.861754 0.414462 0.043008
0.884114 0.414747 0.043119
0.904882 0.415012 0.043222
0.924141 0.415258 0.043319
0.941969 0.415486 0.043408
0.031090 0.436923 0.039471
0.055473 0.437217 0.039588
0.080852 0.437524 0.039709
0.107161 0.437843 0.039836
0.134334 0.438173 0.039966
0.162305 0.438514 0.040101
0.191006 0.438864 0.040240
0.220371 0.439223 0.040381
0.250334 0.439590 0.040526
0.280829 0.439964 0.040674
0.311788 0.440345 0.040825
0.343146 0.440732 0.040977
0.374836 0.441124 0.041131
0.406792 0.441520 0.041287
0.438947 0.441920 0.041444
0.471234 0.442322 0.041602
0.503588 0.442726 0.041761
0.535942 0.443131 0.041920
0.568229 0.443536 0.042079
0.600383 0.443940 0.042237
0.632337 0.444343 0.042395
0.664025 0.444743 0.042552
0.695381 0.445140 0.042707
0.726339 0.445533 0.042861
0.756831 0.445921 0.043012
0.786495 0.446299 0.043160
0.814239 0.446654 0.043298
0.840064 0.446984 0.043437
0.864034 0.447293 0.043622
0.886322 0.447580 0.043793
0.907023 0.447847 0.043952
0.926221 0.448095 0.044100
0.943991 0.448325 0.044237
0.033483 0.469817 0.039992
0.057865 0.470114 0.040110
0.083244 0.470423 0.040232
0.109553 0.470745 0.040359
0.136725 0.471078 0.040491
0.164695 0.471421 0.040626
0.193396 0.471774 0.040765
0.222760 0.472136 0.040908
0.252723 0.472506 0.041054
0.283217 0.472884 0.041203
0.314176 0.473268 0.041354
0.345533 0.473658 0.041507
0.377223 0.474053 0.041662
0.409178 0.474452 0.041819
0.441332 0.474855 0.041977
0.473619 0.475260 0.042136
0.505972 0.475667 0.042296
0.538325 0.476075 0.042455
0.570611 0.476484 0.042615
0.602764 0.476891 0.042775
0.634718 0.477297 0.042933
0.666406 0.477701 0.043091
0.697761 0.478101 0.043247
0.728718 0.478497 0.043401
0.759116 0.478888 0.043632
0.788685 0.479269 0.043859
0.816340 0.479626 0.044072
0.842094 0.479959 0.044270
0.866063 0.480270 0.044455
0.888351 0.480560 0.044627
0.909052 0.480829 0.044787
0.928249 0.481079 0.044936
0.946019 0.481310 0.045073
0.035879 0.502790 0.040518
0.060261 0.503089 0.040636
0.085639 0.503401 0.040759
0.111947 0.503725 0.040887
0.139119 0.504061 0.041019
0.167088 0.504407 0.041155
0.195788 0.504763 0.041295
0.225152 0.505128 0.041439
0.255114 0.505501 0.041586
0.285608 0.505881 0.041735
0.316566 0.506269 0.041887
0.347923 0.506662 0.042041
0.379612 0.507060 0.042197
0.411566 0.507462 0.042355
0.443720 0.507868 0.042514
0.476006 0.508277 0.042674
0.508358 0.508687 0.042834
0.540711 0.509099 0.042995
0.572997 0.509510 0.043156
0.605149 0.509921 0.043316
0.637059 0.510330 0.043512
0.668645 0.510737 0.043755
0.699899 0.511140 0.043995
0.730756 0.511539 0.044233
0.761150 0.511933 0.044467
0.790719 0.512317 0.044696
0.818373 0.512677 0.044909
0.844126 0.513013 0.045108
0.868095 0.513326 0.045294
0.890382 0.513618 0.045467
0.911083 0.513889 0.045627
0.930280 0.514141 0.045776
0.948049 0.514375 0.045914
0.038273 0.535773 0.041046
0.062654 0.536075 0.041165
0.088031 0.536390 0.041289
0.114339 0.536717 0.041418
0.141511 0.537055 0.041551
0.169479 0.537404 0.041688
0.198179 0.537762 0.041828
0.227542 0.538130 0.041973
0.257504 0.538506 0.042120
0.287997 0.538890 0.042271
0.318954 0.539280 0.042423
0.350310 0.539677 0.042579
0.381999 0.540078 0.042736
0.413953 0.540484 0.042894
0.446105 0.540893 0.043054
0.478391 0.541305 0.043215
0.510743 0.541719 0.043376
0.543011 0.542133 0.043607
0.575193 0.542548 0.043855
0.607243 0.542962 0.044101
0.639093 0.543374 0.044347
0.670678 0.543784 0.044591
0.701932 0.544191 0.044832
0.732789 0.544593 0.045071
0.763181 0.544990 0.045306
0.792750 0.545377 0.045535
0.820403 0.545740 0.045750
0.846156 0.546078 0.045949
0.870124 0.546394 0.046136
0.892412 0.546687 0.046309
0.913111 0.546961 0.046470
0.932308 0.547215 0.046620
0.950077 0.547450 0.046758
0.040659 0.568700 0.041577
0.065040 0.569004 0.041696
0.090417 0.569322 0.041821
0.116724 0.569651 0.041950
0.143895 0.569992 0.042084
0.171863 0.570344 0.042222
0.200562 0.570705 0.042363
0.229925 0.571076 0.042509
0.259886 0.571455 0.042657
0.290378 0.571842 0.042808
0.321335 0.572235 0.042962
0.352691 0.572635 0.043118
0.384379 0.573039 0.043276
0.416314 0.573448 0.043450
0.448364 0.573861 0.043696
0.480546 0.574276 0.043944
0.512793 0.574693 0.044192
0.545041 0.575110 0.044441
0.577222 0.575528 0.044689
0.609271 0.575946 0.044937
0.641121 0.576361 0.045183
0.672705 0.576774 0.045428
0.703959 0.577184 0.045670
0.734815 0.577589 0.045910
0.765207 0.577989 0.046146
0.794774 0.578379 0.046376
0.822427 0.578745 0.046591
0.848180 0.579086 0.046792
0.872148 0.579404 0.046979
0.894434 0.579700 0.047153
0.915133 0.579975 0.047314
0.934330 0.580231 0.047465
0.952099 0.580468 0.047604
0.043034 0.601502 0.042108
0.067414 0.601809 0.042228
0.092791 0.602129 0.042354
0.119098 0.602461 0.042484
0.146268 0.602804 0.042618
0.174236 0.603159 0.042757
0.202934 0.603523 0.042899
0.232296 0.603897 0.043045
0.262257 0.604279 0.043194
0.292748 0.604669 0.043346
0.323645 0.605065 0.043551
0.354900 0.605468 0.043791
0.386486 0.605876 0.044034
0.418336 0.606288 0.044279
0.450385 0.606703 0.044527
0.482566 0.607122 0.044775
0.514813 0.607542 0.045025
0.547060 0.607963 0.045274
0.579241 0.608384 0.045524
0.611289 0.608804 0.045772
0.643138 0.609223 0.046019
0.674722 0.609639 0.046265
0.705975 0.610052 0.046508
0.736830 0.610461 0.046749
0.767221 0.610864 0.046986
0.796789 0.611257 0.047216
0.824441 0.611625 0.047433
0.850193 0.611969 0.047634
0.874160 0.612289 0.047822
0.896446 0.612587 0.047996
0.917145 0.612865 0.048158
0.936341 0.613122 0.048309
0.954109 0.613361 0.048449
0.045392 0.634112 0.042639
0.069772 0.634421 0.042760
0.095148 0.634743 0.042886
0.121454 0.635078 0.043017
0.148624 0.635424 0.043152
0.176591 0.635781 0.043291
0.205271 0.636149 0.043449
0.234539 0.636525 0.043674
0.264403 0.636910 0.043904
0.294797 0.637303 0.044138
0.325654 0.637703 0.044376
0.356908 0.638108 0.044617
0.388493 0.638519 0.044861
0.420343 0.638934 0.045107
0.452391 0.639353 0.045355
0.484572 0.639775 0.045605
0.516819 0.640198 0.045855
0.549065 0.640622 0.046105
0.581245 0.641047 0.046356
0.613292 0.641470 0.046605
0.645141 0.641892 0.046853
0.676724 0.642312 0.047100
0.707976 0.642727 0.047344
0.738831 0.643139 0.047585
0.769222 0.643545 0.047823
0.798788 0.643941 0.048055
0.826440 0.644312 0.048272
0.852191 0.644658 0.048474
0.876158 0.644981 0.048662
0.898444 0.645281 0.048837
0.919142 0.645561 0.049000
0.938338 0.645821 0.049151
0.956106 0.646061 0.049291
0.047728 0.666460 0.043169
0.072107 0.666772 0.043290
0.097477 0.667097 0.043422
0.123699 0.667434 0.043623
0.150781 0.667783 0.043832
0.178659 0.668143 0.044046
0.207264 0.668513 0.044267
0.236532 0.668892 0.044492
0.266395 0.669280 0.044723
0.296788 0.669676 0.044958
0.327644 0.670079 0.045197
0.358898 0.670488 0.045439
0.390482 0.670902 0.045684
0.422331 0.671320 0.045931
0.454379 0.671742 0.046180
0.486559 0.672167 0.046430
0.518805 0.672593 0.046681
0.551051 0.673021 0.046933
0.583230 0.673448 0.047184
0.615277 0.673875 0.047434
0.647124 0.674300 0.047684
0.678707 0.674722 0.047931
0.709959 0.675141 0.048176
0.740813 0.675556 0.048418
0.771203 0.675965 0.048657
0.800769 0.676364 0.048889
0.828420 0.676738 0.049107
0.854171 0.677086 0.049310
0.878137 0.677411 0.049499
0.900423 0.677714 0.049675
0.921120 0.677996 0.049838
0.940316 0.678257 0.049990
0.958083 0.678500 0.050130
0.049854 0.698480 0.043849
0.074155 0.698794 0.044036
0.099449 0.699121 0.044231
0.125670 0.699461 0.044433
0.152752 0.699813 0.044642
0.180629 0.700176 0.044857
0.209234 0.700548 0.045079
0.238501 0.700931 0.045305
0.268363 0.701322 0.045537
0.298756 0.701720 0.045772
0.329612 0.702126 0.046012
0.360864 0.702538 0.046255
0.392448 0.702955 0.046501
0.424297 0.703376 0.046749
0.456344 0.703802 0.046999
0.488523 0.704229 0.047250
0.520768 0.704659 0.047502
0.553013 0.705090 0.047754
0.585192 0.705520 0.048006
0.617238 0.705950 0.048258
0.649085 0.706378 0.048508
0.680667 0.706804 0.048756
0.711918 0.707226 0.049002
0.742772 0.707643 0.049245
0.773161 0.708055 0.049484
0.802727 0.708457 0.049718
0.830377 0.708834 0.049936
0.856128 0.709185 0.050140
0.880094 0.709512 0.050329
0.902378 0.709817 0.050506
0.923076 0.710101 0.050670
0.942271 0.710364 0.050822
0.960038 0.710608 0.050963
0.051799 0.730103 0.044649
0.076100 0.730419 0.044837
0.101394 0.730749 0.045032
0.127614 0.731091 0.045235
0.154696 0.731446 0.045445
0.182572 0.731811 0.045661
0.211176 0.732187 0.045883
0.240443 0.732572 0.046111
0.270305 0.732966 0.046343
0.300697 0.733367 0.046579
0.331552 0.733776 0.046820
0.362804 0.734191 0.047064
0.394387 0.734611 0.047310
0.426235 0.735035 0.047559
0.458282 0.735464 0.047810
0.490460 0.735894 0.048062
0.522705 0.736327 0.048315
0.554949 0.736761 0.048568
0.587127 0.737195 0.048821
0.619173 0.737628 0.049074
0.651019 0.738059 0.049324
0.682601 0.738487 0.049574
0.713851 0.738912 0.049820
0.744704 0.739333 0.050064
0.775093 0.739748 0.050305
0.804658 0.740153 0.050539
0.832308 0.740532 0.050758
0.858058 0.740885 0.050962
0.882023 0.741215 0.051152
0.904307 0.741522 0.051330
0.925005 0.741808 0.051494
0.944199 0.742073 0.051647
0.961966 0.742319 0.051788
0.053714 0.761261 0.045440
0.078014 0.761579 0.045628
0.103307 0.761911 0.045825
0.129527 0.762256 0.046028
0.156608 0.762613 0.046239
0.184484 0.762981 0.046456
0.213088 0.763359 0.046679
0.242353 0.763747 0.046907
0.272215 0.764144 0.047140
0.302606 0.764548 0.047377
0.333461 0.764960 0.047619
0.364712 0.765378 0.047863
0.396295 0.765801 0.048111
0.428142 0.766228 0.048361
0.460188 0.766660 0.048612
0.492366 0.767094 0.048865
0.524610 0.767529 0.049119
0.556854 0.767966 0.049373
0.589031 0.768403 0.049627
0.621076 0.768839 0.049880
0.652922 0.769273 0.050132
0.684503 0.769705 0.050382
0.715753 0.770133 0.050629
0.746605 0.770556 0.050874
0.776993 0.770974 0.051115
0.806558 0.771381 0.051350
0.834207 0.771763 0.051570
0.859957 0.772119 0.051775
0.883921 0.772451 0.051966
0.906205 0.772761 0.052144
0.926902 0.773048 0.052309
0.946096 0.773315 0.052462
0.963863 0.773563 0.052604
0.055575 0.791583 0.046212
0.079874 0.791903 0.046401
0.105167 0.792238 0.046598
0.131387 0.792585 0.046803
0.158467 0.792944 0.047014
0.186342 0.793315 0.047231
0.214945 0.793696 0.047455
0.244210 0.794087 0.047684
0.274072 0.794486 0.047918
0.304462 0.794893 0.048156
0.335316 0.795308 0.048398
0.366567 0.795728 0.048644
0.398149 0.796154 0.048892
0.429996 0.796585 0.049143
0.462041 0.797019 0.049395
0.494219 0.797456 0.049649
0.526462 0.797895 0.049904
0.558705 0.798334 0.050159
0.590882 0.798774 0.050413
0.622926 0.799213 0.050667
0.654772 0.799650 0.050920
0.686352 0.800085 0.051170
0.717601 0.800516 0.051419
0.748453 0.800942 0.051664
0.778840 0.801363 0.051906
0.808404 0.801773 0.052142
0.836053 0.802157 0.052363
0.861802 0.802516 0.052568
0.885767 0.802850 0.052760
0.908050 0.803161 0.052938
0.928746 0.803451 0.053104
0.947940 0.803719 0.053258
0.965706 0.803969 0.053400
0.057313 0.819949 0.046937
0.081612 0.820272 0.047126
0.106904 0.820609 0.047324
0.133124 0.820958 0.047529
0.160204 0.821320 0.047741
0.188078 0.821693 0.047959
0.216681 0.822076 0.048183
0.245946 0.822469 0.048413
0.275806 0.822871 0.048648
0.306196 0.823281 0.048887
0.337050 0.823698 0.049130
0.368300 0.824122 0.049376
0.399882 0.824550 0.049625
0.431728 0.824984 0.049876
0.463772 0.825421 0.050130
0.495949 0.825860 0.050384
0.528192 0.826302 0.050640
0.560435 0.826744 0.050895
0.592611 0.827187 0.051151
0.624655 0.827629 0.051406
0.656500 0.828069 0.051659
0.688079 0.828506 0.051911
0.719328 0.828939 0.052160
0.750179 0.829368 0.052406
0.780566 0.829792 0.052649
0.810129 0.830204 0.052885
0.837778 0.830591 0.053106
