LUTs/BRX_Masterclass_Look_Subtle.cube
TITLE "BRX Masterclass Look Subtle"
LUT_3D_SIZE 9
DOMAIN_MIN 0.0 0.0 0.0
DOMAIN_MAX 1.0 1.0 1.0
0.000684 0.022355 0.033143
0.103953 0.023475 0.033603
0.219981 0.024745 0.034122
0.344513 0.026122 0.034684
0.473297 0.027561 0.035268
0.602077 0.029015 0.035857
0.726601 0.030436 0.036431
0.833919 0.031672 0.036928
0.914153 0.032603 0.037302
0.008412 0.127132 0.034700
0.111675 0.128285 0.035168
0.227696 0.129592 0.035698
0.352221 0.131008 0.036270
0.480996 0.132489 0.036866
0.609768 0.133984 0.037467
0.734285 0.135444 0.038051
0.841597 0.136715 0.038558
0.921825 0.137671 0.038939
0.017070 0.244987 0.036485
0.120326 0.246178 0.036964
0.236339 0.247526 0.037505
0.360855 0.248988 0.038090
0.489621 0.250514 0.038699
0.618384 0.252056 0.039312
0.742892 0.253561 0.039909
0.850197 0.254870 0.040426
0.930420 0.255856 0.040815
0.026333 0.371641 0.038444
0.129581 0.372871 0.038934
0.245585 0.374264 0.039488
0.370092 0.375774 0.040086
0.498849 0.377350 0.040709
0.627602 0.378941 0.041336
0.752101 0.380495 0.041946
0.859397 0.381845 0.042475
0.939614 0.382861 0.042872
0.035879 0.502790 0.040518
0.139119 0.504061 0.041019
0.255114 0.505501 0.041586
0.379612 0.507060 0.042197
0.508358 0.508687 0.042834
0.637059 0.510330 0.043512
0.761150 0.511933 0.044467
0.868095 0.513326 0.045294
0.948049 0.514375 0.045914
0.045392 0.634112 0.042639
0.148624 0.635424 0.043152
0.264403 0.636910 0.043904
0.388493 0.638519 0.044861
0.516819 0.640198 0.045855
0.645141 0.641892 0.046853
0.769222 0.643545 0.047823
0.876158 0.644981 0.048662
0.956106 0.646061 0.049291
0.053714 0.761261 0.045440
0.156608 0.762613 0.046239
0.272215 0.764144 0.047140
0.396295 0.765801 0.048111
0.524610 0.767529 0.049119
0.652922 0.769273 0.050132
0.776993 0.770974 0.051115
0.883921 0.772451 0.051966
0.963863 0.773563 0.052604
0.060435 0.870974 0.048245
0.163322 0.872360 0.049054
0.278921 0.873930 0.049966
0.402993 0.875628 0.050949
0.531299 0.877399 0.051969
0.659602 0.879186 0.052994
0.783665 0.880928 0.053989
0.890586 0.882441 0.054850
0.970522 0.883579 0.055496
0.065443 0.953077 0.050365
0.168326 0.954489 0.051181
0.283919 0.956087 0.052101
0.407984 0.957817 0.053093
0.536284 0.959620 0.054122
0.664581 0.961439 0.055156
0.788637 0.963212 0.056160
0.895553 0.964752 0.057029
0.975485 0.965910 0.057680
0.001465 0.022735 0.134269
0.104733 0.023858 0.134729
0.220761 0.025132 0.135250
0.345293 0.026513 0.135812
0.474075 0.027956 0.136398
0.602854 0.029414 0.136988
0.727378 0.030839 0.137562
0.834695 0.032078 0.138061
0.914928 0.033012 0.138435
0.009191 0.127522 0.135828
0.112453 0.128678 0.136298
0.228474 0.129989 0.136828
0.352998 0.131410 0.137402
0.481772 0.132894 0.137999
0.610543 0.134394 0.138601
0.735059 0.135858 0.139186
0.842370 0.137132 0.139694
0.922598 0.138091 0.140076
0.017847 0.245391 0.137617
0.121102 0.246584 0.138097
0.237114 0.247936 0.138639
0.361629 0.249402 0.139225
0.490395 0.250933 0.139835
0.619157 0.252478 0.140449
0.743664 0.253988 0.141047
0.850968 0.255300 0.141566
0.931190 0.256288 0.141955
0.027107 0.372057 0.139580
0.130354 0.373290 0.140071
0.246358 0.374688 0.140626
0.370864 0.376201 0.141225
0.499620 0.377782 0.141849
0.628373 0.379377 0.142477
0.752870 0.380935 0.143088
0.860166 0.382288 0.143618
0.940382 0.383307 0.144016
0.036650 0.503220 0.141658
0.139890 0.504495 0.142160
0.255884 0.505938 0.142727
0.380381 0.507502 0.143340
0.509127 0.509133 0.143978
0.637714 0.510780 0.144750
0.761804 0.512387 0.145707
0.868749 0.513784 0.146535
0.948703 0.514835 0.147155
0.046160 0.634556 0.143783
0.149392 0.635872 0.144296
0.265059 0.637362 0.145142
0.389148 0.638975 0.146101
0.517472 0.640658 0.147096
0.645793 0.642356 0.148096
0.769873 0.644013 0.149067
0.876809 0.645452 0.149907
0.956756 0.646535 0.150537
0.054368 0.761719 0.146681
0.157261 0.763074 0.147481
0.272867 0.764609 0.148383
0.396947 0.766270 0.149355
0.525261 0.768003 0.150364
0.653572 0.769751 0.151378
0.777643 0.771456 0.152362
0.884570 0.772936 0.153214
0.964511 0.774050 0.153853
0.061086 0.871443 0.149489
0.163973 0.872833 0.150299
0.279571 0.874406 0.151212
0.403642 0.876109 0.152196
0.531947 0.877884 0.153218
0.660250 0.879675 0.154244
0.784312 0.881421 0.155240
0.891232 0.882938 0.156102
0.971168 0.884079 0.156748
0.066093 0.953555 0.151612
0.168975 0.954971 0.152429
0.284567 0.956573 0.153350
0.408632 0.958306 0.154342
0.536931 0.960114 0.155373
0.665227 0.961937 0.156408
0.789282 0.963714 0.157414
0.896197 0.965257 0.158283
0.976128 0.966418 0.158935
0.002342 0.023162 0.247891
0.105610 0.024289 0.248352
0.221637 0.025567 0.248874
0.346168 0.026952 0.249437
0.474949 0.028400 0.250024
0.603727 0.029863 0.250616
0.728250 0.031293 0.251192
0.835567 0.032536 0.251691
0.915799 0.033472 0.252066
0.010066 0.127962 0.249454
0.113328 0.129122 0.249924
0.229347 0.130437 0.250456
0.353870 0.131862 0.251031
0.482644 0.133351 0.251629
0.611414 0.134856 0.252232
0.735929 0.136325 0.252819
0.843239 0.137602 0.253328
0.923467 0.138564 0.253710
0.018719 0.245845 0.251246
0.121973 0.247042 0.251727
0.237985 0.248399 0.252271
0.362499 0.249869 0.252858
0.491264 0.251404 0.253469
0.620025 0.252954 0.254085
0.744532 0.254468 0.254684
0.851835 0.255785 0.255203
0.932056 0.256775 0.255594
0.027976 0.372527 0.253214
0.131223 0.373764 0.253706
0.247225 0.375165 0.254261
0.371731 0.376683 0.254862
0.500486 0.378268 0.255487
0.629238 0.379868 0.256116
0.753735 0.381430 0.256729
0.861030 0.382788 0.257260
0.941245 0.383810 0.257659
0.037517 0.503705 0.255295
0.140755 0.504984 0.255799
0.256749 0.506431 0.256367
0.381245 0.507999 0.256981
0.509990 0.509636 0.257621
0.638450 0.511287 0.258499
0.762540 0.512899 0.259457
0.869483 0.514299 0.260286
0.949437 0.515353 0.260907
0.047024 0.635057 0.257425
0.150180 0.636377 0.258001
0.265794 0.637871 0.258892
0.389883 0.639488 0.259851
0.518206 0.641176 0.260848
0.646526 0.642879 0.261849
0.770606 0.644540 0.262821
0.877541 0.645983 0.263662
0.957487 0.647069 0.264293
0.055102 0.762235 0.260432
0.157995 0.763594 0.261233
0.273600 0.765133 0.262136
0.397679 0.766799 0.263109
0.525992 0.768536 0.264120
0.654302 0.770289 0.265136
0.778372 0.771998 0.266121
0.885298 0.773483 0.266974
0.965238 0.774600 0.267614
0.061818 0.871972 0.263245
0.164704 0.873366 0.264055
0.280301 0.874944 0.264969
0.404371 0.876650 0.265954
0.532676 0.878431 0.266978
0.660977 0.880226 0.268005
0.785038 0.881977 0.269003
0.891958 0.883497 0.269866
0.971893 0.884641 0.270513
0.066823 0.954094 0.265370
0.169704 0.955513 0.266187
0.285295 0.957120 0.267110
0.409359 0.958858 0.268104
0.537657 0.960670 0.269136
0.665952 0.962497 0.270173
0.790007 0.964279 0.271179
0.896921 0.965826 0.272050
0.976851 0.966990 0.272703
0.003284 0.023622 0.369844
0.106551 0.024753 0.370306
0.222576 0.026036 0.370829
0.347106 0.027426 0.371394
0.475887 0.028879 0.371983
0.604664 0.030347 0.372575
0.729186 0.031781 0.373152
0.836502 0.033029 0.373653
0.916734 0.033968 0.374029
0.011005 0.128436 0.371410
0.114266 0.129600 0.371882
0.230284 0.130920 0.372415
0.354807 0.132350 0.372991
0.483579 0.133844 0.373591
0.612349 0.135353 0.374195
0.736862 0.136827 0.374783
0.844172 0.138109 0.375294
0.924399 0.139074 0.375677
0.019655 0.246334 0.373207
0.122909 0.247535 0.373689
0.238919 0.248896 0.374234
0.363433 0.250371 0.374822
0.492196 0.251911 0.375435
0.620957 0.253467 0.376052
0.745462 0.254986 0.376653
0.852764 0.256306 0.377173
0.932985 0.257300 0.377565
0.028909 0.373032 0.375179
0.132155 0.374273 0.375672
0.248157 0.375679 0.376229
0.372661 0.377202 0.376831
0.501415 0.378792 0.377457
0.630166 0.380397 0.378088
0.754662 0.381964 0.378702
0.861956 0.383326 0.379234
0.942142 0.384351 0.379659
0.038446 0.504228 0.377266
0.141684 0.505510 0.377770
0.257677 0.506962 0.378340
0.382172 0.508535 0.378955
0.510911 0.510176 0.379600
0.639240 0.511833 0.380588
0.763329 0.513449 0.381547
0.870272 0.514854 0.382378
0.950224 0.515911 0.383000
0.047950 0.635596 0.379400
0.150971 0.636920 0.380090
0.266584 0.638418 0.380982
0.390671 0.640041 0.381943
0.518993 0.641733 0.382941
0.647313 0.643441 0.383943
0.771391 0.645108 0.384917
0.878325 0.646555 0.385759
0.958271 0.647644 0.386391
0.055890 0.762790 0.382524
0.158782 0.764154 0.383326
0.274386 0.765697 0.384231
0.398464 0.767367 0.385205
0.526776 0.769110 0.386218
0.655085 0.770868 0.387234
0.779154 0.772582 0.388221
0.886079 0.774071 0.389076
0.966019 0.775191 0.389716
0.062603 0.872542 0.385341
0.165488 0.873940 0.386152
0.281084 0.875522 0.387068
0.405153 0.877233 0.388054
0.533457 0.879019 0.389079
0.661758 0.880819 0.390108
0.785818 0.882575 0.391107
0.892736 0.884099 0.391971
0.972670 0.885246 0.392619
0.067606 0.954674 0.387469
0.170486 0.956097 0.388288
0.286076 0.957708 0.389211
0.410139 0.959451 0.390207
0.538436 0.961268 0.391240
0.666730 0.963101 0.392278
0.790784 0.964887 0.393286
0.897697 0.966439 0.394158
0.977627 0.967605 0.394812
0.004257 0.024100 0.495963
0.107523 0.025235 0.496426
0.223548 0.026523 0.496950
0.348077 0.027918 0.497517
0.476857 0.029376 0.498107
0.605633 0.030849 0.498701
0.730154 0.032288 0.499279
0.837469 0.033540 0.499781
0.917700 0.034483 0.500158
0.011976 0.128928 0.497533
0.115236 0.130096 0.498006
0.231253 0.131420 0.498540
0.355774 0.132855 0.499118
0.484546 0.134355 0.499719
0.613315 0.135869 0.500325
0.737827 0.137348 0.500914
0.845136 0.138634 0.501426
0.925362 0.139603 0.501810
0.020622 0.246841 0.499334
0.123875 0.248047 0.499817
0.239885 0.249413 0.500363
0.364397 0.250893 0.500953
0.493160 0.252438 0.501567
0.621920 0.253999 0.502186
0.746424 0.255522 0.502788
0.853725 0.256847 0.503310
0.933946 0.257844 0.503702
0.029873 0.373556 0.501311
0.133118 0.374802 0.501805
0.249119 0.376212 0.502363
0.373623 0.377740 0.502967
0.502376 0.379335 0.503595
0.631126 0.380946 0.504227
0.755621 0.382518 0.504842
0.862914 0.383884 0.505375
0.942959 0.384912 0.505917
0.039407 0.504770 0.503402
0.142644 0.506056 0.503908
0.258636 0.507513 0.504479
0.383130 0.509091 0.505096
0.511728 0.510737 0.505859
0.640057 0.512399 0.506848
0.764144 0.514020 0.507809
0.871086 0.515429 0.508640
0.951038 0.516490 0.509263
0.048888 0.636156 0.505557
0.151788 0.637483 0.506349
0.267400 0.638986 0.507242
0.391486 0.640614 0.508204
0.519808 0.642312 0.509204
0.648126 0.644025 0.510208
0.772203 0.645696 0.511183
0.879136 0.647148 0.512026
0.959082 0.648240 0.512659
0.056704 0.763367 0.508787
0.159596 0.764734 0.509590
0.275199 0.766282 0.510496
0.399275 0.767957 0.511472
0.527587 0.769705 0.512486
0.655895 0.771468 0.513504
0.779962 0.773187 0.514493
0.886887 0.774680 0.515348
0.966826 0.775804 0.515989
0.063414 0.873133 0.511607
0.166299 0.874534 0.512420
0.281894 0.876121 0.513337
0.405962 0.877838 0.514325
0.534265 0.879628 0.515351
0.662564 0.881434 0.516381
0.786623 0.883195 0.517382
0.893541 0.884724 0.518247
0.973474 0.885873 0.518896
0.068415 0.955276 0.513738
0.171294 0.956703 0.514559
0.286884 0.958319 0.515484
0.410945 0.960066 0.516481
0.539241 0.961889 0.517516
0.667534 0.963727 0.518555
0.791587 0.965518 0.519565
0.898499 0.967074 0.520438
0.978429 0.968244 0.521092
0.005230 0.024580 0.622082
0.108495 0.025719 0.622547
0.224519 0.027011 0.623072
0.349047 0.028411 0.623640
0.477826 0.029874 0.624231
0.606601 0.031353 0.624827
0.731121 0.032797 0.625407
0.838435 0.034053 0.625910
0.918666 0.034999 0.626288
0.012946 0.129421 0.623656
0.116205 0.130594 0.624130
0.232222 0.131923 0.624666
0.356742 0.133363 0.625245
0.485513 0.134867 0.625848
0.614280 0.136387 0.626455
0.738792 0.137871 0.627046
0.846100 0.139161 0.627558
0.926326 0.140133 0.627943
0.021590 0.247351 0.625462
0.124842 0.248560 0.625946
0.240850 0.249931 0.626493
0.365362 0.251416 0.627085
0.494124 0.252966 0.627700
0.622882 0.254532 0.628320
0.747385 0.256061 0.628924
0.854686 0.257390 0.629447
0.934906 0.258391 0.629840
0.030837 0.374083 0.627443
0.134081 0.375332 0.627938
0.250081 0.376747 0.628498
0.374584 0.378280 0.629103
0.503336 0.379881 0.629732
0.632085 0.381496 0.630366
0.756579 0.383073 0.630982
0.863819 0.384443 0.631561
0.943776 0.385475 0.632176
0.040368 0.505313 0.629539
0.143604 0.506604 0.630046
0.259595 0.508065 0.630618
0.384088 0.509648 0.631237
0.512545 0.511300 0.632117
0.640873 0.512967 0.633108
0.764959 0.514593 0.634070
0.871900 0.516007 0.634903
0.951852 0.517070 0.635527
0.049706 0.636717 0.631816
0.152604 0.638048 0.632609
0.268216 0.639556 0.633503
0.392301 0.641189 0.634467
0.520621 0.642892 0.635468
0.648938 0.644610 0.636473
0.773015 0.646286 0.637450
0.879947 0.647742 0.638294
0.959892 0.648838 0.638928
0.057519 0.763945 0.635050
0.160409 0.765316 0.635854
0.276011 0.766869 0.636762
0.400087 0.768549 0.637739
0.528397 0.770302 0.638754
0.656704 0.772070 0.639774
0.780770 0.773794 0.640764
0.887694 0.775292 0.641621
0.967633 0.776418 0.642263
0.064226 0.873725 0.637875
0.167109 0.875131 0.638689
0.282703 0.876722 0.639607
0.406770 0.878444 0.640596
0.535072 0.880240 0.641624
0.663370 0.882051 0.642656
0.787428 0.883816 0.643658
0.894345 0.885350 0.644524
0.974278 0.886503 0.645174
0.069224 0.955879 0.640009
0.172102 0.957311 0.640830
0.287691 0.958931 0.641757
0.411752 0.960684 0.642755
0.540047 0.962511 0.643792
0.668338 0.964354 0.644833
0.792390 0.966151 0.645843
0.899302 0.967711 0.646718
0.979230 0.968884 0.647373
0.006170 0.025045 0.744036
0.109435 0.026189 0.744502
0.225458 0.027485 0.745029
0.349985 0.028890 0.745598
0.478763 0.030358 0.746191
0.607537 0.031842 0.746788
0.732056 0.033291 0.747369
0.839370 0.034551 0.747873
0.919600 0.035500 0.748252
0.013884 0.129900 0.745615
0.117142 0.131077 0.746090
0.233158 0.132410 0.746627
0.357677 0.133855 0.747207
0.486447 0.135364 0.747811
0.615214 0.136889 0.748419
0.739724 0.138378 0.749012
0.847032 0.139673 0.749525
0.927257 0.140647 0.749911
0.022525 0.247845 0.747424
0.125776 0.249058 0.747910
0.241784 0.250433 0.748458
0.366294 0.251923 0.749051
0.495055 0.253479 0.749668
0.623813 0.255050 0.750289
0.748315 0.256583 0.750894
0.855615 0.257917 0.751418
0.935834 0.258920 0.751812
0.031769 0.374593 0.749410
0.135012 0.375846 0.749907
0.251012 0.377266 0.750467
0.375513 0.378804 0.751073
0.504264 0.380410 0.751704
0.633012 0.382030 0.752339
0.757505 0.383612 0.752957
0.864609 0.384986 0.753649
0.944566 0.386021 0.754266
0.041296 0.505841 0.751511
0.144532 0.507135 0.752019
0.260522 0.508601 0.752592
0.385006 0.510189 0.753219
0.513335 0.511846 0.754207
0.641662 0.513518 0.755199
0.765747 0.515149 0.756163
0.872687 0.516566 0.756996
0.952638 0.517633 0.757622
0.050496 0.637261 0.753904
0.153394 0.638597 0.754699
0.269004 0.640109 0.755594
0.393088 0.641746 0.756559
0.521408 0.643454 0.757562
0.649724 0.645178 0.758569
0.773799 0.646859 0.759546
0.880731 0.648319 0.760392
0.960675 0.649418 0.761027
0.058305 0.764505 0.757144
0.161195 0.765881 0.757949
0.276796 0.767438 0.758857
0.400871 0.769123 0.759836
0.529180 0.770881 0.760853
0.657486 0.772654 0.761874
0.781552 0.774383 0.762866
0.888475 0.775885 0.763723
0.968412 0.777014 0.764367
0.065010 0.874300 0.759972
0.167892 0.875710 0.760788
0.283486 0.877306 0.761707
0.407552 0.879032 0.762698
0.535852 0.880833 0.763727
0.664150 0.882649 0.764760
0.788207 0.884419 0.765763
0.895123 0.885957 0.766631
0.975055 0.887113 0.767282
0.070006 0.956464 0.762109
0.172883 0.957900 0.762932
0.288471 0.959525 0.763860
0.412531 0.961282 0.764859
0.540825 0.963115 0.765897
0.669116 0.964963 0.766940
0.793166 0.966764 0.767952
0.900077 0.968328 0.768827
0.980005 0.969504 0.769484
0.006981 0.025448 0.849143
0.110245 0.026594 0.849610
0.226267 0.027895 0.850137
0.350793 0.029304 0.850708
0.479570 0.030777 0.851302
0.608344 0.032264 0.851900
0.732862 0.033718 0.852482
0.840175 0.034981 0.852987
0.920404 0.035933 0.853367
0.014692 0.130314 0.850724
0.117950 0.131494 0.851200
0.233965 0.132832 0.851738
0.358483 0.134281 0.852320
0.487252 0.135794 0.852925
0.616018 0.137323 0.853535
0.740528 0.138816 0.854128
0.847834 0.140115 0.854643
0.928059 0.141092 0.855029
0.023330 0.248272 0.852538
0.126581 0.249489 0.853024
0.242588 0.250868 0.853574
0.367098 0.252362 0.854167
0.495857 0.253922 0.854785
0.624614 0.255497 0.855408
0.749116 0.257035 0.856014
0.856415 0.258372 0.856539
0.936634 0.259378 0.856934
0.032572 0.375034 0.854527
0.135815 0.376291 0.855025
0.251813 0.377715 0.855587
0.376314 0.379257 0.856194
0.505064 0.380867 0.856826
0.633811 0.382492 0.857462
0.758303 0.384077 0.858081
0.865290 0.385456 0.858871
0.945247 0.386493 0.859488
0.042096 0.506296 0.856632
0.145331 0.507594 0.857141
0.261321 0.509064 0.857716
0.385687 0.510656 0.858440
0.514016 0.512317 0.859429
0.642341 0.513994 0.860423
0.766426 0.515629 0.861388
0.873365 0.517050 0.862222
0.953315 0.518119 0.862848
0.051177 0.637731 0.859127
0.154074 0.639070 0.859922
0.269683 0.640587 0.860819
0.393767 0.642228 0.861785
0.522085 0.643941 0.862789
0.650400 0.645668 0.863797
0.774475 0.647354 0.864776
0.881406 0.648817 0.865623
0.961349 0.649919 0.866258
0.058983 0.764990 0.862370
0.161872 0.766369 0.863176
0.277473 0.767930 0.864086
0.401546 0.769619 0.865066
0.529855 0.771381 0.866084
0.658160 0.773159 0.867106
0.782224 0.774892 0.868099
0.889147 0.776397 0.868958
0.969084 0.777530 0.869602
0.065685 0.874796 0.865202
0.168567 0.876210 0.866018
0.284160 0.877809 0.866939
0.408225 0.879540 0.867931
0.536524 0.881345 0.868961
0.664821 0.883166 0.869995
0.788877 0.884940 0.871000
0.895792 0.886481 0.871869
0.975724 0.887640 0.872520
0.070680 0.956970 0.867342
0.173556 0.958409 0.868165
0.289143 0.960038 0.869094
0.413202 0.961799 0.870095
0.541495 0.963636 0.871134
0.669785 0.965489 0.872178
0.793835 0.967294 0.873191
0.900745 0.968862 0.874068
0.980672 0.970041 0.874725
0.007586 0.025749 0.927724
0.110850 0.026899 0.928192
0.226872 0.028202 0.928720
0.351397 0.029614 0.929291
0.480173 0.031090 0.929886
0.608946 0.032581 0.930485
0.733464 0.034037 0.931069
0.840776 0.035304 0.931574
0.921005 0.036258 0.931955
0.015296 0.130625 0.929308
0.118553 0.131807 0.929784
0.234568 0.133147 0.930323
0.359086 0.134600 0.930906
0.487854 0.136117 0.931512
0.616619 0.137649 0.932122
0.741128 0.139145 0.932717
0.848434 0.140446 0.933232
0.928658 0.141425 0.933619
0.023932 0.248592 0.931124
0.127182 0.249812 0.931611
0.243189 0.251194 0.932161
0.367698 0.252691 0.932756
0.496457 0.254254 0.933375
0.625213 0.255833 0.933998
0.749714 0.257373 0.934605
0.857013 0.258713 0.935131
0.937231 0.259721 0.935526
0.033172 0.375365 0.933116
0.136414 0.376624 0.933615
0.252412 0.378051 0.934177
0.376912 0.379596 0.934785
0.505662 0.381209 0.935418
0.634408 0.382837 0.936055
0.758851 0.384426 0.936716
0.865799 0.385807 0.937539
0.945755 0.386847 0.938156
0.042694 0.506638 0.935224
0.145929 0.507939 0.935734
0.261917 0.509412 0.936309
0.386196 0.511006 0.937107
0.514524 0.512671 0.938097
0.642849 0.514350 0.939092
0.766933 0.515989 0.940057
0.873872 0.517413 0.940893
0.953822 0.518484 0.941520
0.051686 0.638084 0.937794
0.154582 0.639425 0.938590
0.270191 0.640945 0.939488
0.394274 0.642589 0.940455
0.522592 0.644305 0.941460
0.650906 0.646036 0.942469
0.774980 0.647724 0.943449
0.881910 0.649191 0.944296
0.961853 0.650294 0.944932
0.059490 0.765352 0.941041
0.162378 0.766734 0.941848
0.277978 0.768298 0.942758
0.402051 0.769991 0.943739
0.530359 0.771756 0.944758
0.658663 0.773537 0.945781
0.782727 0.775273 0.946775
0.889649 0.776781 0.947634
0.969586 0.777915 0.948279
0.066190 0.875168 0.943875
0.169071 0.876584 0.944692
0.284663 0.878187 0.945614
0.408728 0.879921 0.946607
0.537027 0.881729 0.947638
0.665323 0.883553 0.948673
0.789378 0.885330 0.949678
0.896293 0.886874 0.950548
0.976224 0.888035 0.951200
0.071183 0.957349 0.946017
0.174059 0.958790 0.946841
0.289645 0.960422 0.947771
0.413704 0.962187 0.948773
0.541996 0.964027 0.949813
0.670285 0.965882 0.950857
0.794335 0.967691 0.951872
0.901244 0.969261 0.952749
0.981171 0.970442 0.953407
