LUTs/BRX_Masterclass_Look.cube
TITLE "BRX Masterclass Look"
LUT_3D_SIZE 5
DOMAIN_MIN 0.0 0.0 0.0
DOMAIN_MAX 1.0 1.0 1.0
0.003157 0.036786 0.053461
0.203119 0.040558 0.055095
0.457601 0.045452 0.057202
0.712068 0.050450 0.059339
0.865859 0.053521 0.060646
0.028368 0.242188 0.059033
0.228297 0.246176 0.060730
0.482737 0.251344 0.062918
0.737162 0.256616 0.065136
0.890927 0.259852 0.066492
0.060293 0.504656 0.066433
0.260180 0.508918 0.068211
0.514567 0.514435 0.070502
0.767985 0.520056 0.073618
0.920874 0.523504 0.075739
0.090278 0.768298 0.075648
0.289024 0.772835 0.078423
0.541957 0.778701 0.081983
0.794872 0.784670 0.085576
0.947725 0.788329 0.087763
0.106532 0.928212 0.082870
0.305249 0.932913 0.085696
0.558146 0.938990 0.089322
0.811026 0.945171 0.092980
0.963856 0.948957 0.095207
0.005707 0.038060 0.246470
0.205666 0.041854 0.248110
0.460144 0.046776 0.250225
0.714606 0.051801 0.252371
0.868395 0.054889 0.253682
0.030907 0.243535 0.252063
0.230832 0.247545 0.253767
0.485268 0.252740 0.255963
0.739689 0.258040 0.258189
0.893451 0.261293 0.259550
0.062818 0.506096 0.259491
0.262701 0.510380 0.261276
0.517084 0.515925 0.263575
0.770125 0.521574 0.267009
0.923011 0.525038 0.269136
0.092415 0.769832 0.269044
0.291157 0.774390 0.271826
0.544086 0.780283 0.275395
0.796996 0.786281 0.278996
0.949846 0.789956 0.281188
0.108659 0.929801 0.276283
0.307373 0.934525 0.279116
0.560265 0.940629 0.282751
0.813140 0.946838 0.286418
0.965968 0.950640 0.288649
0.008951 0.039692 0.492121
0.208905 0.043514 0.493769
0.463378 0.048471 0.495894
0.717835 0.053532 0.498050
0.871620 0.056641 0.499368
0.034136 0.245260 0.497741
0.234058 0.249297 0.499453
0.488488 0.254529 0.501659
0.742903 0.259863 0.503896
0.896663 0.263138 0.505263
0.066029 0.507940 0.505204
0.265908 0.512252 0.506997
0.519883 0.517832 0.509642
0.772847 0.523515 0.513146
0.925729 0.527001 0.515280
0.095133 0.771794 0.515188
0.293871 0.776380 0.517978
0.546793 0.782308 0.521558
0.799698 0.788341 0.525171
0.952544 0.792037 0.527369
0.111365 0.931835 0.522449
0.310074 0.936586 0.525291
0.562961 0.942726 0.528937
0.815830 0.948969 0.532614
0.968654 0.952793 0.534852
0.012193 0.041336 0.737775
0.212143 0.045186 0.739431
0.466611 0.050178 0.741567
0.721062 0.055274 0.743733
0.874844 0.058404 0.745057
0.037364 0.246997 0.743423
0.237281 0.251062 0.745143
0.491707 0.256329 0.747360
0.746116 0.261699 0.749607
0.899872 0.264995 0.750980
0.069239 0.509796 0.750921
0.269114 0.514135 0.752722
0.522608 0.519750 0.755773
0.775567 0.525469 0.759288
0.928445 0.528976 0.761428
0.097850 0.773768 0.761335
0.296582 0.778381 0.764134
0.549499 0.784345 0.767725
0.802398 0.790413 0.771349
0.955240 0.794131 0.773554
0.114069 0.933881 0.768619
0.312774 0.938660 0.771470
0.565654 0.944835 0.775126
0.818517 0.951113 0.778814
0.971337 0.954958 0.781059
0.014152 0.042335 0.886249
0.214099 0.046202 0.887910
0.468564 0.051215 0.890052
0.723012 0.056333 0.892225
0.876792 0.059476 0.893553
0.039314 0.248053 0.891913
0.239229 0.252135 0.893638
0.493651 0.257422 0.895861
0.748057 0.262814 0.898115
0.901811 0.266123 0.899492
0.071178 0.510923 0.899432
0.271050 0.515279 0.901239
0.524255 0.520916 0.904535
0.777209 0.526656 0.908056
0.930086 0.530175 0.910200
0.099490 0.774967 0.910108
0.298220 0.779597 0.912912
0.551133 0.785582 0.916510
0.804028 0.791672 0.920139
0.956868 0.795402 0.922349
0.115703 0.935123 0.917405
0.314404 0.939919 0.920261
0.567281 0.946115 0.923923
0.820140 0.952415 0.927618
0.972958 0.956273 0.929867
