LUTs/BRX_Masterclass_Look.cube
TITLE "BRX Masterclass Look"
LUT_3D_SIZE 9
DOMAIN_MIN 0.0 0.0 0.0
DOMAIN_MAX 1.0 1.0 1.0
0.003157 0.036786 0.053461
0.092914 0.038471 0.054192
0.203119 0.040558 0.055095
0.326954 0.042927 0.056116
0.457601 0.045452 0.057202
0.588245 0.048005 0.058295
0.712068 0.050450 0.059339
0.806623 0.052334 0.060141
0.865859 0.053521 0.060646
0.014487 0.128894 0.055936
0.104237 0.130622 0.056679
0.214434 0.132763 0.057598
0.338260 0.135191 0.058637
0.468898 0.137780 0.059741
0.599531 0.140396 0.060853
0.723346 0.142901 0.061915
0.817893 0.144830 0.062730
0.877125 0.146046 0.063243
0.028368 0.242188 0.059033
0.118110 0.243970 0.059792
0.228297 0.246176 0.060730
0.352111 0.248678 0.061791
0.482737 0.251344 0.062918
0.613359 0.254037 0.064053
0.737162 0.256616 0.065136
0.831701 0.258601 0.065968
0.890927 0.259852 0.066492
0.043926 0.369760 0.062590
0.133658 0.371602 0.063368
0.243834 0.373881 0.064327
0.367636 0.376466 0.065412
0.498248 0.379219 0.066565
0.628857 0.382000 0.067726
0.752647 0.384661 0.068834
0.847176 0.386710 0.069684
0.906396 0.388000 0.070220
0.060293 0.504656 0.066433
0.150017 0.506561 0.067229
0.260180 0.508918 0.068211
0.383969 0.511590 0.069322
0.514567 0.514435 0.070502
0.644888 0.517308 0.071918
0.767985 0.520056 0.073618
0.861985 0.522171 0.074921
0.920874 0.523504 0.075739
0.076614 0.639862 0.070367
0.166327 0.641830 0.071182
0.275907 0.644264 0.072663
0.399003 0.647023 0.074366
0.528869 0.649961 0.076171
0.658732 0.652925 0.077985
0.781814 0.655761 0.079712
0.875803 0.657942 0.081035
0.934684 0.659316 0.081867
0.090278 0.768298 0.075648
0.179489 0.770327 0.076891
0.289024 0.772835 0.078423
0.412105 0.775676 0.080151
0.541957 0.778701 0.081983
0.671804 0.781752 0.083824
0.794872 0.784670 0.085576
0.888850 0.786915 0.086919
0.947725 0.788329 0.087763
0.100280 0.866566 0.080072
0.189483 0.868640 0.081330
0.299008 0.871204 0.082879
0.422079 0.874108 0.084627
0.551919 0.877199 0.086480
0.681755 0.880318 0.088341
0.804812 0.883299 0.090113
0.898782 0.885592 0.091471
0.957652 0.887035 0.092324
0.106532 0.928212 0.082870
0.195730 0.930314 0.084136
0.305249 0.932913 0.085696
0.428313 0.935858 0.087456
0.558146 0.938990 0.089322
0.687975 0.942150 0.091196
0.811026 0.945171 0.092980
0.904990 0.947494 0.094348
0.963856 0.948957 0.095207
0.004302 0.037357 0.140096
0.094058 0.039046 0.140828
0.204262 0.041139 0.141732
0.328096 0.043514 0.142755
0.458743 0.046046 0.143843
0.589385 0.048605 0.144938
0.713208 0.051056 0.145984
0.807762 0.052944 0.146787
0.866997 0.054134 0.147292
0.015630 0.129479 0.142574
0.105379 0.131212 0.143319
0.215575 0.133358 0.144239
0.339400 0.135793 0.145280
0.470037 0.138388 0.146386
0.600670 0.141010 0.147500
0.724483 0.143521 0.148563
0.819030 0.145455 0.149380
0.878261 0.146674 0.149894
0.029508 0.242791 0.145677
0.119249 0.244578 0.146437
0.229435 0.246789 0.147377
0.353249 0.249297 0.148439
0.483873 0.251970 0.149568
0.614494 0.254670 0.150705
0.738296 0.257254 0.151790
0.832834 0.259244 0.152624
0.892060 0.260498 0.153148
0.045062 0.370384 0.149240
0.134794 0.372231 0.150019
0.244969 0.374515 0.150980
0.368770 0.377106 0.152067
0.499381 0.379866 0.153222
0.629989 0.382653 0.154384
0.753778 0.385320 0.155494
0.848307 0.387373 0.156346
0.907526 0.388667 0.156882
0.061427 0.505302 0.153089
0.151149 0.507211 0.153887
0.261312 0.509574 0.154871
0.385099 0.512251 0.155983
0.515697 0.515103 0.157165
0.645850 0.517982 0.158722
0.768946 0.520736 0.160424
0.862945 0.522856 0.161728
0.921833 0.524191 0.162548
0.077744 0.640529 0.157030
0.167322 0.642501 0.157958
0.276869 0.644941 0.159468
0.399963 0.647706 0.161173
0.529829 0.650650 0.162980
0.659690 0.653621 0.164796
0.782771 0.656462 0.166524
0.876759 0.658648 0.167849
0.935640 0.660025 0.168682
0.091237 0.768986 0.162456
0.180448 0.771018 0.163700
0.289981 0.773532 0.165234
0.413062 0.776379 0.166965
0.542913 0.779410 0.168799
0.672759 0.782468 0.170641
0.795826 0.785392 0.172395
0.889803 0.787642 0.173740
0.948677 0.789058 0.174584
0.101236 0.867269 0.166885
0.190439 0.869347 0.168144
0.299963 0.871916 0.169695
0.423033 0.874827 0.171445
0.552872 0.877925 0.173300
0.682707 0.881049 0.175163
0.805763 0.884036 0.176936
0.899732 0.886334 0.178296
0.958601 0.887780 0.179150
0.107487 0.928924 0.169686
0.196684 0.931031 0.170953
0.306202 0.933636 0.172515
0.429265 0.936586 0.174277
0.559098 0.939725 0.176145
0.688925 0.942892 0.178021
0.811975 0.945918 0.179807
0.905939 0.948246 0.181176
0.964804 0.949711 0.182036
0.005707 0.038060 0.246470
0.095462 0.039755 0.247204
0.205666 0.041854 0.248110
0.329499 0.044236 0.249135
0.460144 0.046776 0.250225
0.590785 0.049343 0.251323
0.714606 0.051801 0.252371
0.809160 0.053695 0.253176
0.868395 0.054889 0.253682
0.017032 0.130200 0.248954
0.106781 0.131939 0.249701
0.216976 0.134091 0.250623
0.340800 0.136533 0.251666
0.471435 0.139136 0.252774
0.602067 0.141767 0.253890
0.725879 0.144285 0.254956
0.820425 0.146224 0.255774
0.879656 0.147447 0.256289
0.030907 0.243535 0.252063
0.120647 0.245327 0.252825
0.230832 0.247545 0.253767
0.354645 0.250060 0.254831
0.485268 0.252740 0.255963
0.615888 0.255448 0.257102
0.739689 0.258040 0.258189
0.834226 0.260036 0.259024
0.893451 0.261293 0.259550
0.046458 0.371153 0.255634
0.136189 0.373004 0.256414
0.246362 0.375296 0.257377
0.370162 0.377894 0.258466
0.500773 0.380661 0.259623
0.631379 0.383456 0.260788
0.755167 0.386131 0.261900
0.849695 0.388190 0.262754
0.908914 0.389487 0.263291
0.062818 0.506096 0.259491
0.152540 0.508011 0.260290
0.262701 0.510380 0.261276
0.386488 0.513065 0.262391
0.517084 0.515925 0.263575
0.647030 0.518812 0.265305
0.770125 0.521574 0.267009
0.864123 0.523699 0.268315
0.923011 0.525038 0.269136
0.079131 0.641350 0.263439
0.168503 0.643328 0.264539
0.278048 0.645774 0.266052
0.401142 0.648547 0.267759
0.531006 0.651498 0.269569
0.660866 0.654477 0.271387
0.783946 0.657326 0.273118
0.877933 0.659518 0.274445
0.936813 0.660898 0.275278
0.092415 0.769832 0.269044
0.181625 0.771870 0.270290
0.291157 0.774390 0.271826
0.414236 0.777245 0.273558
0.544086 0.780283 0.275395
0.673930 0.783349 0.277240
0.796996 0.786281 0.278996
0.890973 0.788536 0.280343
0.949846 0.789956 0.281188
0.102411 0.868134 0.273479
0.191613 0.870217 0.274739
0.301136 0.872794 0.276292
0.424204 0.875712 0.278045
0.554042 0.878817 0.279902
0.683875 0.881949 0.281767
0.806931 0.884944 0.283543
0.900899 0.887247 0.284905
0.959767 0.888697 0.285760
0.108659 0.929801 0.276283
0.197856 0.931913 0.277553
0.307373 0.934525 0.279116
0.430434 0.937482 0.280881
0.560265 0.940629 0.282751
0.690092 0.943804 0.284629
0.813140 0.946838 0.286418
0.907103 0.949171 0.287788
0.965968 0.950640 0.288649
0.007286 0.038852 0.366005
0.097040 0.040554 0.366741
0.207242 0.042660 0.367649
0.331074 0.045051 0.368677
0.461718 0.047599 0.369769
0.592358 0.050175 0.370869
0.716178 0.052642 0.371920
0.810730 0.054542 0.372726
0.869964 0.055740 0.373234
0.018608 0.131013 0.368495
0.108355 0.132758 0.369243
0.218549 0.134918 0.370168
0.342372 0.137368 0.371213
0.473006 0.139980 0.372324
0.603636 0.142619 0.373443
0.727447 0.145146 0.374511
0.821992 0.147092 0.375331
0.881222 0.148318 0.375847
0.032479 0.244373 0.371611
0.122218 0.246171 0.372375
0.232402 0.248396 0.373319
0.356213 0.250920 0.374386
0.486836 0.253609 0.375520
0.617454 0.256326 0.376662
0.741253 0.258926 0.377751
0.835790 0.260928 0.378589
0.895014 0.262190 0.379115
0.048025 0.372019 0.375191
0.137755 0.373876 0.375973
0.247928 0.376175 0.376938
0.371726 0.378782 0.378029
0.502335 0.381558 0.379189
0.632940 0.384362 0.380357
0.756727 0.387045 0.381471
0.851254 0.389110 0.382326
0.910472 0.390411 0.382865
0.064381 0.506992 0.379056
0.154102 0.508913 0.379857
0.264262 0.511289 0.380845
0.388047 0.513983 0.381962
0.518482 0.516851 0.383282
0.648356 0.519747 0.385074
0.771450 0.522517 0.386781
0.865447 0.524649 0.388089
0.924334 0.525992 0.388911
0.080612 0.642275 0.383078
0.169830 0.644259 0.384308
0.279374 0.646713 0.385823
0.402466 0.649494 0.387533
0.532329 0.652454 0.389345
0.662187 0.655442 0.391165
0.785265 0.658299 0.392899
0.879251 0.660497 0.394228
0.938131 0.661882 0.395062
0.093738 0.770785 0.388819
0.182947 0.772829 0.390067
0.292478 0.775356 0.391605
0.415555 0.778220 0.393340
0.545403 0.781267 0.395179
0.675247 0.784342 0.397027
0.798311 0.787282 0.398786
0.892286 0.789543 0.400134
0.951159 0.790967 0.400981
0.103730 0.869108 0.393261
0.192931 0.871198 0.394523
0.302453 0.873782 0.396078
0.425519 0.876708 0.397833
0.555356 0.879822 0.399693
0.685188 0.882964 0.401561
0.808242 0.885966 0.403340
0.902209 0.888276 0.404703
0.961076 0.889730 0.405559
0.109976 0.930789 0.396069
0.199172 0.932908 0.397340
0.308688 0.935526 0.398906
0.431748 0.938492 0.400674
0.561577 0.941648 0.402546
0.691402 0.944831 0.404427
0.814449 0.947873 0.406218
0.908411 0.950213 0.407591
0.967275 0.951686 0.408453
0.008951 0.039692 0.492121
0.098704 0.041400 0.492858
0.208905 0.043514 0.493769
0.332736 0.045913 0.494799
0.463378 0.048471 0.495894
0.594017 0.051056 0.496997
0.717835 0.053532 0.498050
0.812386 0.055439 0.498859
0.871620 0.056641 0.499368
0.020270 0.131874 0.494617
0.110016 0.133625 0.495367
0.220209 0.135793 0.496294
0.344030 0.138252 0.497342
0.474663 0.140873 0.498455
0.605292 0.143521 0.499577
0.729101 0.146057 0.500648
0.823645 0.148010 0.501470
0.882875 0.149240 0.501988
0.034136 0.245260 0.497741
0.123875 0.247064 0.498507
0.234058 0.249297 0.499453
0.357867 0.251830 0.500523
0.488488 0.254529 0.501659
0.619105 0.257254 0.502804
0.742903 0.259863 0.503896
0.837439 0.261872 0.504735
0.896663 0.263138 0.505263
0.049678 0.372935 0.501329
0.139408 0.374800 0.502113
0.249579 0.377106 0.503081
0.373376 0.379721 0.504175
0.503984 0.382507 0.505337
0.634587 0.385320 0.506507
0.758372 0.388012 0.507624
0.852898 0.390084 0.508482
0.911884 0.391389 0.509215
0.066029 0.507940 0.505204
0.155749 0.509868 0.506006
0.265908 0.512252 0.506997
0.389692 0.514954 0.508117
0.519883 0.517832 0.509642
0.649755 0.520737 0.511437
0.772847 0.523515 0.513146
0.866843 0.525654 0.514457
0.925729 0.527001 0.515280
0.082012 0.643254 0.509438
0.171229 0.645245 0.510669
0.280772 0.647706 0.512187
0.403862 0.650496 0.513899
0.533723 0.653466 0.515714
0.663580 0.656463 0.517538
0.786657 0.659328 0.519274
0.880642 0.661533 0.520605
0.939521 0.662922 0.521441
0.095133 0.771794 0.515188
0.184341 0.773844 0.516438
0.293871 0.776380 0.517978
0.416947 0.779252 0.519716
0.546793 0.782308 0.521558
0.676635 0.785393 0.523409
0.799698 0.788341 0.525171
0.893672 0.790609 0.526521
0.952544 0.792037 0.527369
0.105122 0.870140 0.519637
0.194321 0.872236 0.520901
0.303842 0.874827 0.522459
0.426907 0.877763 0.524216
0.556742 0.880886 0.526079
0.686572 0.884037 0.527950
0.809625 0.887048 0.529731
0.903590 0.889364 0.531097
0.962457 0.890823 0.531954
0.111365 0.931835 0.522449
0.200560 0.933960 0.523723
0.310074 0.936586 0.525291
0.433133 0.939561 0.527061
0.562961 0.942726 0.528937
0.692784 0.945918 0.530821
0.815830 0.948969 0.532614
0.909790 0.951316 0.533989
0.968654 0.952793 0.534852
0.010616 0.040534 0.618237
0.100368 0.042248 0.618977
0.210568 0.044371 0.619890
0.334397 0.046779 0.620923
0.465038 0.049346 0.622020
0.595675 0.051940 0.623126
0.719492 0.054425 0.624182
0.814042 0.056338 0.624993
0.873276 0.057544 0.625503
0.021931 0.132738 0.620740
0.111677 0.134496 0.621492
0.221868 0.136671 0.622421
0.345688 0.139139 0.623472
0.476320 0.141769 0.624588
0.606947 0.144427 0.625712
0.730755 0.146971 0.626786
0.825298 0.148931 0.627610
0.884527 0.150166 0.628129
0.035794 0.246150 0.623872
0.125531 0.247961 0.624640
0.235713 0.250202 0.625588
0.359521 0.252743 0.626660
0.490141 0.255451 0.627800
0.620756 0.258186 0.628947
0.744553 0.260804 0.630042
0.839087 0.262820 0.630883
0.898311 0.264090 0.631412
0.051331 0.373855 0.627469
0.141060 0.375726 0.628254
0.251230 0.378040 0.629224
0.375025 0.380664 0.630321
0.505632 0.383459 0.631486
0.636234 0.386282 0.632659
0.760018 0.388982 0.633779
0.854392 0.391061 0.634763
0.913284 0.392370 0.635575
0.067678 0.508891 0.631353
0.157396 0.510825 0.632157
0.267554 0.513217 0.633150
0.391337 0.515928 0.634273
0.521282 0.518815 0.636003
0.651153 0.521729 0.637801
0.774244 0.524517 0.639513
0.868238 0.526662 0.640826
0.927124 0.528013 0.641650
0.083412 0.644237 0.635799
0.172628 0.646234 0.637032
0.282169 0.648703 0.638552
0.405258 0.651501 0.640267
0.535118 0.654480 0.642085
0.664973 0.657487 0.643912
0.788048 0.660361 0.645651
0.882032 0.662573 0.646984
0.940910 0.663966 0.647821
0.096528 0.772806 0.641558
0.185734 0.774863 0.642810
0.295263 0.777406 0.644353
0.418338 0.780287 0.646093
0.548182 0.783353 0.647938
0.678023 0.786446 0.649792
0.801084 0.789403 0.651556
0.895057 0.791678 0.652909
0.953928 0.793111 0.653758
0.106513 0.871175 0.646014
0.195711 0.873277 0.647280
0.305230 0.875876 0.648840
0.428294 0.878820 0.650600
0.558127 0.881953 0.652466
0.687956 0.885113 0.654340
0.811007 0.888133 0.656124
0.904971 0.890456 0.657491
0.963838 0.891919 0.658350
0.112754 0.932884 0.648831
0.201947 0.935015 0.650106
0.311460 0.937649 0.651677
0.434517 0.940633 0.653450
0.564344 0.943807 0.655328
0.694165 0.947009 0.657215
0.817209 0.950069 0.659011
0.911169 0.952422 0.660388
0.970032 0.953903 0.661253
0.012193 0.041336 0.737775
0.101945 0.043056 0.738516
0.212143 0.045186 0.739431
0.335971 0.047602 0.740467
0.466611 0.050178 0.741567
0.597246 0.052781 0.742675
0.721062 0.055274 0.743733
0.815611 0.057194 0.744546
0.874844 0.058404 0.745057
0.023505 0.133560 0.740283
0.113250 0.135324 0.741037
0.223440 0.137507 0.741968
0.347259 0.139983 0.743022
0.477889 0.142622 0.744141
0.608515 0.145288 0.745268
0.732322 0.147841 0.746343
0.826864 0.149807 0.747170
0.886092 0.151045 0.747689
0.037364 0.246997 0.743423
0.127101 0.248814 0.744192
0.237281 0.251062 0.745143
0.361088 0.253612 0.746218
0.491707 0.256329 0.747360
0.622321 0.259073 0.748509
0.746116 0.261699 0.749607
0.840649 0.263721 0.750450
0.899872 0.264995 0.750980
0.052897 0.374730 0.747028
0.142625 0.376607 0.747815
0.252794 0.378929 0.748787
0.376588 0.381561 0.749887
0.507193 0.384365 0.751054
0.637794 0.387196 0.752230
0.761576 0.389905 0.753352
0.855719 0.391990 0.754531
0.914611 0.393303 0.755344
0.069239 0.509796 0.750921
0.158957 0.511736 0.751727
0.269114 0.514135 0.752722
0.392734 0.516854 0.753981
0.522608 0.519750 0.755773
0.652478 0.522673 0.757573
0.775567 0.525469 0.759288
0.869560 0.527621 0.760602
0.928445 0.528976 0.761428
0.084738 0.645171 0.755568
0.173953 0.647174 0.756803
0.283493 0.649651 0.758325
0.406581 0.652457 0.760043
0.536439 0.655445 0.761864
0.666292 0.658460 0.763693
0.789366 0.661343 0.765434
0.883349 0.663561 0.766769
0.942226 0.664958 0.767608
0.097850 0.773768 0.761335
0.187055 0.775831 0.762589
0.296582 0.778381 0.764134
0.419655 0.781271 0.765878
0.549499 0.784345 0.767725
0.679337 0.787448 0.769582
0.802398 0.790413 0.771349
0.896369 0.792694 0.772703
0.955240 0.794131 0.773554
0.107831 0.872158 0.765798
0.197028 0.874267 0.767066
0.306546 0.876873 0.768629
0.429608 0.879826 0.770391
0.559440 0.882967 0.772260
0.689267 0.886136 0.774136
0.812317 0.889164 0.775923
0.906280 0.891494 0.777292
0.965146 0.892960 0.778153
0.114069 0.933881 0.768619
0.203262 0.936018 0.769896
0.312774 0.938660 0.771470
0.435829 0.941652 0.773245
0.565654 0.944835 0.775126
0.695474 0.948045 0.777016
0.818517 0.951113 0.778814
0.912475 0.953473 0.780193
0.971337 0.954958 0.781059
0.013397 0.041950 0.829060
0.103148 0.043675 0.829802
0.213346 0.045810 0.830719
0.337173 0.048233 0.831757
0.467811 0.050815 0.832859
0.598446 0.053425 0.833969
0.722261 0.055924 0.835029
0.816809 0.057849 0.835843
0.876042 0.059062 0.836355
0.024707 0.134190 0.831573
0.114451 0.135958 0.832328
0.224641 0.138146 0.833261
0.348458 0.140629 0.834316
0.479087 0.143275 0.835437
0.609712 0.145948 0.836566
0.733518 0.148507 0.837643
0.828059 0.150477 0.838471
0.887287 0.151719 0.838992
0.038563 0.247646 0.834718
0.128299 0.249467 0.835489
0.238479 0.251721 0.836441
0.362285 0.254277 0.837518
0.492902 0.257001 0.838662
0.623515 0.259751 0.839814
0.747309 0.262384 0.840913
0.841842 0.264411 0.841757
0.901064 0.265688 0.842288
0.054093 0.375400 0.838329
0.143820 0.377282 0.839118
0.253988 0.379609 0.840092
0.377781 0.382248 0.841193
0.508385 0.385058 0.842363
0.638985 0.387896 0.843540
0.762728 0.390611 0.844696
0.856732 0.392701 0.845991
0.915624 0.394018 0.846805
0.070431 0.510488 0.842229
0.160148 0.512433 0.843036
0.270304 0.514838 0.844033
0.393748 0.517564 0.845440
0.523621 0.520466 0.847235
0.653489 0.523396 0.849037
0.776577 0.526198 0.850754
0.870570 0.528355 0.852070
0.929454 0.529713 0.852896
0.085750 0.645886 0.847029
0.174965 0.647893 0.848266
0.284504 0.650376 0.849790
0.407590 0.653189 0.851510
0.537447 0.656184 0.853333
0.667300 0.659205 0.855164
0.790373 0.662095 0.856907
0.884354 0.664318 0.858244
0.943231 0.665718 0.859083
0.098859 0.774505 0.852804
0.188063 0.776572 0.854059
0.297589 0.779128 0.855606
0.420661 0.782024 0.857351
0.550504 0.785105 0.859201
0.680341 0.788214 0.861059
0.803400 0.791186 0.862828
0.897371 0.793472 0.864184
0.956241 0.794912 0.865036
0.108837 0.872911 0.857271
0.198033 0.875024 0.858541
0.307550 0.877637 0.860105
0.430611 0.880595 0.861870
0.560442 0.883743 0.863740
0.690268 0.886919 0.865619
0.813317 0.889954 0.867408
0.907279 0.892288 0.868779
0.966144 0.893758 0.869640
0.115074 0.934644 0.860096
0.204265 0.936786 0.861374
0.313776 0.939433 0.862949
0.436831 0.942431 0.864727
0.566654 0.945621 0.866610
0.696473 0.948838 0.868501
0.819515 0.951913 0.870302
0.913472 0.954277 0.871683
0.972334 0.955766 0.872550
0.014152 0.042335 0.886249
0.103902 0.044063 0.886992
0.214099 0.046202 0.887910
0.337925 0.048629 0.888949
0.468564 0.051215 0.890052
0.599197 0.053830 0.891164
0.723012 0.056333 0.892225
0.817560 0.058261 0.893040
0.876792 0.059476 0.893553
0.025460 0.134585 0.888765
0.115204 0.136356 0.889521
0.225393 0.138548 0.890455
0.349210 0.141035 0.891511
0.479838 0.143685 0.892633
0.610462 0.146362 0.893763
0.734267 0.148925 0.894842
0.828808 0.150899 0.895671
0.888036 0.152142 0.896192
0.039314 0.248053 0.891913
0.129050 0.249877 0.892685
0.239229 0.252135 0.893638
0.363034 0.254695 0.894716
0.493651 0.257422 0.895861
0.624263 0.260177 0.897015
0.748057 0.262814 0.898115
0.842589 0.264844 0.898960
0.901811 0.266123 0.899492
0.054842 0.375821 0.895529
0.144568 0.377705 0.896318
0.254736 0.380036 0.897293
0.378529 0.382679 0.898396
0.509132 0.385494 0.899567
0.639731 0.388336 0.900745
0.763363 0.391055 0.901994
0.857367 0.393148 0.903290
0.916258 0.394466 0.904105
0.071178 0.510923 0.899432
0.160895 0.512871 0.900241
0.271050 0.515279 0.901239
0.394383 0.518009 0.902739
0.524255 0.520916 0.904535
0.654122 0.523850 0.906339
0.777209 0.526656 0.908056
0.871202 0.528815 0.909373
0.930086 0.530175 0.910200
0.086385 0.646335 0.904329
0.175599 0.648345 0.905567
0.285137 0.650831 0.907092
0.408223 0.653648 0.908813
0.538079 0.656647 0.910637
0.667930 0.659673 0.912470
0.791003 0.662566 0.914214
0.884984 0.664792 0.915552
0.943861 0.666194 0.916392
0.099490 0.774967 0.910108
0.188694 0.777037 0.911364
0.298220 0.779597 0.912912
0.421291 0.782497 0.914659
0.551133 0.785582 0.916510
0.680970 0.788696 0.918369
0.804028 0.791672 0.920139
0.897998 0.793961 0.921496
0.956868 0.795402 0.922349
0.109467 0.873384 0.914579
0.198663 0.875500 0.915849
0.308179 0.878116 0.917414
0.431240 0.881078 0.919180
0.561070 0.884231 0.921052
0.690895 0.887410 0.922932
0.813943 0.890449 0.924722
0.907905 0.892787 0.926094
0.966770 0.894258 0.926956
0.115703 0.935123 0.917405
0.204894 0.937268 0.918684
0.314404 0.939919 0.920261
0.437458 0.942921 0.922039
0.567281 0.946115 0.923923
0.697099 0.949336 0.925816
0.820140 0.952415 0.927618
0.914097 0.954782 0.929000
0.972958 0.956273 0.929867
