LUTs/BRX_Masterclass_v2.cube
TITLE "BRX Masterclass v2 Correct+Grade"
LUT_3D_SIZE 5
DOMAIN_MIN 0.0 0.0 0.0
DOMAIN_MAX 1.0 1.0 1.0
0.000000 0.000000 0.000000
0.133416 0.000000 0.000000
0.444251 0.000000 0.000000
0.791122 0.000000 0.000000
1.000000 0.000000 0.000000
0.015616 0.114354 0.012222
0.129436 0.120338 0.000000
0.440543 0.115970 0.000000
0.787718 0.111097 0.000000
1.000000 0.107850 0.000000
0.095135 0.368638 0.081838
0.191688 0.376805 0.089284
0.433258 0.405328 0.000000
0.781153 0.400448 0.000000
1.000000 0.397197 0.000000
0.171795 0.660456 0.145143
0.267490 0.668636 0.153239
0.490438 0.687690 0.171998
0.769194 0.726087 0.000000
0.999738 0.722831 0.000000
0.224520 0.880867 0.196865
0.320378 0.889056 0.204804
0.543704 0.908131 0.223196
0.792915 0.929412 0.243550
0.991295 0.968691 0.000000
0.000000 0.000000 0.118503
0.133027 0.000000 0.116168
0.443887 0.000000 0.110575
0.790786 0.000000 0.104081
1.000000 0.000000 0.099604
0.000000 0.121215 0.110597
0.129081 0.119775 0.108424
0.440214 0.115406 0.102531
0.787418 0.110533 0.095702
1.000000 0.107285 0.091002
0.097829 0.371092 0.161555
0.194389 0.379260 0.168994
0.433013 0.404763 0.081838
0.780936 0.399884 0.074216
1.000000 0.396632 0.069065
0.174231 0.662914 0.225056
0.269934 0.671094 0.233144
0.492899 0.690148 0.251886
0.768747 0.725522 0.053192
0.999310 0.722265 0.048858
0.227005 0.883327 0.276730
0.322870 0.891516 0.284661
0.546214 0.910592 0.303036
0.795444 0.931874 0.323372
0.990938 0.968125 0.031666
0.000000 0.000000 0.406190
0.132095 0.000000 0.403826
0.443017 0.000000 0.398165
0.789986 0.000000 0.391594
1.000000 0.000000 0.387067
0.000000 0.120282 0.398481
0.128235 0.118407 0.395988
0.439430 0.114038 0.390027
0.786703 0.109164 0.383121
1.000000 0.105916 0.378371
0.001442 0.405572 0.375645
0.130823 0.404896 0.374092
0.432430 0.403393 0.369111
0.780423 0.398513 0.361412
1.000000 0.395261 0.356838
0.180154 0.668880 0.419059
0.275875 0.677061 0.427130
0.498883 0.696118 0.445830
0.767677 0.724149 0.340765
0.998287 0.720892 0.336382
0.233046 0.889300 0.470619
0.328930 0.897490 0.478532
0.552317 0.916569 0.496866
0.801595 0.937854 0.517155
0.990085 0.966750 0.319000
0.000000 0.000000 0.733876
0.131057 0.000000 0.731478
0.442050 0.000000 0.725739
0.789098 0.000000 0.719082
1.000000 0.000000 0.714496
0.000000 0.118724 0.726059
0.127294 0.116848 0.723533
0.438560 0.112479 0.717494
0.785912 0.107604 0.710501
1.000000 0.104355 0.705693
0.000000 0.408085 0.705906
0.119880 0.406207 0.703074
0.431791 0.401832 0.696324
0.779863 0.396951 0.688539
1.000000 0.393698 0.684621
0.021703 0.721403 0.673580
0.147596 0.721460 0.673333
0.439761 0.721900 0.672943
0.766482 0.722584 0.668322
0.997144 0.719327 0.663880
0.239945 0.896105 0.691466
0.335850 0.904297 0.699359
0.559285 0.923378 0.717645
0.808618 0.944665 0.737881
0.989137 0.965184 0.646284
0.000000 0.000000 1.000000
0.130218 0.000000 1.000000
0.441269 0.000000 0.996507
0.788382 0.000000 0.989778
1.000000 0.000000 0.985144
0.000000 0.117435 0.996831
0.126536 0.115559 0.994277
0.437860 0.111189 0.988173
0.785277 0.106314 0.981109
1.000000 0.103065 0.976253
0.000000 0.406795 0.976467
0.119312 0.404917 0.973608
0.431281 0.400541 0.966794
0.778766 0.395659 0.959459
1.000000 0.392406 0.955562
0.000000 0.732443 0.953543
0.109167 0.730562 0.951200
0.419360 0.726180 0.945589
0.765513 0.721291 0.939075
0.996218 0.718034 0.934585
0.015673 0.964799 0.926501
0.143773 0.964327 0.925455
0.440731 0.963626 0.923302
0.769383 0.963577 0.921448
0.988372 0.963889 0.916812
