LUTs/BRX_Masterclass_v2_Punchy.cube
TITLE "BRX Masterclass v2 Punchy"
LUT_3D_SIZE 33
DOMAIN_MIN 0.0 0.0 0.0
DOMAIN_MAX 1.0 1.0 1.0
0.000000 0.000000 0.000000
0.000000 0.000000 0.000000
0.000000 0.000000 0.000000
0.000000 0.000000 0.000000
0.012869 0.000000 0.000000
0.034921 0.000000 0.000000
0.060256 0.000000 0.000000
0.088401 0.000000 0.000000
0.119112 0.000000 0.000000
0.152203 0.000000 0.000000
0.187509 0.000000 0.000000
0.224862 0.000000 0.000000
0.264094 0.000000 0.000000
0.305028 0.000000 0.000000
0.347478 0.000000 0.000000
0.391252 0.000000 0.000000
0.436146 0.000000 0.000000
0.481950 0.000000 0.000000
0.528446 0.000000 0.000000
0.575405 0.000000 0.000000
0.622592 0.000000 0.000000
0.669764 0.000000 0.000000
0.716672 0.000000 0.000000
0.763057 0.000000 0.000000
0.808655 0.000000 0.000000
0.853194 0.000000 0.000000
0.896328 0.000000 0.000000
0.935086 0.000000 0.000000
0.968610 0.000000 0.000000
0.997579 0.000000 0.000000
1.000000 0.000000 0.000000
1.000000 0.000000 0.000000
1.000000 0.000000 0.000000
0.000000 0.000000 0.000000
0.000000 0.000000 0.000000
0.000000 0.000000 0.000000
0.000000 0.000000 0.000000
0.012869 0.000000 0.000000
0.034921 0.000000 0.000000
0.060256 0.000000 0.000000
0.088401 0.000000 0.000000
0.119112 0.000000 0.000000
0.152203 0.000000 0.000000
0.187509 0.000000 0.000000
0.224862 0.000000 0.000000
0.264094 0.000000 0.000000
0.305028 0.000000 0.000000
0.347478 0.000000 0.000000
0.391252 0.000000 0.000000
0.436146 0.000000 0.000000
0.481950 0.000000 0.000000
0.528446 0.000000 0.000000
0.575405 0.000000 0.000000
0.622592 0.000000 0.000000
0.669764 0.000000 0.000000
0.716672 0.000000 0.000000
0.763057 0.000000 0.000000
0.808655 0.000000 0.000000
0.853194 0.000000 0.000000
0.896328 0.000000 0.000000
0.935086 0.000000 0.000000
0.968610 0.000000 0.000000
0.997579 0.000000 0.000000
1.000000 0.000000 0.000000
1.000000 0.000000 0.000000
1.000000 0.000000 0.000000
0.000000 0.000000 0.000000
0.000000 0.000000 0.000000
0.000000 0.000000 0.000000
0.000000 0.000000 0.000000
0.012869 0.000000 0.000000
0.034921 0.000000 0.000000
0.060256 0.000000 0.000000
0.088401 0.000000 0.000000
0.119112 0.000000 0.000000
0.152203 0.000000 0.000000
0.187509 0.000000 0.000000
0.224862 0.000000 0.000000
0.264094 0.000000 0.000000
0.305028 0.000000 0.000000
0.347478 0.000000 0.000000
0.391252 0.000000 0.000000
0.436146 0.000000 0.000000
0.481950 0.000000 0.000000
0.528446 0.000000 0.000000
0.575405 0.000000 0.000000
0.622592 0.000000 0.000000
0.669764 0.000000 0.000000
0.716672 0.000000 0.000000
0.763057 0.000000 0.000000
0.808655 0.000000 0.000000
0.853194 0.000000 0.000000
0.896328 0.000000 0.000000
0.935086 0.000000 0.000000
0.968610 0.000000 0.000000
0.997579 0.000000 0.000000
1.000000 0.000000 0.000000
1.000000 0.000000 0.000000
1.000000 0.000000 0.000000
0.000000 0.000000 0.000000
0.000000 0.000000 0.000000
0.000000 0.000000 0.000000
0.000000 0.000000 0.000000
0.012869 0.000000 0.000000
0.034921 0.000000 0.000000
0.060256 0.000000 0.000000
0.088401 0.000000 0.000000
0.119112 0.000000 0.000000
0.152203 0.000000 0.000000
0.187509 0.000000 0.000000
0.224862 0.000000 0.000000
0.264094 0.000000 0.000000
0.305028 0.000000 0.000000
0.347478 0.000000 0.000000
0.391252 0.000000 0.000000
0.436146 0.000000 0.000000
0.481950 0.000000 0.000000
0.528446 0.000000 0.000000
0.575405 0.000000 0.000000
0.622592 0.000000 0.000000
0.669764 0.000000 0.000000
0.716672 0.000000 0.000000
0.763057 0.000000 0.000000
0.808655 0.000000 0.000000
0.853194 0.000000 0.000000
0.896328 0.000000 0.000000
0.935086 0.000000 0.000000
0.968610 0.000000 0.000000
0.997579 0.000000 0.000000
1.000000 0.000000 0.000000
1.000000 0.000000 0.000000
1.000000 0.000000 0.000000
0.000000 0.010329 0.000000
0.000000 0.010329 0.000000
0.000000 0.010329 0.000000
0.000000 0.010329 0.000000
0.012366 0.010139 0.000000
0.034419 0.009715 0.000000
0.059756 0.009227 0.000000
0.087903 0.008686 0.000000
0.118616 0.008095 0.000000
0.151710 0.007459 0.000000
0.187018 0.006780 0.000000
0.224375 0.006061 0.000000
0.263609 0.005307 0.000000
0.304546 0.004519 0.000000
0.346999 0.003703 0.000000
0.390776 0.002861 0.000000
0.435674 0.001998 0.000000
0.481481 0.001117 0.000000
0.527980 0.000223 0.000000
0.574943 0.000000 0.000000
0.622133 0.000000 0.000000
0.669309 0.000000 0.000000
0.716220 0.000000 0.000000
0.762609 0.000000 0.000000
0.808210 0.000000 0.000000
0.852753 0.000000 0.000000
0.895890 0.000000 0.000000
0.934651 0.000000 0.000000
0.968178 0.000000 0.000000
0.997148 0.000000 0.000000
1.000000 0.000000 0.000000
1.000000 0.000000 0.000000
1.000000 0.000000 0.000000
0.000000 0.029927 0.000000
0.000000 0.029927 0.000000
0.000000 0.029927 0.000000
0.000000 0.029927 0.000000
0.011815 0.029966 0.000000
0.033458 0.029748 0.000000
0.058799 0.029260 0.000000
0.086950 0.028719 0.000000
0.117668 0.028128 0.000000
0.150767 0.027492 0.000000
0.186080 0.026813 0.000000
0.223441 0.026094 0.000000
0.262682 0.025339 0.000000
0.303624 0.024552 0.000000
0.346084 0.023736 0.000000
0.389867 0.022894 0.000000
0.434771 0.022030 0.000000
0.480585 0.021149 0.000000
0.527090 0.020255 0.000000
0.574060 0.019352 0.000000
0.621257 0.018445 0.000000
0.668440 0.017538 0.000000
0.715357 0.016636 0.000000
0.761752 0.015744 0.000000
0.807360 0.014867 0.000000
0.851910 0.014011 0.000000
0.895052 0.013181 0.000000
0.933819 0.012436 0.000000
0.967351 0.011792 0.000000
0.996325 0.011235 0.000000
1.000000 0.010755 0.000000
1.000000 0.010344 0.000000
1.000000 0.010319 0.000000
0.001255 0.051983 0.000000
0.001255 0.051983 0.000000
0.001255 0.051983 0.000000
0.001255 0.051983 0.000000
0.012513 0.052284 0.000000
0.032825 0.052524 0.000000
0.057709 0.052348 0.000000
0.085865 0.051806 0.000000
0.116587 0.051215 0.000000
0.149692 0.050579 0.000000
0.185011 0.049899 0.000000
0.222378 0.049181 0.000000
0.261625 0.048426 0.000000
0.302575 0.047639 0.000000
0.345041 0.046822 0.000000
0.388831 0.045980 0.000000
0.433742 0.045117 0.000000
0.479564 0.044236 0.000000
0.526077 0.043341 0.000000
0.573054 0.042438 0.000000
0.620260 0.041531 0.000000
0.667450 0.040624 0.000000
0.714375 0.039721 0.000000
0.760778 0.038829 0.000000
0.806393 0.037953 0.000000
0.850950 0.037096 0.000000
0.894100 0.036267 0.000000
0.932873 0.035522 0.000000
0.966410 0.034877 0.000000
0.995389 0.034320 0.000000
1.000000 0.033840 0.000000
1.000000 0.033430 0.000000
1.000000 0.033404 0.000000
0.004592 0.075838 0.001671
0.004592 0.075838 0.001671
0.004592 0.075838 0.001671
0.004592 0.075838 0.001671
0.014972 0.076430 0.000388
0.033780 0.077169 0.000000
0.056984 0.077588 0.000000
0.084674 0.077471 0.000000
0.115402 0.076881 0.000000
0.148513 0.076244 0.000000
0.183838 0.075565 0.000000
0.221213 0.074846 0.000000
0.260467 0.074091 0.000000
0.301423 0.073304 0.000000
0.343898 0.072487 0.000000
0.387696 0.071645 0.000000
0.432615 0.070781 0.000000
0.478446 0.069900 0.000000
0.524967 0.069006 0.000000
0.571953 0.068102 0.000000
0.619166 0.067195 0.000000
0.666366 0.066288 0.000000
0.713300 0.065385 0.000000
0.759711 0.064493 0.000000
0.805334 0.063616 0.000000
0.849899 0.062760 0.000000
0.893057 0.061930 0.000000
0.931837 0.061185 0.000000
0.965380 0.060540 0.000000
0.994365 0.059983 0.000000
1.000000 0.059504 0.000000
1.000000 0.059093 0.000000
1.000000 0.059067 0.000000
0.010251 0.101076 0.006244
0.010251 0.101076 0.006244
0.010251 0.101076 0.006244
0.010251 0.101076 0.006244
0.019674 0.101987 0.004635
0.036841 0.103271 0.001599
0.058160 0.104316 0.000000
0.083844 0.104937 0.000000
0.114128 0.104893 0.000000
0.147245 0.104256 0.000000
0.182577 0.103577 0.000000
0.219959 0.102858 0.000000
0.259221 0.102103 0.000000
0.300186 0.101316 0.000000
0.342669 0.100499 0.000000
0.386476 0.099657 0.000000
0.431404 0.098793 0.000000
0.477244 0.097912 0.000000
0.523774 0.097017 0.000000
0.570769 0.096114 0.000000
0.617993 0.095206 0.000000
0.665201 0.094299 0.000000
0.712144 0.093397 0.000000
0.758565 0.092504 0.000000
0.804198 0.091627 0.000000
0.848771 0.090771 0.000000
0.891938 0.089941 0.000000
0.930726 0.089196 0.000000
0.964275 0.088551 0.000000
0.993266 0.087994 0.000000
1.000000 0.087514 0.000000
1.000000 0.087103 0.000000
1.000000 0.087078 0.000000
0.018705 0.127347 0.013505
0.018705 0.127347 0.013505
0.018705 0.127347 0.013505
0.018705 0.127347 0.013505
0.027095 0.128601 0.011544
0.042494 0.130472 0.007905
0.061783 0.132192 0.003290
0.085211 0.133562 0.000000
0.113178 0.134409 0.000000
0.145900 0.134448 0.000000
0.181240 0.133769 0.000000
0.218630 0.133050 0.000000
0.257901 0.132295 0.000000
0.298875 0.131507 0.000000
0.341366 0.130690 0.000000
0.385183 0.129848 0.000000
0.430121 0.128984 0.000000
0.475970 0.128103 0.000000
0.522511 0.127208 0.000000
0.569516 0.126305 0.000000
0.616749 0.125397 0.000000
0.663968 0.124489 0.000000
0.710922 0.123587 0.000000
0.757352 0.122694 0.000000
0.802995 0.121817 0.000000
0.847578 0.120961 0.000000
0.890753 0.120131 0.000000
0.929550 0.119385 0.000000
0.963107 0.118741 0.000000
0.992103 0.118183 0.000000
1.000000 0.117703 0.000000
1.000000 0.117293 0.000000
1.000000 0.117267 0.000000
0.030414 0.154321 0.023926
0.030414 0.154321 0.023926
0.030414 0.154321 0.023926
0.030414 0.154321 0.023926
0.037702 0.155940 0.021588
0.051215 0.158438 0.017304
0.068338 0.160878 0.011947
0.089360 0.163048 0.005451
0.114703 0.164767 0.000000
0.144819 0.165862 0.000000
0.179839 0.165990 0.000000
0.217238 0.165271 0.000000
0.256517 0.164516 0.000000
0.297500 0.163728 0.000000
0.340002 0.162911 0.000000
0.383828 0.162068 0.000000
0.428777 0.161205 0.000000
0.474637 0.160323 0.000000
0.521188 0.159428 0.000000
0.568204 0.158525 0.000000
0.615448 0.157617 0.000000
0.662678 0.156709 0.000000
0.709642 0.155807 0.000000
0.756083 0.154914 0.000000
0.801736 0.154037 0.000000
0.846330 0.153180 0.000000
0.889515 0.152350 0.000000
0.928320 0.151605 0.000000
0.961885 0.150960 0.000000
0.990888 0.150402 0.000000
1.000000 0.149922 0.000000
1.000000 0.149511 0.000000
1.000000 0.149486 0.000000
0.044913 0.182039 0.037049
0.044913 0.182039 0.037049
0.044913 0.182039 0.037049
0.044913 0.182039 0.037049
0.051945 0.183683 0.035227
0.063462 0.186845 0.030259
0.078292 0.190046 0.024115
0.096769 0.193062 0.016744
0.119336 0.195704 0.008045
0.146461 0.197793 0.000000
0.178615 0.199155 0.000000
0.215792 0.199376 0.000000
0.255081 0.198620 0.000000
0.296074 0.197832 0.000000
0.338586 0.197015 0.000000
0.382423 0.196173 0.000000
0.427383 0.195309 0.000000
0.473254 0.194427 0.000000
0.519817 0.193532 0.000000
0.566844 0.192628 0.000000
0.614099 0.191720 0.000000
0.661341 0.190813 0.000000
0.708316 0.189910 0.000000
0.754768 0.189017 0.000000
0.800433 0.188140 0.000000
0.845037 0.187283 0.000000
0.888233 0.186453 0.000000
0.927048 0.185707 0.000000
0.960620 0.185062 0.000000
0.989631 0.184505 0.000000
1.000000 0.184025 0.000000
1.000000 0.183614 0.000000
1.000000 0.183588 0.000000
0.052891 0.214072 0.043494
0.052891 0.214072 0.043494
0.052891 0.214072 0.043494
0.052891 0.214072 0.043494
0.062180 0.214796 0.044146
0.078097 0.216037 0.045262
0.092087 0.219376 0.040234
0.107891 0.223281 0.031942
0.127541 0.226893 0.022238
0.151525 0.230027 0.011013
0.180329 0.232503 0.000000
0.214417 0.234148 0.000000
0.253604 0.234460 0.000000
0.294608 0.233672 0.000000
0.337130 0.232855 0.000000
0.380979 0.232012 0.000000
0.425950 0.231148 0.000000
0.471832 0.230266 0.000000
0.518407 0.229371 0.000000
0.565446 0.228467 0.000000
0.612714 0.227559 0.000000
0.659967 0.226651 0.000000
0.706955 0.225748 0.000000
0.753419 0.224855 0.000000
0.799094 0.223978 0.000000
0.843710 0.223121 0.000000
0.886917 0.222290 0.000000
0.925742 0.221545 0.000000
0.959323 0.220900 0.000000
0.988341 0.220342 0.000000
1.000000 0.219862 0.000000
1.000000 0.219451 0.000000
1.000000 0.219425 0.000000
0.061244 0.247520 0.050200
0.061244 0.247520 0.050200
0.061244 0.247520 0.050200
0.061244 0.247520 0.050200
0.070536 0.248244 0.050849
0.086457 0.249485 0.051961
0.104749 0.250910 0.053238
0.123139 0.253391 0.051457
0.139746 0.258015 0.040699
0.160452 0.262239 0.028339
0.185760 0.265879 0.014273
0.216152 0.268754 0.000000
0.252074 0.270694 0.000000
0.293111 0.271092 0.000000
0.335645 0.270274 0.000000
0.379505 0.269431 0.000000
0.424488 0.268567 0.000000
0.470383 0.267685 0.000000
0.516970 0.266790 0.000000
0.564021 0.265886 0.000000
0.611302 0.264978 0.000000
0.658567 0.264069 0.000000
0.705568 0.263166 0.000000
0.752044 0.262274 0.000000
0.797732 0.261396 0.000000
0.842360 0.260539 0.000000
0.885578 0.259708 0.000000
0.924413 0.258962 0.000000
0.958003 0.258317 0.000000
0.987029 0.257760 0.000000
1.000000 0.257279 0.000000
1.000000 0.256868 0.000000
1.000000 0.256843 0.000000
0.069941 0.282238 0.057135
0.069941 0.282238 0.057135
0.069941 0.282238 0.057135
0.069941 0.282238 0.057135
0.079235 0.282962 0.057782
0.095160 0.284203 0.058890
0.113457 0.285629 0.060162
0.133783 0.287213 0.061573
0.155962 0.288941 0.063113
0.173639 0.294117 0.050261
0.195320 0.298963 0.034934
0.221877 0.303116 0.017726
0.253773 0.306396 0.000000
0.291427 0.308640 0.000000
0.334141 0.309113 0.000000
0.378013 0.308270 0.000000
0.423008 0.307406 0.000000
0.468916 0.306524 0.000000
0.515516 0.305628 0.000000
0.562580 0.304724 0.000000
0.609874 0.303816 0.000000
0.657152 0.302907 0.000000
0.704165 0.302004 0.000000
0.750655 0.301111 0.000000
0.796355 0.300233 0.000000
0.840995 0.299376 0.000000
0.884226 0.298546 0.000000
0.923071 0.297800 0.000000
0.956671 0.297154 0.000000
0.985704 0.296597 0.000000
1.000000 0.296116 0.000000
1.000000 0.295705 0.000000
1.000000 0.295680 0.000000
0.078946 0.318076 0.064266
0.078946 0.318076 0.064266
0.078946 0.318076 0.064266
0.078946 0.318076 0.064266
0.088243 0.318801 0.064911
0.104172 0.320042 0.066014
0.122474 0.321468 0.067281
0.142805 0.323052 0.068688
0.164990 0.324780 0.070221
0.188895 0.326643 0.071872
0.209366 0.331455 0.060469
0.231965 0.336924 0.041879
0.259709 0.341588 0.021255
0.293032 0.345275 0.000000
0.332310 0.347825 0.000000
0.376512 0.348360 0.000000
0.421521 0.347496 0.000000
0.467441 0.346613 0.000000
0.514055 0.345718 0.000000
0.561133 0.344814 0.000000
0.608440 0.343905 0.000000
0.655732 0.342996 0.000000
0.702758 0.342093 0.000000
0.749261 0.341200 0.000000
0.794974 0.340322 0.000000
0.839627 0.339464 0.000000
0.882870 0.338634 0.000000
0.921727 0.337888 0.000000
0.955336 0.337242 0.000000
0.984377 0.336684 0.000000
1.000000 0.336204 0.000000
1.000000 0.335793 0.000000
1.000000 0.335767 0.000000
0.088222 0.354878 0.071560
0.088222 0.354878 0.071560
0.088222 0.354878 0.071560
0.088222 0.354878 0.071560
0.097521 0.355602 0.072202
0.113455 0.356844 0.073301
0.131762 0.358270 0.074563
0.152099 0.359854 0.075964
0.174290 0.361583 0.077491
0.198202 0.363446 0.079135
0.223713 0.365433 0.080887
0.246729 0.369889 0.071130
0.270210 0.375973 0.049011
0.299088 0.381141 0.024729
0.333759 0.385227 0.000000
0.374547 0.388082 0.000000
0.420036 0.388661 0.000000
0.465970 0.387778 0.000000
0.512597 0.386883 0.000000
0.559688 0.385978 0.000000
0.607009 0.385069 0.000000
0.654315 0.384161 0.000000
0.701356 0.383257 0.000000
0.747872 0.382364 0.000000
0.793599 0.381486 0.000000
0.838264 0.380628 0.000000
0.881520 0.379797 0.000000
0.920388 0.379051 0.000000
0.954007 0.378405 0.000000
0.983057 0.377848 0.000000
1.000000 0.377367 0.000000
1.000000 0.376956 0.000000
1.000000 0.376930 0.000000
0.097729 0.392479 0.078983
0.097729 0.392479 0.078983
0.097729 0.392479 0.078983
0.097729 0.392479 0.078983
0.107031 0.393204 0.079622
0.122970 0.394445 0.080716
0.141282 0.395872 0.081973
0.161625 0.397456 0.083368
0.183823 0.399185 0.084889
0.207741 0.401049 0.086526
0.233260 0.403036 0.088272
0.260258 0.405139 0.090116
0.285535 0.409275 0.082027
0.309873 0.415956 0.056145
0.339840 0.421610 0.028003
0.375781 0.426082 0.000000
0.417957 0.429236 0.000000
0.464510 0.429835 0.000000
0.511151 0.428940 0.000000
0.558257 0.428035 0.000000
0.605592 0.427126 0.000000
0.652912 0.426217 0.000000
0.699967 0.425313 0.000000
0.746497 0.424420 0.000000
0.792237 0.423541 0.000000
0.836916 0.422684 0.000000
0.880185 0.421853 0.000000
0.919064 0.421106 0.000000
0.952693 0.420461 0.000000
0.981642 0.419903 0.000000
1.000000 0.419422 0.000000
1.000000 0.419011 0.000000
1.000000 0.418985 0.000000
0.107428 0.430709 0.086498
0.107428 0.430709 0.086498
0.107428 0.430709 0.086498
0.107428 0.430709 0.086498
0.116732 0.431434 0.087134
0.132676 0.432676 0.088224
0.150993 0.434103 0.089476
0.171342 0.435688 0.090865
0.193546 0.437417 0.092380
0.217472 0.439281 0.094010
0.242998 0.441269 0.095748
0.270004 0.443372 0.097584
0.298369 0.445581 0.099511
0.325587 0.449461 0.092914
0.350773 0.456709 0.063079
0.381788 0.462825 0.030924
0.418915 0.467663 0.000000
0.462346 0.471104 0.000000
0.509728 0.471698 0.000000
0.556848 0.470793 0.000000
0.604197 0.469884 0.000000
0.651532 0.468975 0.000000
0.698601 0.468071 0.000000
0.745145 0.467178 0.000000
0.790899 0.466299 0.000000
0.835399 0.465441 0.000000
0.878205 0.464610 0.000000
0.916670 0.463863 0.000000
0.949940 0.463218 0.000000
0.978689 0.462660 0.000000
1.000000 0.462179 0.000000
1.000000 0.461767 0.000000
1.000000 0.461742 0.000000
0.117273 0.469393 0.094069
0.117273 0.469393 0.094069
0.117273 0.469393 0.094069
0.117273 0.469393 0.094069
0.126581 0.470118 0.094703
0.142529 0.471360 0.095789
0.160852 0.472787 0.097035
0.181207 0.474373 0.098418
0.203417 0.476102 0.099927
0.227350 0.477966 0.101550
0.252883 0.479955 0.103280
0.279898 0.482058 0.105109
0.308271 0.484268 0.107028
0.337875 0.486573 0.109027
0.366695 0.490287 0.103524
0.392727 0.498065 0.069596
0.424748 0.504607 0.033329
0.462972 0.509786 0.000000
0.507511 0.513497 0.000000
0.555469 0.514056 0.000000
0.602833 0.513147 0.000000
0.650182 0.512238 0.000000
0.696884 0.511334 0.000000
0.742932 0.510440 0.000000
0.788198 0.509561 0.000000
0.832414 0.508703 0.000000
0.875234 0.507872 0.000000
0.913710 0.507125 0.000000
0.946991 0.506479 0.000000
0.975749 0.505921 0.000000
1.000000 0.505440 0.000000
1.000000 0.505029 0.000000
1.000000 0.505003 0.000000
0.127220 0.508348 0.101662
0.127220 0.508348 0.101662
0.127220 0.508348 0.101662
0.127220 0.508348 0.101662
0.136531 0.509073 0.102293
0.152483 0.510315 0.103373
0.170812 0.511742 0.104614
0.191173 0.513328 0.105992
0.213390 0.515058 0.107493
0.237330 0.516922 0.109110
0.262871 0.518911 0.110833
0.289894 0.521015 0.112654
0.318275 0.523225 0.114564
0.347888 0.525531 0.116555
0.378597 0.527922 0.118617
0.408667 0.531585 0.113575
0.435548 0.539844 0.075470
0.468533 0.546772 0.035055
0.507745 0.552258 0.000000
0.552714 0.556217 0.000000
0.600459 0.556710 0.000000
0.647303 0.555800 0.000000
0.693884 0.554896 0.000000
0.739946 0.554002 0.000000
0.785226 0.553123 0.000000
0.829456 0.552265 0.000000
0.872289 0.551434 0.000000
0.910778 0.550687 0.000000
0.944068 0.550041 0.000000
0.972835 0.549482 0.000000
0.997613 0.549001 0.000000
1.000000 0.548590 0.000000
1.000000 0.548564 0.000000
0.137222 0.547384 0.109237
0.137222 0.547384 0.109237
0.137222 0.547384 0.109237
0.137222 0.547384 0.109237
0.146535 0.548109 0.109865
0.162492 0.549352 0.110941
0.180826 0.550780 0.112177
0.201194 0.552365 0.113548
0.223417 0.554096 0.115043
0.247364 0.555960 0.116653
0.272913 0.557950 0.118369
0.299944 0.560054 0.120182
0.328334 0.562265 0.122084
0.357955 0.564571 0.124066
0.388674 0.566962 0.126119
0.420143 0.569428 0.128398
0.450611 0.573180 0.123332
0.477844 0.581861 0.081434
0.511232 0.589126 0.037312
0.550828 0.594880 0.000000
0.596565 0.599061 0.000000
0.644330 0.599452 0.000000
0.690925 0.598548 0.000000
0.737002 0.597654 0.000000
0.782296 0.596775 0.000000
0.826540 0.595916 0.000000
0.869386 0.595085 0.000000
0.907887 0.594338 0.000000
0.941188 0.593692 0.000000
0.969964 0.593133 0.000000
0.994749 0.592652 0.000000
1.000000 0.592241 0.000000
1.000000 0.592215 0.000000
0.147227 0.586309 0.116757
0.147227 0.586309 0.116757
0.147227 0.586309 0.116757
0.147227 0.586309 0.116757
0.156543 0.587034 0.117383
0.172505 0.588277 0.118454
0.190845 0.589705 0.119685
0.211218 0.591291 0.121050
0.233449 0.593022 0.122539
0.257403 0.594887 0.124142
0.282959 0.596876 0.125850
0.309923 0.598981 0.127715
0.337889 0.601192 0.129954
0.367068 0.603499 0.132289
0.397328 0.605891 0.134707
0.428531 0.608357 0.137198
0.460533 0.610887 0.139750
0.491538 0.614887 0.133134
0.519622 0.623924 0.087096
0.553864 0.631468 0.038965
0.594224 0.637447 0.000000
0.640534 0.641818 0.000000
0.688023 0.642072 0.000000
0.734114 0.641178 0.000000
0.779422 0.640299 0.000000
0.823680 0.639440 0.000000
0.866539 0.638608 0.000000
0.905052 0.637861 0.000000
0.938363 0.637215 0.000000
0.967148 0.636656 0.000000
0.991941 0.636175 0.000000
1.000000 0.635764 0.000000
1.000000 0.635738 0.000000
0.157185 0.624921 0.124185
0.157185 0.624921 0.124185
0.157185 0.624921 0.124185
0.157185 0.624921 0.124185
0.166504 0.625647 0.124808
0.182471 0.626890 0.125875
0.200816 0.628318 0.127100
0.220936 0.629905 0.128667
0.242835 0.631636 0.130420
0.266431 0.633501 0.132307
0.291605 0.635491 0.134319
0.318240 0.637597 0.136446
0.346215 0.639808 0.138678
0.375402 0.642115 0.141004
0.405671 0.644507 0.143413
0.436883 0.646974 0.145895
0.468895 0.649504 0.148438
0.501555 0.652085 0.151029
0.532774 0.656511 0.141466
0.561708 0.665830 0.091409
0.596737 0.673591 0.039452
0.637723 0.679744 0.000000
0.684394 0.684269 0.000000
0.731296 0.684351 0.000000
0.776619 0.683472 0.000000
0.820890 0.682613 0.000000
0.863762 0.681781 0.000000
0.902287 0.681034 0.000000
0.935609 0.680387 0.000000
0.964402 0.679829 0.000000
0.989203 0.679348 0.000000
1.000000 0.678936 0.000000
1.000000 0.678910 0.000000
0.166092 0.663017 0.132241
0.166092 0.663017 0.132241
0.166092 0.663017 0.132241
0.166092 0.663017 0.132241
0.175271 0.663743 0.132975
0.191000 0.664986 0.134232
0.209071 0.666415 0.135675
0.229145 0.668002 0.137278
0.251050 0.669733 0.139025
0.274653 0.671599 0.140905
0.299835 0.673589 0.142910
0.326478 0.675695 0.145029
0.354461 0.677906 0.147253
0.383657 0.680214 0.149571
0.413935 0.682607 0.151971
0.445156 0.685074 0.154444
0.477177 0.687605 0.156978
0.509847 0.690187 0.159559
0.543009 0.692807 0.162177
0.574147 0.697850 0.148018
0.603920 0.707369 0.094144
0.639655 0.715279 0.038622
0.681109 0.721550 0.000000
0.727905 0.726189 0.000000
0.773899 0.726064 0.000000
0.818183 0.725205 0.000000
0.861069 0.724373 0.000000
0.899605 0.723626 0.000000
0.932937 0.722979 0.000000
0.961739 0.722420 0.000000
0.986547 0.721939 0.000000
1.000000 0.721527 0.000000
1.000000 0.721502 0.000000
0.174156 0.700386 0.140675
0.174156 0.700386 0.140675
0.174156 0.700386 0.140675
0.174156 0.700386 0.140675
0.183338 0.701112 0.141407
0.199071 0.702355 0.142659
0.217148 0.703784 0.144097
0.237228 0.705371 0.145694
0.259139 0.707103 0.147435
0.282749 0.708969 0.149309
0.307938 0.710960 0.151307
0.334589 0.713066 0.153418
0.362580 0.715278 0.155634
0.391784 0.717586 0.157943
0.422071 0.719979 0.160336
0.453301 0.722447 0.162800
0.485331 0.724978 0.165324
0.518010 0.727560 0.167897
0.551182 0.730181 0.170505
0.584685 0.732828 0.173136
0.615489 0.738690 0.152487
0.646076 0.748322 0.095078
0.682415 0.756307 0.036338
0.724157 0.762639 0.000000
0.770820 0.767348 0.000000
0.815572 0.766982 0.000000
0.858471 0.766150 0.000000
0.897019 0.765402 0.000000
0.930360 0.764756 0.000000
0.959171 0.764197 0.000000
0.983987 0.763716 0.000000
1.000000 0.763304 0.000000
1.000000 0.763278 0.000000
0.182047 0.736812 0.148868
0.182047 0.736812 0.148868
0.182047 0.736812 0.148868
0.182047 0.736812 0.148868
0.191231 0.737538 0.149597
0.206969 0.738781 0.150845
0.225050 0.740210 0.152278
0.245136 0.741798 0.153869
0.267053 0.743530 0.155604
0.290670 0.745396 0.157471
0.315866 0.747387 0.159462
0.342524 0.749494 0.161567
0.370522 0.751706 0.163775
0.399735 0.754015 0.166076
0.430030 0.756409 0.168460
0.461269 0.758877 0.170916
0.493308 0.761408 0.173431
0.525997 0.763991 0.175995
0.559178 0.766613 0.178594
0.592690 0.769260 0.181216
0.626365 0.771920 0.183847
0.656633 0.778808 0.154587
0.687988 0.788462 0.094011
0.724806 0.796443 0.032484
0.766632 0.802774 0.000000
0.812879 0.807506 0.000000
0.855981 0.806871 0.000000
