LUTs/BRX_Masterclass_v2_Punchy.cube
TITLE "BRX Masterclass v2 Punchy"
LUT_3D_SIZE 9
DOMAIN_MIN 0.0 0.0 0.0
DOMAIN_MAX 1.0 1.0 1.0
0.000000 0.000000 0.000000
0.012869 0.000000 0.000000
0.119112 0.000000 0.000000
0.264094 0.000000 0.000000
0.436146 0.000000 0.000000
0.622592 0.000000 0.000000
0.808655 0.000000 0.000000
0.968610 0.000000 0.000000
1.000000 0.000000 0.000000
0.000000 0.010329 0.000000
0.012366 0.010139 0.000000
0.118616 0.008095 0.000000
0.263609 0.005307 0.000000
0.435674 0.001998 0.000000
0.622133 0.000000 0.000000
0.808210 0.000000 0.000000
0.968178 0.000000 0.000000
1.000000 0.000000 0.000000
0.010251 0.101076 0.006244
0.019674 0.101987 0.004635
0.114128 0.104893 0.000000
0.259221 0.102103 0.000000
0.431404 0.098793 0.000000
0.617993 0.095206 0.000000
0.804198 0.091627 0.000000
0.964275 0.088551 0.000000
1.000000 0.087078 0.000000
0.052891 0.214072 0.043494
0.062180 0.214796 0.044146
0.127541 0.226893 0.022238
0.253604 0.234460 0.000000
0.425950 0.231148 0.000000
0.612714 0.227559 0.000000
0.799094 0.223978 0.000000
0.959323 0.220900 0.000000
1.000000 0.219425 0.000000
0.088222 0.354878 0.071560
0.097521 0.355602 0.072202
0.174290 0.361583 0.077491
0.270210 0.375973 0.049011
0.420036 0.388661 0.000000
0.607009 0.385069 0.000000
0.793599 0.381486 0.000000
0.954007 0.378405 0.000000
1.000000 0.376930 0.000000
0.127220 0.508348 0.101662
0.136531 0.509073 0.102293
0.213390 0.515058 0.107493
0.318275 0.523225 0.114564
0.435548 0.539844 0.075470
0.600459 0.556710 0.000000
0.785226 0.553123 0.000000
0.944068 0.550041 0.000000
1.000000 0.548564 0.000000
0.166092 0.663017 0.132241
0.175271 0.663743 0.132975
0.251050 0.669733 0.139025
0.354461 0.677906 0.147253
0.477177 0.687605 0.156978
0.603920 0.707369 0.094144
0.773899 0.726064 0.000000
0.932937 0.722979 0.000000
1.000000 0.721502 0.000000
0.196258 0.802092 0.163478
0.205447 0.802818 0.164202
0.281308 0.808812 0.170172
0.384829 0.816991 0.178293
0.507676 0.826696 0.187889
0.640799 0.837212 0.198240
0.769718 0.862013 0.078355
0.923571 0.878447 0.000000
0.999828 0.876968 0.000000
0.214624 0.885836 0.182087
0.223819 0.886562 0.182805
0.299728 0.892559 0.188728
0.403315 0.900742 0.196783
0.526242 0.910451 0.206302
0.659451 0.920971 0.216569
0.792384 0.931468 0.226764
0.915131 0.963603 0.000000
0.994533 0.970568 0.000000
0.000000 0.000000 0.008379
0.012831 0.000000 0.008074
0.119073 0.000000 0.005548
0.264057 0.000000 0.002060
0.436109 0.000000 0.000000
0.622556 0.000000 0.000000
0.808620 0.000000 0.000000
0.968577 0.000000 0.000000
1.000000 0.000000 0.000000
0.000000 0.010321 0.007507
0.012327 0.010085 0.007202
0.118578 0.008041 0.004666
0.263572 0.005252 0.001166
0.435637 0.001943 0.000000
0.622098 0.000000 0.000000
0.808176 0.000000 0.000000
0.968145 0.000000 0.000000
1.000000 0.000000 0.000000
0.009230 0.101563 0.012161
0.019738 0.102034 0.011710
0.114092 0.104839 0.000000
0.259186 0.102049 0.000000
0.431370 0.098739 0.000000
0.617959 0.095152 0.000000
0.804165 0.091573 0.000000
0.964244 0.088496 0.000000
1.000000 0.087023 0.000000
0.053068 0.214232 0.049127
0.062358 0.214956 0.049779
0.127640 0.226974 0.028886
0.253572 0.234405 0.000000
0.425918 0.231093 0.000000
0.612683 0.227504 0.000000
0.799065 0.223923 0.000000
0.959295 0.220845 0.000000
1.000000 0.219371 0.000000
0.088402 0.355037 0.077191
0.097701 0.355762 0.077833
0.174471 0.361742 0.083122
0.270331 0.376074 0.055403
0.420007 0.388606 0.000000
0.606982 0.385015 0.000000
0.793572 0.381431 0.000000
0.953981 0.378351 0.000000
1.000000 0.376876 0.000000
0.127403 0.508507 0.107290
0.136713 0.509232 0.107921
0.213573 0.515217 0.113122
0.318459 0.523385 0.120192
0.435678 0.539951 0.081777
0.600403 0.556655 0.000000
0.785172 0.553069 0.000000
0.944015 0.549986 0.000000
1.000000 0.548510 0.000000
0.166245 0.663177 0.137892
0.175425 0.663903 0.138626
0.251204 0.669893 0.144675
0.354615 0.678066 0.152903
0.477332 0.687764 0.162627
0.604014 0.707469 0.100573
0.773848 0.726010 0.000000
0.932887 0.722924 0.000000
1.000000 0.721447 0.000000
0.196414 0.802251 0.169127
0.205603 0.802978 0.169851
0.281464 0.808972 0.175821
0.384986 0.817151 0.183941
0.507834 0.826856 0.193536
0.640958 0.837372 0.203886
0.769789 0.862085 0.085124
0.923524 0.878392 0.000000
0.999782 0.876914 0.000000
0.214781 0.885996 0.187734
0.223976 0.886722 0.188453
0.299885 0.892719 0.194375
0.403474 0.900902 0.202429
0.526401 0.910611 0.211948
0.659610 0.921131 0.222214
0.792545 0.931628 0.232409
0.915143 0.963610 0.000000
0.994489 0.970513 0.000000
0.000000 0.000000 0.105078
0.012384 0.000000 0.104772
0.118634 0.000000 0.102238
0.263627 0.000000 0.098740
0.435691 0.000000 0.094529
0.622150 0.000000 0.089893
0.808226 0.000000 0.085191
0.968193 0.000000 0.081089
1.000000 0.000000 0.079104
0.000000 0.009704 0.104203
0.011883 0.009456 0.103897
0.118141 0.007413 0.101354
0.263145 0.004624 0.097843
0.435221 0.001315 0.093618
0.621694 0.000000 0.088967
0.807784 0.000000 0.084250
0.967763 0.000000 0.080135
1.000000 0.000000 0.078144
0.000000 0.106144 0.095675
0.008484 0.105936 0.095399
0.113677 0.104210 0.092967
0.258781 0.101420 0.089346
0.430976 0.098110 0.084989
0.617578 0.094523 0.080195
0.803796 0.090944 0.075336
0.963885 0.087867 0.071099
1.000000 0.086394 0.069049
0.035606 0.222759 0.105331
0.045960 0.223195 0.105698
0.128782 0.227899 0.105625
0.253197 0.233776 0.077301
0.425555 0.230464 0.072764
0.612333 0.226875 0.067776
0.798727 0.223294 0.062722
0.958967 0.220215 0.058318
1.000000 0.218741 0.056188
0.090481 0.356875 0.142176
0.099781 0.357600 0.142817
0.176556 0.363581 0.148101
0.271724 0.377231 0.129184
0.419681 0.387977 0.057575
0.606668 0.384385 0.052355
0.793271 0.380801 0.047070
0.953690 0.377721 0.042467
1.000000 0.376245 0.040242
0.129510 0.510347 0.172248
0.138821 0.511072 0.172878
0.215686 0.517057 0.178074
0.320578 0.525225 0.185137
0.437171 0.541185 0.154589
0.599769 0.556025 0.035910
0.784550 0.552438 0.032013
0.943404 0.549355 0.028602
1.000000 0.547879 0.026949
0.168021 0.665018 0.203111
0.177201 0.665744 0.203844
0.252985 0.671734 0.209888
0.356403 0.679908 0.218110
0.479127 0.689607 0.227826
0.605089 0.708615 0.174810
0.773266 0.725379 0.018606
0.932316 0.722293 0.014978
1.000000 0.720816 0.013221
0.198214 0.804094 0.234321
0.207404 0.804820 0.235045
0.283270 0.810814 0.241010
0.386798 0.818994 0.249123
0.509653 0.828699 0.258711
0.642786 0.839216 0.269053
0.770603 0.862921 0.163284
0.922989 0.877761 0.002018
0.999252 0.876282 0.000167
0.216596 0.887839 0.252914
0.225792 0.888565 0.253632
0.301706 0.894562 0.259549
0.405301 0.902745 0.267597
0.528235 0.912455 0.277108
0.661454 0.922975 0.287366
0.794396 0.933473 0.297552
0.915276 0.963681 0.077004
0.993980 0.969882 0.000000
0.000000 0.000000 0.237768
0.011775 0.000000 0.237461
0.118034 0.000000 0.234916
0.263040 0.000000 0.231403
0.435120 0.000000 0.227175
0.621596 0.000000 0.222521
0.807689 0.000000 0.217800
0.967670 0.000000 0.213682
1.000000 0.000000 0.211690
0.000000 0.008842 0.236890
0.011277 0.008594 0.236582
0.117545 0.006550 0.234028
0.262561 0.003762 0.230503
0.434653 0.000452 0.226261
0.621143 0.000000 0.221591
0.807250 0.000000 0.216856
0.967243 0.000000 0.212724
1.000000 0.000000 0.210726
0.000000 0.105640 0.228560
0.006771 0.105392 0.228242
0.113112 0.103348 0.225607
0.258229 0.100557 0.221971
0.430439 0.097247 0.217598
0.617058 0.093660 0.212785
0.803293 0.090080 0.207907
0.963397 0.087004 0.203654
1.000000 0.085530 0.201597
0.000000 0.236438 0.215667
0.006327 0.236266 0.215413
0.110412 0.234855 0.213315
0.252687 0.232913 0.209880
0.425061 0.229601 0.205326
0.611855 0.226011 0.200319
0.798266 0.222430 0.195247
0.958520 0.219351 0.190826
1.000000 0.217877 0.188689
0.079453 0.363894 0.227700
0.089224 0.364490 0.228224
0.169839 0.369428 0.232553
0.273633 0.378816 0.230480
0.419237 0.387113 0.190081
0.606241 0.383521 0.184842
0.792860 0.379937 0.179539
0.953294 0.376856 0.174919
1.000000 0.375381 0.172687
0.132405 0.512871 0.261383
0.141716 0.513596 0.262012
0.218588 0.519582 0.267201
0.323489 0.527750 0.274256
0.439215 0.542874 0.254577
0.598903 0.555160 0.168732
0.783700 0.551573 0.164816
0.942568 0.548490 0.161390
1.000000 0.547014 0.159729
0.170459 0.667545 0.292604
0.179640 0.668270 0.293336
0.255431 0.674261 0.299374
0.358857 0.682435 0.307586
0.481593 0.692135 0.317293
0.606559 0.710179 0.276779
0.772471 0.724513 0.151348
0.931535 0.721428 0.147705
1.000000 0.719950 0.145940
0.200687 0.806622 0.323780
0.209878 0.807348 0.324503
0.285750 0.813343 0.330462
0.389287 0.821523 0.338566
0.512153 0.831229 0.348144
0.645297 0.841746 0.358474
0.771712 0.864058 0.270660
0.922257 0.876894 0.134690
0.998527 0.875415 0.132831
0.219089 0.890368 0.342353
0.228286 0.891095 0.343070
0.304207 0.897092 0.348981
0.407810 0.905276 0.357020
0.530756 0.914986 0.366521
0.663985 0.925507 0.376767
0.796940 0.936005 0.386942
0.915452 0.963768 0.197612
0.993285 0.969015 0.124614
0.000000 0.000000 0.396345
0.011052 0.000000 0.396037
0.117323 0.000000 0.393479
0.262345 0.000000 0.389949
0.434442 0.000000 0.385700
0.620938 0.000000 0.381024
0.807052 0.000000 0.376281
0.967050 0.000000 0.372144
1.000000 0.000000 0.370143
0.000000 0.007812 0.395463
0.010558 0.007564 0.395153
0.116837 0.005520 0.392587
0.261870 0.002731 0.389045
0.433980 0.000000 0.384782
0.620490 0.000000 0.380090
0.806617 0.000000 0.375332
0.966627 0.000000 0.371182
1.000000 0.000000 0.369174
0.000000 0.104609 0.387092
0.006089 0.104362 0.386772
0.112441 0.102317 0.384125
0.257574 0.099526 0.380472
0.429803 0.096216 0.376077
0.616442 0.092628 0.371243
0.802697 0.089049 0.366343
0.962818 0.085972 0.362070
1.000000 0.084498 0.360004
0.000000 0.236967 0.375220
0.000361 0.236719 0.374887
0.106814 0.234673 0.372129
0.252083 0.231881 0.368324
0.424475 0.228569 0.363750
0.611289 0.224979 0.358720
0.797720 0.221397 0.353626
0.957992 0.218319 0.349186
1.000000 0.216844 0.347040
0.000000 0.390391 0.357575
0.008431 0.390261 0.357349
0.111340 0.389199 0.355477
0.251613 0.387794 0.352931
0.418711 0.386080 0.348438
0.605735 0.382488 0.343177
0.792375 0.378904 0.337851
0.952826 0.375823 0.333213
1.000000 0.374347 0.331345
0.135567 0.515983 0.367862
0.144931 0.516692 0.368496
0.222060 0.522600 0.373718
0.326972 0.530769 0.380762
0.441182 0.544882 0.374570
0.597872 0.554126 0.327467
0.782690 0.550539 0.323529
0.941575 0.547456 0.320083
1.000000 0.545979 0.318413
0.173377 0.670565 0.399556
0.182559 0.671290 0.400288
0.258358 0.677281 0.406318
0.361795 0.685456 0.414520
0.484543 0.695156 0.424214
0.608307 0.712037 0.398799
0.771526 0.723478 0.309988
0.930607 0.720393 0.306326
1.000000 0.718915 0.304552
0.203646 0.809644 0.430693
0.212837 0.810370 0.431415
0.288717 0.816366 0.437366
0.392265 0.824546 0.445460
0.515144 0.834253 0.455025
0.648302 0.844770 0.465342
0.773028 0.865403 0.399176
0.921389 0.875858 0.293245
0.997666 0.874380 0.291378
0.222073 0.893392 0.449242
0.231270 0.894118 0.449958
0.307199 0.900116 0.455861
0.410813 0.908300 0.463890
0.533771 0.918011 0.473378
0.667015 0.928532 0.483611
0.799983 0.939031 0.493773
0.915650 0.963855 0.341965
0.992460 0.967978 0.283121
0.000000 0.000000 0.570508
0.010265 0.000000 0.570198
0.116548 0.000000 0.567627
0.261587 0.000000 0.564078
0.433705 0.000000 0.559806
0.620223 0.000000 0.555105
0.806358 0.000000 0.550338
0.966376 0.000000 0.546180
1.000000 0.000000 0.544169
0.000000 0.006680 0.569621
0.009775 0.006432 0.569310
0.116067 0.004388 0.566730
0.261116 0.001599 0.563168
0.433247 0.000000 0.558883
0.619779 0.000000 0.554167
0.805928 0.000000 0.549384
0.965957 0.000000 0.545213
1.000000 0.000000 0.543196
0.000000 0.103477 0.561205
0.005347 0.103229 0.560884
0.111711 0.101184 0.558222
0.256861 0.098394 0.554550
0.429111 0.095083 0.550134
0.615771 0.091495 0.545275
0.802049 0.087915 0.540350
0.962188 0.084838 0.536057
1.000000 0.083365 0.533981
0.000000 0.235834 0.549272
0.000000 0.235587 0.548938
0.106139 0.233540 0.546165
0.251426 0.230748 0.542341
0.423838 0.227435 0.537744
0.610675 0.223845 0.532690
0.797127 0.220263 0.527572
0.957418 0.217185 0.523111
1.000000 0.215710 0.520955
0.000000 0.393351 0.534430
0.000000 0.393103 0.534080
0.100086 0.391055 0.531175
0.245535 0.388261 0.527171
0.418141 0.384946 0.522360
0.605187 0.381353 0.517074
0.791848 0.377769 0.511724
0.952046 0.374688 0.507282
1.000000 0.373212 0.505706
0.003802 0.556888 0.511698
0.016136 0.556799 0.511497
0.117888 0.556084 0.509848
0.256520 0.555167 0.507625
0.419548 0.554178 0.505931
0.596747 0.552991 0.501803
0.781586 0.549404 0.497841
0.940490 0.546320 0.494374
1.000000 0.544843 0.492695
0.176587 0.673882 0.517022
0.185769 0.674607 0.517752
0.261577 0.680599 0.523774
0.365026 0.688774 0.531964
0.487788 0.698475 0.541644
0.610215 0.714063 0.533015
0.770495 0.722342 0.484220
0.929594 0.719256 0.480537
1.000000 0.717778 0.478753
0.206900 0.812963 0.548115
0.216093 0.813690 0.548835
0.291981 0.819685 0.554778
0.395541 0.827867 0.562860
0.518434 0.837574 0.572412
0.651607 0.848092 0.582714
0.774459 0.866861 0.540568
0.920441 0.874721 0.467384
0.996728 0.873242 0.465507
0.225354 0.896712 0.566637
0.234553 0.897439 0.567352
0.310490 0.903437 0.573246
0.414116 0.911622 0.581264
0.537088 0.921333 0.590738
0.670347 0.931856 0.600956
0.803330 0.942355 0.611103
0.915852 0.963929 0.500779
0.991560 0.966840 0.457206
0.000000 0.000000 0.748296
0.009468 0.000000 0.747984
0.115764 0.000000 0.745398
0.260821 0.000000 0.741830
0.432960 0.000000 0.737535
0.619500 0.000000 0.732809
0.805658 0.000000 0.728017
0.965695 0.000000 0.723838
1.000000 0.000000 0.721816
0.000000 0.005524 0.747403
0.008983 0.005277 0.747091
0.115287 0.003233 0.744496
0.260355 0.000443 0.740916
0.432506 0.000000 0.736607
0.619061 0.000000 0.731866
0.805232 0.000000 0.727059
0.965281 0.000000 0.722866
1.000000 0.000000 0.720838
0.000000 0.102321 0.738941
0.004596 0.102073 0.738619
0.110974 0.100028 0.735943
0.256141 0.097238 0.732252
0.428411 0.093926 0.727812
0.615094 0.090338 0.722928
0.801394 0.086758 0.717979
0.961553 0.083681 0.713664
1.000000 0.082207 0.711578
0.000000 0.234678 0.726945
0.000000 0.234430 0.726610
0.105458 0.232384 0.723822
0.250763 0.229591 0.719979
0.423195 0.226278 0.715360
0.610055 0.222688 0.710281
0.796530 0.219106 0.705137
0.956840 0.216027 0.700656
1.000000 0.214552 0.698489
0.000000 0.392193 0.712029
0.000000 0.391945 0.711677
0.099472 0.389898 0.708758
0.244939 0.387103 0.704734
0.417566 0.383788 0.699900
0.604634 0.380195 0.694590
0.791318 0.376610 0.689215
0.950873 0.373529 0.685282
1.000000 0.372053 0.683695
0.000000 0.563839 0.694982
0.000000 0.563591 0.694612
0.093664 0.561542 0.691549
0.239308 0.558745 0.687329
0.410363 0.555427 0.683687
0.595605 0.551832 0.679767
0.780467 0.548244 0.675780
0.939390 0.545160 0.672293
1.000000 0.543684 0.670603
0.012446 0.723651 0.670461
0.024531 0.723595 0.670393
0.124198 0.723159 0.669845
0.259923 0.722641 0.669142
0.420528 0.722150 0.668386
0.593958 0.721782 0.667675
0.769449 0.721181 0.662078
0.928568 0.718095 0.658373
1.000000 0.716617 0.656579
0.210227 0.816352 0.667980
0.219421 0.817079 0.668700
0.295318 0.823075 0.674633
0.398890 0.831257 0.682704
0.521797 0.840965 0.692242
0.654986 0.851484 0.702529
0.775904 0.868328 0.685173
0.919481 0.873559 0.645147
0.995777 0.872080 0.643260
0.228709 0.900103 0.686475
0.237908 0.900829 0.687189
0.313854 0.906828 0.693075
0.417493 0.915013 0.701081
0.540479 0.924725 0.710541
0.673753 0.935249 0.720744
0.806752 0.945749 0.730876
0.916043 0.963981 0.663199
0.990649 0.965678 0.634915
0.000000 0.000000 0.915548
0.008725 0.000000 0.915235
0.115034 0.000000 0.912635
0.260107 0.000000 0.909048
0.432265 0.000000 0.904732
0.618827 0.000000 0.899983
0.805006 0.000000 0.895168
0.965061 0.000000 0.890968
1.000000 0.000000 0.888937
0.000000 0.004437 0.914651
0.008245 0.004190 0.914336
0.114561 0.002145 0.911728
0.259645 0.000000 0.908130
0.431816 0.000000 0.903800
0.618392 0.000000 0.899035
0.804584 0.000000 0.894204
0.964651 0.000000 0.889992
1.000000 0.000000 0.887954
0.000000 0.101234 0.906146
0.003896 0.100986 0.905821
0.110286 0.098941 0.903132
0.255470 0.096150 0.899423
0.427760 0.092838 0.894961
0.614464 0.089250 0.890054
0.800785 0.085670 0.885081
0.960962 0.082592 0.880746
1.000000 0.081118 0.878650
0.000000 0.233590 0.894091
0.000000 0.233342 0.893753
0.104824 0.231295 0.890953
0.250145 0.228503 0.887091
0.422597 0.225189 0.882450
0.609478 0.221599 0.877348
0.795974 0.218016 0.872181
0.956302 0.214937 0.867679
1.000000 0.213462 0.865503
0.000000 0.391105 0.879104
0.000000 0.390856 0.878750
0.098902 0.388808 0.875817
0.244385 0.386014 0.871776
0.417031 0.382698 0.866920
0.604121 0.379105 0.861586
0.790826 0.375520 0.856188
0.949776 0.372439 0.852733
1.000000 0.370963 0.851136
0.000000 0.562750 0.861980
0.000000 0.562501 0.861609
0.093162 0.560452 0.858532
0.238315 0.557655 0.854700
0.409275 0.554337 0.851129
0.594538 0.550741 0.847185
0.779421 0.547153 0.843175
0.938362 0.544069 0.839668
1.000000 0.542592 0.837968
0.000000 0.735698 0.847378
0.000000 0.735449 0.847103
0.082459 0.733398 0.844818
0.226699 0.730599 0.841661
0.397870 0.727278 0.837856
0.583362 0.723680 0.833659
0.768472 0.720090 0.829396
0.927609 0.717003 0.825671
1.000000 0.715525 0.823868
0.013283 0.874772 0.822782
0.025390 0.874714 0.822697
0.125222 0.874265 0.822021
0.261117 0.873743 0.821159
0.421838 0.873269 0.820240
0.595291 0.872948 0.819382
0.767590 0.872841 0.818688
0.918584 0.872467 0.812376
0.994888 0.870988 0.810479
0.149558 0.926928 0.807460
0.159952 0.927331 0.807866
0.245638 0.930690 0.811239
0.362195 0.935372 0.815925
0.499923 0.941086 0.821621
0.648400 0.947483 0.827973
0.795715 0.954093 0.834512
0.916206 0.964009 0.816278
0.989798 0.964585 0.802093
0.000000 0.000000 1.000000
0.008219 0.000000 1.000000
0.114536 0.000000 1.000000
0.259620 0.000000 1.000000
0.431792 0.000000 1.000000
0.618369 0.000000 1.000000
0.804562 0.000000 1.000000
0.964629 0.000000 1.000000
1.000000 0.000000 1.000000
0.000000 0.003692 1.000000
0.007742 0.003444 1.000000
0.114066 0.001399 1.000000
0.259161 0.000000 1.000000
0.431346 0.000000 1.000000
0.617936 0.000000 1.000000
0.804143 0.000000 1.000000
0.964222 0.000000 1.000000
1.000000 0.000000 1.000000
0.000000 0.100487 1.000000
0.003420 0.100240 1.000000
0.109818 0.098194 1.000000
0.255013 0.095403 1.000000
0.427317 0.092091 1.000000
0.614036 0.088503 1.000000
0.800371 0.084923 0.999730
0.960560 0.081845 0.995381
1.000000 0.080371 0.993279
0.000000 0.232843 1.000000
0.000000 0.232595 1.000000
0.104393 0.230548 1.000000
0.249725 0.227756 1.000000
0.422191 0.224442 0.997091
0.609086 0.220852 0.991972
0.795596 0.217269 0.986789
0.955937 0.214189 0.982273
1.000000 0.212715 0.980091
0.000000 0.390357 0.993734
0.000000 0.390109 0.993379
0.098514 0.388061 0.990437
0.244009 0.385266 0.986383
0.416668 0.381950 0.981513
0.603772 0.378357 0.976162
0.790268 0.374772 0.970927
0.949027 0.371691 0.967621
1.000000 0.370215 0.966018
0.000000 0.562002 0.976557
0.000000 0.561753 0.976185
0.092822 0.559704 0.973099
0.237558 0.556907 0.969597
0.408532 0.553588 0.966011
0.593809 0.549993 0.962051
0.778706 0.546405 0.958025
0.937660 0.543321 0.954504
1.000000 0.541844 0.952798
0.000000 0.734950 0.962245
0.000000 0.734701 0.961968
0.081739 0.732650 0.959675
0.225991 0.729851 0.956505
0.397175 0.726530 0.952685
0.582681 0.722931 0.948472
0.767805 0.719340 0.944193
0.926954 0.716254 0.940455
1.000000 0.714776 0.938644
0.000000 0.890426 0.950086
0.000000 0.890177 0.949794
0.071821 0.888124 0.947370
0.216233 0.885323 0.944023
0.387606 0.882000 0.939993
0.573317 0.878399 0.935552
0.758647 0.874806 0.931046
0.917972 0.871717 0.927112
0.994283 0.870238 0.925209
0.000000 0.970710 0.931268
0.008385 0.970587 0.931105
0.110275 0.969604 0.929785
0.248943 0.968364 0.928054
0.412904 0.967053 0.926116
0.589804 0.965841 0.924170
0.765478 0.964862 0.922406
0.915771 0.964217 0.921043
0.989218 0.963835 0.916794
