LUTs/BRX_Masterclass_Look.cube
TITLE "BRX Masterclass Look"
LUT_3D_SIZE 33
DOMAIN_MIN 0.0 0.0 0.0
DOMAIN_MAX 1.0 1.0 1.0
0.003157 0.036786 0.053461
0.023306 0.037163 0.053625
0.045053 0.037571 0.053802
0.068291 0.038007 0.053991
0.092914 0.038471 0.054192
0.118814 0.038960 0.054404
0.145886 0.039472 0.054626
0.174023 0.040005 0.054856
0.203119 0.040558 0.055095
0.233066 0.041129 0.055341
0.263759 0.041715 0.055594
0.295090 0.042315 0.055853
0.326954 0.042927 0.056116
0.359243 0.043549 0.056384
0.391852 0.044178 0.056654
0.424674 0.044813 0.056927
0.457601 0.045452 0.057202
0.490529 0.046093 0.057477
0.523350 0.046734 0.057751
0.555957 0.047372 0.058024
0.588245 0.048005 0.058295
0.620106 0.048632 0.058563
0.651435 0.049250 0.058827
0.682124 0.049857 0.059086
0.712068 0.050450 0.059339
0.739943 0.051004 0.059575
0.764767 0.051498 0.059786
0.786896 0.051940 0.059973
0.806623 0.052334 0.060141
0.824194 0.052685 0.060291
0.839814 0.052998 0.060424
0.853655 0.053276 0.060542
0.865859 0.053521 0.060646
0.005702 0.057450 0.054013
0.025851 0.057829 0.054177
0.047598 0.058240 0.054355
0.070836 0.058679 0.054545
0.095458 0.059145 0.054747
0.121358 0.059637 0.054959
0.148429 0.060152 0.055182
0.176566 0.060688 0.055413
0.205661 0.061244 0.055653
0.235608 0.061818 0.055900
0.266300 0.062408 0.056154
0.297631 0.063011 0.056414
0.329494 0.063626 0.056678
0.361783 0.064251 0.056947
0.394391 0.064884 0.057219
0.427212 0.065523 0.057493
0.460139 0.066166 0.057768
0.493066 0.066810 0.058044
0.525886 0.067454 0.058319
0.558493 0.068096 0.058594
0.590780 0.068733 0.058866
0.622641 0.069363 0.059135
0.653970 0.069985 0.059399
0.684658 0.070595 0.059659
0.714602 0.071191 0.059913
0.742476 0.071748 0.060150
0.767300 0.072245 0.060362
0.789428 0.072689 0.060550
0.809155 0.073085 0.060719
0.826725 0.073439 0.060869
0.842346 0.073753 0.061002
0.856186 0.074033 0.061121
0.868390 0.074279 0.061225
0.008448 0.079761 0.054611
0.028597 0.080143 0.054776
0.050343 0.080555 0.054954
0.073580 0.080997 0.055145
0.098202 0.081467 0.055348
0.124102 0.081961 0.055561
0.151173 0.082479 0.055785
0.179309 0.083019 0.056017
0.208403 0.083579 0.056258
0.238349 0.084156 0.056506
0.269041 0.084749 0.056761
0.300371 0.085356 0.057022
0.332234 0.085975 0.057287
0.364522 0.086604 0.057557
0.397130 0.087241 0.057830
0.429950 0.087884 0.058105
0.462877 0.088530 0.058382
0.495803 0.089178 0.058659
0.528623 0.089826 0.058935
0.561229 0.090472 0.059211
0.593516 0.091113 0.059484
0.625376 0.091747 0.059754
0.656704 0.092371 0.060020
0.687392 0.092985 0.060281
0.717335 0.093585 0.060536
0.745209 0.094146 0.060774
0.770032 0.094645 0.060986
0.792160 0.095092 0.061175
0.811886 0.095490 0.061344
0.829457 0.095846 0.061495
0.845076 0.096162 0.061629
0.858917 0.096443 0.061748
0.871120 0.096691 0.061853
0.011381 0.103611 0.055253
0.031529 0.103996 0.055418
0.053275 0.104411 0.055598
0.076512 0.104856 0.055789
0.101133 0.105328 0.055993
0.127032 0.105826 0.056207
0.154103 0.106348 0.056432
0.182238 0.106891 0.056665
0.211332 0.107454 0.056907
0.241278 0.108035 0.057156
0.271969 0.108632 0.057412
0.303299 0.109243 0.057674
0.335161 0.109866 0.057941
0.367448 0.110499 0.058212
0.400055 0.111140 0.058486
0.432875 0.111787 0.058762
0.465801 0.112437 0.059040
0.498727 0.113090 0.059318
0.531546 0.113742 0.059596
0.564151 0.114391 0.059873
0.596437 0.115036 0.060147
0.628297 0.115674 0.060418
0.659624 0.116303 0.060685
0.690312 0.116921 0.060948
0.720254 0.117525 0.061204
0.748127 0.118088 0.061443
0.772951 0.118591 0.061656
0.795078 0.119040 0.061846
0.814804 0.119441 0.062016
0.832374 0.119799 0.062167
0.847993 0.120118 0.062302
0.861833 0.120400 0.062421
0.874037 0.120649 0.062526
0.014487 0.128894 0.055936
0.034635 0.129281 0.056102
0.056380 0.129699 0.056282
0.079616 0.130147 0.056475
0.104237 0.130622 0.056679
0.130136 0.131124 0.056895
0.157206 0.131649 0.057120
0.185341 0.132196 0.057355
0.214434 0.132763 0.057598
0.244379 0.133348 0.057848
0.275069 0.133949 0.058106
0.306398 0.134564 0.058369
0.338260 0.135191 0.058637
0.370547 0.135829 0.058909
0.403153 0.136474 0.059184
0.435972 0.137125 0.059462
0.468898 0.137780 0.059741
0.501823 0.138437 0.060020
0.534641 0.139093 0.060300
0.567246 0.139747 0.060577
0.599531 0.140396 0.060853
0.631390 0.141038 0.061125
0.662717 0.141671 0.061394
0.693404 0.142293 0.061657
0.723346 0.142901 0.061915
0.751218 0.143468 0.062155
0.776041 0.143974 0.062369
0.798168 0.144426 0.062560
0.817893 0.144830 0.062730
0.835463 0.145190 0.062882
0.851082 0.145511 0.063017
0.864922 0.145795 0.063137
0.877125 0.146046 0.063243
0.017752 0.155500 0.056658
0.037900 0.155890 0.056825
0.059645 0.156311 0.057006
0.082880 0.156762 0.057200
0.107501 0.157241 0.057405
0.133399 0.157746 0.057621
0.160468 0.158275 0.057848
0.188602 0.158826 0.058084
0.217695 0.159397 0.058328
0.247639 0.159986 0.058580
0.278329 0.160592 0.058838
0.309658 0.161211 0.059103
0.341518 0.161843 0.059372
0.373805 0.162485 0.059646
0.406410 0.163135 0.059922
0.439229 0.163790 0.060201
0.472153 0.164450 0.060482
0.505078 0.165111 0.060763
0.537895 0.165772 0.061043
0.570500 0.166431 0.061322
0.602784 0.167084 0.061599
0.634643 0.167731 0.061873
0.665968 0.168368 0.062143
0.696655 0.168994 0.062407
0.726596 0.169606 0.062666
0.754468 0.170177 0.062907
0.779290 0.170687 0.063122
0.801416 0.171142 0.063314
0.821141 0.171549 0.063485
0.838711 0.171911 0.063638
0.854329 0.172234 0.063774
0.868169 0.172520 0.063894
0.880372 0.172773 0.064001
0.021163 0.183323 0.057416
0.041310 0.183716 0.057584
0.063055 0.184140 0.057766
0.086290 0.184595 0.057961
0.110910 0.185078 0.058167
0.136807 0.185586 0.058385
0.163876 0.186119 0.058613
0.192010 0.186674 0.058850
0.221102 0.187249 0.059095
0.251045 0.187843 0.059348
0.281734 0.188453 0.059608
0.313062 0.189077 0.059874
0.344922 0.189713 0.060145
0.377208 0.190360 0.060420
0.409813 0.191014 0.060698
0.442630 0.191675 0.060978
0.475554 0.192339 0.061260
0.508478 0.193005 0.061542
0.541295 0.193671 0.061824
0.573898 0.194334 0.062105
0.606182 0.194993 0.062383
0.638040 0.195644 0.062658
0.669365 0.196286 0.062929
0.700051 0.196916 0.063195
0.729991 0.197533 0.063455
0.757862 0.198108 0.063697
0.782684 0.198621 0.063913
0.804810 0.199080 0.064106
0.824534 0.199489 0.064278
0.842103 0.199854 0.064432
0.857722 0.200179 0.064569
0.871561 0.200467 0.064690
0.883763 0.200722 0.064797
0.024706 0.212255 0.058209
0.044853 0.212651 0.058378
0.066597 0.213079 0.058561
0.089831 0.213537 0.058756
0.114451 0.214023 0.058964
0.140347 0.214536 0.059183
0.167416 0.215073 0.059412
0.195549 0.215632 0.059650
0.224640 0.216212 0.059897
0.254583 0.216810 0.060151
0.285271 0.217424 0.060412
0.316598 0.218053 0.060680
0.348458 0.218694 0.060952
0.380742 0.219346 0.061228
0.413347 0.220005 0.061507
0.446164 0.220671 0.061789
0.479087 0.221340 0.062073
0.512009 0.222011 0.062356
0.544826 0.222682 0.062640
0.577428 0.223350 0.062922
0.609712 0.224013 0.063202
0.641568 0.224669 0.063478
0.672893 0.225316 0.063751
0.703578 0.225951 0.064018
0.733517 0.226572 0.064279
0.761388 0.227152 0.064523
0.786209 0.227669 0.064740
0.808335 0.228130 0.064934
0.828059 0.228543 0.065107
0.845627 0.228910 0.065261
0.861245 0.229238 0.065399
0.875084 0.229528 0.065520
0.887286 0.229785 0.065628
0.028368 0.242188 0.059033
0.048514 0.242587 0.059203
0.070257 0.243018 0.059387
0.093491 0.243480 0.059583
0.118110 0.243970 0.059792
0.144006 0.244486 0.060012
0.171074 0.245028 0.060242
0.199206 0.245591 0.060482
0.228297 0.246176 0.060730
0.258239 0.246778 0.060986
0.288926 0.247398 0.061248
0.320253 0.248031 0.061517
0.352111 0.248678 0.061791
0.384395 0.249334 0.062068
0.416999 0.249999 0.062349
0.449815 0.250669 0.062633
0.482737 0.251344 0.062918
0.515659 0.252020 0.063203
0.548474 0.252696 0.063488
0.581077 0.253369 0.063771
0.613359 0.254037 0.064053
0.645215 0.254699 0.064331
0.676539 0.255350 0.064605
0.707223 0.255990 0.064873
0.737162 0.256616 0.065136
0.765032 0.257200 0.065381
0.789852 0.257721 0.065599
0.811977 0.258186 0.065794
0.831701 0.258601 0.065968
0.849269 0.258972 0.066123
0.864886 0.259302 0.066261
0.878725 0.259594 0.066384
0.890927 0.259852 0.066492
0.032134 0.273013 0.059885
0.052280 0.273415 0.060057
0.074022 0.273850 0.060241
0.097256 0.274315 0.060439
0.121874 0.274810 0.060649
0.147770 0.275330 0.060870
0.174836 0.275876 0.061102
0.202968 0.276444 0.061343
0.232058 0.277033 0.061592
0.261999 0.277641 0.061850
0.292686 0.278265 0.062114
0.324012 0.278904 0.062384
0.355869 0.279555 0.062659
0.388153 0.280217 0.062938
0.420755 0.280887 0.063221
0.453571 0.281563 0.063506
0.486492 0.282242 0.063792
0.519413 0.282924 0.064079
0.552228 0.283605 0.064365
0.584829 0.284284 0.064651
0.617111 0.284957 0.064933
0.648966 0.285623 0.065213
0.680289 0.286280 0.065488
0.710972 0.286925 0.065759
0.740910 0.287555 0.066023
0.768780 0.288144 0.066269
0.793600 0.288669 0.066488
0.815724 0.289138 0.066684
0.835447 0.289556 0.066859
0.853015 0.289930 0.067015
0.868632 0.290262 0.067154
0.882470 0.290557 0.067277
0.894672 0.290817 0.067386
0.035992 0.304622 0.060764
0.056137 0.305028 0.060937
0.077879 0.305466 0.061123
0.101112 0.305936 0.061322
0.125729 0.306434 0.061533
0.151624 0.306959 0.061755
0.178690 0.307509 0.061988
0.206821 0.308082 0.062230
0.235910 0.308676 0.062481
0.265851 0.309288 0.062740
0.296537 0.309918 0.063006
0.327862 0.310562 0.063277
0.359719 0.311218 0.063554
0.392001 0.311885 0.063835
0.424603 0.312560 0.064119
0.457417 0.313242 0.064405
0.490338 0.313927 0.064693
0.523258 0.314614 0.064982
0.556072 0.315301 0.065270
0.588672 0.315985 0.065557
0.620953 0.316663 0.065841
0.652808 0.317335 0.066122
0.684130 0.317997 0.066399
0.714812 0.318647 0.066671
0.744750 0.319282 0.066936
0.772618 0.319875 0.067184
0.797438 0.320404 0.067405
0.819561 0.320877 0.067602
0.839284 0.321299 0.067778
0.856851 0.321675 0.067934
0.872468 0.322010 0.068074
0.886306 0.322307 0.068198
0.898507 0.322569 0.068307
0.039927 0.336908 0.061667
0.060071 0.337317 0.061840
0.081813 0.337759 0.062027
0.105045 0.338232 0.062227
0.129662 0.338734 0.062440
0.155556 0.339264 0.062663
0.182622 0.339818 0.062898
0.210752 0.340396 0.063141
0.239840 0.340995 0.063394
0.269780 0.341612 0.063654
0.300465 0.342247 0.063921
0.331789 0.342896 0.064194
0.363645 0.343558 0.064473
0.395927 0.344231 0.064755
0.428528 0.344911 0.065041
0.461341 0.345598 0.065329
0.494261 0.346289 0.065619
0.527181 0.346982 0.065909
0.559994 0.347674 0.066199
0.592593 0.348363 0.066487
0.624873 0.349047 0.066773
0.656727 0.349724 0.067056
0.688048 0.350392 0.067334
0.718730 0.351047 0.067607
0.748666 0.351687 0.067874
0.776534 0.352285 0.068123
0.801353 0.352818 0.068345
0.823476 0.353294 0.068543
0.843198 0.353719 0.068720
0.860765 0.354099 0.068878
0.876381 0.354436 0.069018
0.890219 0.354736 0.069143
0.902420 0.355000 0.069252
0.043926 0.369760 0.062590
0.064070 0.370172 0.062764
0.085811 0.370618 0.062953
0.109042 0.371096 0.063154
0.133658 0.371602 0.063368
0.159552 0.372136 0.063593
0.186617 0.372695 0.063828
0.214746 0.373278 0.064073
0.243834 0.373881 0.064327
0.273773 0.374504 0.064589
0.304458 0.375144 0.064858
0.335781 0.375799 0.065132
0.367636 0.376466 0.065412
0.399917 0.377144 0.065696
0.432517 0.377830 0.065984
0.465329 0.378523 0.066274
0.498248 0.379219 0.066565
0.531167 0.379918 0.066857
0.563979 0.380616 0.067148
0.596578 0.381310 0.067438
0.628857 0.382000 0.067726
0.660710 0.382683 0.068010
0.692030 0.383355 0.068290
0.722711 0.384015 0.068565
0.752647 0.384661 0.068834
0.780514 0.385264 0.069084
0.805332 0.385801 0.069307
0.827454 0.386281 0.069507
0.847176 0.386710 0.069684
0.864742 0.387092 0.069843
0.880358 0.387432 0.069984
0.894196 0.387734 0.070109
0.906396 0.388000 0.070220
0.047975 0.403070 0.063531
0.068119 0.403486 0.063707
0.089859 0.403936 0.063896
0.113090 0.404417 0.064098
0.137706 0.404928 0.064313
0.163599 0.405467 0.064540
0.190663 0.406030 0.064777
0.218791 0.406618 0.065023
0.247878 0.407227 0.065279
0.277817 0.407855 0.065542
0.308500 0.408500 0.065812
0.339822 0.409160 0.066089
0.371677 0.409833 0.066370
0.403957 0.410516 0.066656
0.436556 0.411208 0.066945
0.469368 0.411907 0.067237
0.502286 0.412609 0.067530
0.535204 0.413313 0.067823
0.568015 0.414016 0.068116
0.600612 0.414717 0.068408
0.632891 0.415412 0.068697
0.664743 0.416100 0.068983
0.696062 0.416778 0.069265
0.726743 0.417444 0.069541
0.756677 0.418095 0.069811
0.784544 0.418702 0.070063
0.809361 0.419244 0.070288
0.831483 0.419728 0.070488
0.851204 0.420160 0.070667
0.868770 0.420545 0.070826
0.884386 0.420888 0.070968
0.898223 0.421192 0.071094
0.910423 0.421461 0.071205
0.052062 0.436730 0.064488
0.072205 0.437149 0.064664
0.093945 0.437602 0.064854
0.117175 0.438088 0.065058
0.141790 0.438603 0.065274
0.167682 0.439146 0.065502
0.194746 0.439715 0.065740
0.222874 0.440307 0.065988
0.251960 0.440921 0.066245
0.281897 0.441554 0.066510
0.312580 0.442205 0.066782
0.343901 0.442870 0.067060
0.375755 0.443549 0.067343
0.408034 0.444238 0.067631
0.440632 0.444936 0.067921
0.473443 0.445640 0.068215
0.506360 0.446348 0.068509
0.539277 0.447058 0.068805
0.572087 0.447767 0.069099
0.604684 0.448473 0.069393
0.636962 0.449174 0.069684
0.668813 0.449868 0.069971
0.700131 0.450551 0.070255
0.730811 0.451222 0.070533
0.760745 0.451879 0.070804
0.788611 0.452491 0.071057
0.813399 0.453037 0.071307
0.835399 0.453525 0.071610
0.855012 0.453960 0.071880
0.872480 0.454349 0.072120
0.888010 0.454694 0.072334
0.901771 0.455001 0.072524
0.913904 0.455272 0.072692
0.056173 0.470628 0.065456
0.076315 0.471051 0.065633
0.098054 0.471508 0.065825
0.121284 0.471998 0.066030
0.145898 0.472517 0.066247
0.171790 0.473065 0.066476
0.198852 0.473638 0.066716
0.226979 0.474236 0.066965
0.256065 0.474855 0.067224
0.286002 0.475493 0.067490
0.316683 0.476149 0.067764
0.348004 0.476820 0.068043
0.379857 0.477504 0.068328
0.412135 0.478199 0.068617
0.444732 0.478903 0.068910
0.477542 0.479613 0.069205
0.510458 0.480327 0.069501
0.543374 0.481042 0.069798
0.576184 0.481757 0.070095
0.608780 0.482469 0.070390
0.641056 0.483176 0.070682
0.672907 0.483875 0.070972
0.704212 0.484564 0.071267
0.734723 0.485241 0.071687
0.764492 0.485902 0.072097
0.792204 0.486519 0.072479
0.816883 0.487070 0.072820
0.838883 0.487562 0.073124
0.858494 0.488001 0.073395
0.875963 0.488392 0.073636
0.891492 0.488741 0.073851
0.905252 0.489050 0.074042
0.917385 0.489323 0.074210
0.060293 0.504656 0.066433
0.080435 0.505083 0.066611
0.102174 0.505544 0.066804
0.125403 0.506037 0.067010
0.150017 0.506561 0.067229
0.175907 0.507114 0.067459
0.202969 0.507692 0.067700
0.231096 0.508294 0.067951
0.260180 0.508918 0.068211
0.290116 0.509562 0.068479
0.320797 0.510223 0.068754
0.352117 0.510900 0.069036
0.383969 0.511590 0.069322
0.416246 0.512291 0.069613
0.448842 0.513000 0.069907
0.481652 0.513716 0.070204
0.514567 0.514435 0.070502
0.547482 0.515157 0.070801
0.580290 0.515878 0.071099
0.612790 0.516596 0.071476
0.644888 0.517308 0.071918
0.676563 0.518013 0.072354
0.707708 0.518707 0.072784
0.738217 0.519389 0.073206
0.767985 0.520056 0.073618
0.795696 0.520678 0.074001
0.820375 0.521233 0.074343
0.842374 0.521729 0.074648
0.861985 0.522171 0.074921
0.879453 0.522566 0.075163
0.894982 0.522917 0.075379
0.908741 0.523229 0.075570
0.920874 0.523504 0.075739
0.064411 0.538704 0.067416
0.084552 0.539134 0.067595
0.106291 0.539599 0.067789
0.129519 0.540097 0.067997
0.154132 0.540625 0.068217
0.180022 0.541182 0.068448
0.207083 0.541765 0.068691
0.235209 0.542372 0.068943
0.264292 0.543001 0.069205
0.294228 0.543651 0.069474
0.324908 0.544317 0.069751
0.356227 0.545000 0.070034
0.388077 0.545695 0.070322
0.420354 0.546402 0.070615
0.452950 0.547117 0.070911
0.485758 0.547838 0.071209
0.518508 0.548564 0.071646
0.551242 0.549291 0.072097
0.583869 0.550018 0.072547
0.616285 0.550741 0.072994
0.648382 0.551460 0.073438
0.680056 0.552170 0.073876
0.711200 0.552870 0.074308
0.741708 0.553558 0.074731
0.771476 0.554230 0.075144
0.799186 0.554857 0.075530
0.823864 0.555416 0.075873
0.845862 0.555916 0.076179
0.865473 0.556362 0.076453
0.882940 0.556759 0.076696
0.898468 0.557113 0.076913
0.912227 0.557427 0.077105
0.924359 0.557704 0.077275
0.068513 0.572661 0.068401
0.088653 0.573095 0.068582
0.110391 0.573564 0.068777
0.133619 0.574065 0.068985
0.158231 0.574598 0.069207
0.184120 0.575159 0.069440
0.211181 0.575747 0.069684
0.239306 0.576360 0.069938
0.268388 0.576994 0.070201
0.298323 0.577648 0.070472
0.329002 0.578321 0.070750
0.360320 0.579009 0.071035
0.392117 0.579710 0.071369
0.424216 0.580422 0.071811
0.456631 0.581143 0.072258
0.489259 0.581870 0.072708
0.521992 0.582601 0.073160
0.554724 0.583334 0.073613
0.587351 0.584067 0.074064
0.619765 0.584796 0.074514
0.651862 0.585520 0.074959
0.683534 0.586236 0.075399
0.714677 0.586942 0.075833
0.745185 0.587635 0.076257
0.774951 0.588312 0.076672
0.802661 0.588944 0.077059
0.827338 0.589508 0.077404
0.849336 0.590011 0.077712
0.868946 0.590461 0.077986
0.886412 0.590862 0.078231
0.901940 0.591218 0.078448
0.915699 0.591535 0.078641
0.927830 0.591814 0.078811
0.072585 0.606417 0.069386
0.092725 0.606854 0.069568
0.114462 0.607327 0.069764
0.137689 0.607833 0.069974
0.162300 0.608370 0.070196
0.188189 0.608936 0.070431
0.215249 0.609529 0.070676
0.243373 0.610146 0.070932
0.272455 0.610785 0.071196
0.302249 0.611445 0.071585
0.332759 0.612123 0.072005
0.363904 0.612816 0.072435
0.395578 0.613523 0.072872
0.427676 0.614240 0.073316
0.460091 0.614967 0.073764
0.492717 0.615700 0.074216
0.525449 0.616437 0.074670
0.558181 0.617176 0.075125
0.590806 0.617914 0.075578
0.623220 0.618650 0.076029
0.655315 0.619379 0.076477
0.686987 0.620101 0.076918
0.718129 0.620812 0.077353
0.748636 0.621510 0.077780
0.778401 0.622193 0.078197
0.806110 0.622830 0.078585
0.830787 0.623398 0.078931
0.852783 0.623905 0.079240
0.872393 0.624358 0.079515
0.889859 0.624762 0.079761
0.905386 0.625122 0.079979
0.919144 0.625440 0.080173
0.931276 0.625722 0.080344
0.076614 0.639862 0.070367
0.096753 0.640302 0.070550
0.118490 0.640779 0.070747
0.141716 0.641289 0.070958
0.166327 0.641830 0.071182
0.192106 0.642400 0.071508
0.219017 0.642998 0.071879
0.246986 0.643620 0.072264
0.275907 0.644264 0.072663
0.305676 0.644929 0.073075
0.336185 0.645612 0.073496
0.367329 0.646311 0.073927
0.399003 0.647023 0.074366
0.431099 0.647747 0.074812
0.463513 0.648479 0.075262
0.496138 0.649218 0.075716
0.528869 0.649961 0.076171
0.561600 0.650705 0.076628
0.594225 0.651449 0.077083
0.626637 0.652190 0.077536
0.658732 0.652925 0.077985
0.690402 0.653653 0.078428
0.721544 0.654369 0.078865
0.752049 0.655073 0.079293
0.781814 0.655761 0.079712
0.809522 0.656402 0.080101
0.834198 0.656975 0.080449
0.856194 0.657486 0.080759
0.875803 0.657942 0.081035
0.893268 0.658349 0.081282
0.908795 0.658711 0.081501
0.922553 0.659033 0.081695
0.934684 0.659316 0.081867
0.080524 0.672883 0.071393
0.100553 0.673327 0.071668
0.122169 0.673808 0.071966
0.145268 0.674321 0.072284
0.169743 0.674867 0.072622
0.195488 0.675442 0.072978
0.222398 0.676044 0.073350
0.250366 0.676671 0.073737
0.279287 0.677320 0.074137
0.309054 0.677990 0.074550
0.339563 0.678679 0.074973
0.370706 0.679383 0.075406
0.402379 0.680100 0.075847
0.434474 0.680829 0.076294
0.466887 0.681567 0.076746
0.499512 0.682312 0.077201
0.532241 0.683060 0.077659
0.564971 0.683811 0.078117
0.597595 0.684560 0.078574
0.630006 0.685307 0.079028
0.662100 0.686047 0.079479
0.693770 0.686780 0.079924
0.724910 0.687502 0.080363
0.755415 0.688211 0.080793
0.785179 0.688904 0.081212
0.812886 0.689550 0.081604
0.837561 0.690127 0.081952
0.859556 0.690642 0.082264
0.879164 0.691102 0.082541
0.896630 0.691512 0.082789
0.912156 0.691877 0.083009
0.925913 0.692200 0.083204
0.938044 0.692486 0.083376
0.083850 0.705371 0.072837
0.103878 0.705818 0.073114
0.125494 0.706302 0.073412
0.148592 0.706820 0.073732
0.173066 0.707370 0.074071
0.198810 0.707949 0.074428
0.225719 0.708556 0.074801
0.253687 0.709187 0.075190
0.282607 0.709842 0.075592
0.312373 0.710517 0.076006
0.342881 0.711210 0.076431
0.374023 0.711920 0.076866
0.405695 0.712643 0.077308
0.437790 0.713377 0.077757
0.470202 0.714121 0.078210
0.502825 0.714870 0.078667
0.535554 0.715625 0.079127
0.568283 0.716380 0.079586
0.600905 0.717136 0.080045
0.633316 0.717888 0.080502
0.665409 0.718634 0.080954
0.697078 0.719372 0.081401
0.728217 0.720099 0.081841
0.758721 0.720813 0.082272
0.788484 0.721511 0.082694
0.816190 0.722162 0.083086
0.840865 0.722743 0.083436
0.862859 0.723262 0.083749
0.882467 0.723725 0.084027
0.899932 0.724138 0.084276
0.915458 0.724506 0.084497
0.929215 0.724832 0.084692
0.941345 0.725119 0.084865
0.087105 0.737213 0.074257
0.107132 0.737664 0.074535
0.128748 0.738151 0.074835
0.151845 0.738673 0.075155
0.176318 0.739227 0.075496
0.202062 0.739810 0.075854
0.228970 0.740421 0.076229
0.256937 0.741058 0.076618
0.285856 0.741717 0.077022
0.315622 0.742397 0.077438
0.346129 0.743096 0.077865
0.377270 0.743810 0.078301
0.408941 0.744539 0.078744
0.441035 0.745278 0.079195
0.473446 0.746027 0.079650
0.506068 0.746782 0.080109
0.538796 0.747542 0.080570
0.571524 0.748303 0.081031
0.604146 0.749064 0.081492
0.636555 0.749821 0.081950
0.668647 0.750573 0.082404
0.700315 0.751316 0.082853
0.731454 0.752049 0.083294
0.761957 0.752768 0.083727
0.791719 0.753471 0.084150
0.819424 0.754126 0.084544
0.844098 0.754711 0.084896
0.866092 0.755234 0.085209
0.885699 0.755700 0.085489
0.903163 0.756116 0.085738
0.918689 0.756486 0.085959
0.932446 0.756814 0.086156
0.944576 0.757104 0.086329
0.090278 0.768298 0.075648
0.110305 0.768753 0.075926
0.131919 0.769243 0.076227
0.155016 0.769769 0.076549
0.179489 0.770327 0.076891
0.205232 0.770914 0.077250
0.232139 0.771530 0.077626
0.260105 0.772171 0.078018
0.289024 0.772835 0.078423
0.318789 0.773519 0.078840
0.349294 0.774223 0.079268
0.380435 0.774943 0.079706
0.412105 0.775676 0.080151
0.444198 0.776421 0.080603
0.476608 0.777175 0.081060
0.509230 0.777936 0.081521
0.541957 0.778701 0.081983
0.574684 0.779467 0.082446
0.607304 0.780233 0.082909
0.639713 0.780996 0.083368
0.671804 0.781752 0.083824
0.703471 0.782501 0.084274
0.734609 0.783238 0.084717
0.765111 0.783962 0.085152
0.794872 0.784670 0.085576
0.822577 0.785330 0.085972
0.847250 0.785920 0.086324
0.869244 0.786445 0.086639
0.888850 0.786915 0.086919
0.906314 0.787334 0.087170
0.921839 0.787706 0.087392
0.935595 0.788037 0.087589
0.947725 0.788329 0.087763
0.093229 0.797251 0.076947
0.113256 0.797708 0.077226
0.134870 0.798202 0.077528
0.157966 0.798731 0.077852
0.182438 0.799292 0.078194
0.208180 0.799884 0.078555
0.235087 0.800503 0.078932
0.263052 0.801148 0.079325
0.291970 0.801817 0.079731
0.321734 0.802506 0.080150
0.352239 0.803214 0.080580
0.383379 0.803939 0.081019
0.415048 0.804677 0.081466
0.447140 0.805427 0.081919
0.479549 0.806186 0.082378
0.512170 0.806951 0.082840
0.544897 0.807721 0.083304
0.577623 0.808493 0.083768
0.610242 0.809263 0.084232
0.642650 0.810031 0.084693
0.674740 0.810792 0.085150
0.706407 0.811546 0.085602
0.737544 0.812288 0.086046
0.768045 0.813017 0.086482
0.797806 0.813729 0.086908
0.825510 0.814393 0.087305
0.850182 0.814986 0.087659
0.872175 0.815515 0.087974
0.891781 0.815988 0.088256
0.909244 0.816409 0.088507
0.924769 0.816784 0.088730
0.938525 0.817117 0.088928
0.950654 0.817410 0.089102
0.095856 0.823047 0.078107
0.115882 0.823507 0.078388
0.137495 0.824004 0.078691
0.160591 0.824536 0.079015
0.185062 0.825100 0.079358
0.210804 0.825695 0.079720
0.237710 0.826318 0.080099
0.265675 0.826967 0.080493
0.294592 0.827640 0.080900
0.324355 0.828333 0.081320
0.354860 0.829045 0.081751
0.385999 0.829774 0.082191
0.417667 0.830516 0.082640
0.449758 0.831270 0.083094
0.482167 0.832034 0.083554
0.514787 0.832804 0.084018
0.547513 0.833578 0.084483
0.580238 0.834354 0.084949
0.612857 0.835129 0.085414
0.645264 0.835901 0.085877
0.677354 0.836667 0.086335
0.709019 0.837424 0.086788
0.740155 0.838171 0.087234
0.770656 0.838903 0.087671
0.800416 0.839620 0.088098
0.828119 0.840288 0.088496
0.852791 0.840884 0.088851
