LUTs/BRX_Masterclass_v2.cube
TITLE "BRX Masterclass v2 Correct+Grade"
LUT_3D_SIZE 9
DOMAIN_MIN 0.0 0.0 0.0
DOMAIN_MAX 1.0 1.0 1.0
0.000000 0.000000 0.000000
0.016070 0.000000 0.000000
0.133416 0.000000 0.000000
0.279530 0.000000 0.000000
0.444251 0.000000 0.000000
0.618162 0.000000 0.000000
0.791122 0.000000 0.000000
0.944135 0.000000 0.000000
1.000000 0.000000 0.000000
0.000000 0.013145 0.000000
0.015610 0.013011 0.000000
0.132967 0.011363 0.000000
0.279094 0.009311 0.000000
0.443831 0.006997 0.000000
0.617758 0.004555 0.000000
0.790735 0.002126 0.000000
0.943763 0.000000 0.000000
1.000000 0.000000 0.000000
0.015616 0.114354 0.012222
0.026794 0.115775 0.010069
0.129436 0.120338 0.000000
0.275677 0.118285 0.000000
0.440543 0.115970 0.000000
0.614606 0.113526 0.000000
0.787718 0.111097 0.000000
0.940866 0.108947 0.000000
1.000000 0.107850 0.000000
0.059310 0.231141 0.051652
0.070928 0.232124 0.052562
0.145106 0.245248 0.031682
0.271834 0.254161 0.000000
0.436860 0.251845 0.000000
0.611093 0.249400 0.000000
0.784374 0.246968 0.000000
0.937670 0.244818 0.000000
1.000000 0.243719 0.000000
0.095135 0.368638 0.081838
0.106765 0.369622 0.082737
0.191688 0.376805 0.089284
0.288736 0.392228 0.058829
0.433258 0.405328 0.000000
0.607683 0.402881 0.000000
0.781153 0.400448 0.000000
0.934618 0.398296 0.000000
1.000000 0.397197 0.000000
0.133563 0.514426 0.113405
0.145206 0.515411 0.114291
0.230224 0.522600 0.120747
0.336083 0.531551 0.128756
0.448084 0.549284 0.083636
0.603608 0.565585 0.000000
0.775889 0.563150 0.000000
0.928302 0.560997 0.000000
1.000000 0.559896 0.000000
0.171795 0.660456 0.145143
0.183322 0.661442 0.146120
0.267490 0.668636 0.153239
0.372292 0.677593 0.162075
0.490438 0.687690 0.171998
0.609043 0.708369 0.101224
0.769194 0.726087 0.000000
0.921785 0.723932 0.000000
0.999738 0.722831 0.000000
0.203786 0.794704 0.176768
0.215324 0.795690 0.177734
0.299580 0.802889 0.184769
0.404490 0.811852 0.193499
0.522758 0.821956 0.203304
0.647623 0.832622 0.213611
0.768207 0.857571 0.092327
0.916378 0.873691 0.000000
0.994415 0.872589 0.000000
0.224520 0.880867 0.196865
0.236066 0.881854 0.197823
0.320378 0.889056 0.204804
0.425357 0.898023 0.213467
0.543704 0.908131 0.223196
0.668652 0.918801 0.233423
0.792915 0.929412 0.243550
0.910269 0.961009 0.010593
0.991295 0.968691 0.000000
0.000000 0.000000 0.010614
0.016034 0.000000 0.010336
0.133381 0.000000 0.008291
0.279496 0.000000 0.005700
0.444218 0.000000 0.002724
0.618130 0.000000 0.000000
0.791091 0.000000 0.000000
0.944106 0.000000 0.000000
1.000000 0.000000 0.000000
0.000000 0.013169 0.009813
0.015574 0.012961 0.009534
0.132932 0.011312 0.007475
0.279061 0.009260 0.004870
0.443798 0.006947 0.001876
0.617727 0.004504 0.000000
0.790705 0.002076 0.000000
0.943734 0.000000 0.000000
1.000000 0.000000 0.000000
0.014153 0.115088 0.019282
0.026905 0.115870 0.018817
0.129404 0.120288 0.000582
0.275646 0.118234 0.000000
0.440513 0.115919 0.000000
0.614578 0.113476 0.000000
0.787691 0.111046 0.000000
0.940840 0.108897 0.000000
1.000000 0.107799 0.000000
0.059549 0.231361 0.058795
0.071167 0.232344 0.059705
0.145250 0.245373 0.040039
0.271807 0.254110 0.000000
0.436834 0.251794 0.000000
0.611069 0.249349 0.000000
0.784350 0.246918 0.000000
0.937648 0.244767 0.000000
1.000000 0.243669 0.000000
0.095376 0.368858 0.088978
0.107006 0.369841 0.089877
0.191930 0.377025 0.096424
0.288898 0.392369 0.066984
0.433236 0.405277 0.000000
0.607662 0.402831 0.000000
0.781134 0.400398 0.000000
0.934600 0.398245 0.000000
1.000000 0.397146 0.000000
0.133807 0.514646 0.120543
0.145450 0.515631 0.121428
0.230468 0.522820 0.127883
0.336328 0.531771 0.135892
0.448251 0.549428 0.091757
0.603563 0.565534 0.000000
0.775845 0.563100 0.000000
0.928259 0.560946 0.000000
1.000000 0.559846 0.000000
0.172013 0.660676 0.152301
0.183540 0.661662 0.153277
0.267709 0.668856 0.160396
0.372511 0.677813 0.169231
0.490658 0.687910 0.179153
0.609175 0.708502 0.109499
0.769153 0.726036 0.000000
0.921746 0.723881 0.000000
0.999699 0.722780 0.000000
0.204006 0.794924 0.183923
0.215545 0.795910 0.184888
0.299801 0.803110 0.191923
0.404712 0.812073 0.200653
0.522981 0.822176 0.210457
0.647847 0.832842 0.220763
0.768316 0.857677 0.100956
0.916343 0.873640 0.000000
0.994381 0.872538 0.000000
0.224742 0.881088 0.204019
0.236289 0.882074 0.204976
0.320601 0.889276 0.211957
0.425581 0.898243 0.220619
0.543929 0.908351 0.230347
0.668877 0.919022 0.240574
0.793141 0.929632 0.250700
0.910311 0.961040 0.020164
0.991262 0.968641 0.000000
0.000000 0.000000 0.118503
0.015671 0.000000 0.118223
0.133027 0.000000 0.116168
0.279152 0.000000 0.113566
0.443887 0.000000 0.110575
0.617812 0.000000 0.107353
0.790786 0.000000 0.104081
0.943812 0.000000 0.101131
1.000000 0.000000 0.099604
0.000000 0.012674 0.117698
0.015215 0.012448 0.117417
0.132581 0.010800 0.115349
0.278721 0.008747 0.112732
0.443471 0.006434 0.109724
0.617413 0.003991 0.106483
0.790403 0.001563 0.103193
0.943444 0.000000 0.100228
1.000000 0.000000 0.098693
0.000000 0.121215 0.110597
0.012986 0.121043 0.110356
0.129081 0.119775 0.108424
0.275335 0.117721 0.105681
0.440214 0.115406 0.102531
0.614292 0.112963 0.099140
0.787418 0.110533 0.095702
0.940578 0.108383 0.092604
1.000000 0.107285 0.091002
0.043167 0.239977 0.123541
0.055992 0.240634 0.124130
0.146713 0.246646 0.124998
0.271531 0.253597 0.096429
0.436571 0.251281 0.093102
0.610818 0.248835 0.089525
0.784112 0.246404 0.085901
0.937422 0.244253 0.082639
1.000000 0.243155 0.080953
0.097829 0.371092 0.161555
0.109460 0.372075 0.162453
0.194389 0.379260 0.168994
0.290545 0.393802 0.149901
0.433013 0.404763 0.081838
0.607451 0.402317 0.078049
0.780936 0.399884 0.074216
0.934414 0.397731 0.070769
1.000000 0.396632 0.069065
0.136289 0.516882 0.193091
0.147933 0.517867 0.193976
0.232957 0.525056 0.200425
0.338825 0.534007 0.208426
0.449925 0.550888 0.174358
0.603101 0.565020 0.066314
0.775396 0.562585 0.063371
0.927822 0.560431 0.060713
1.000000 0.559331 0.059334
0.174231 0.662914 0.225056
0.185759 0.663899 0.226031
0.269934 0.671094 0.233144
0.374743 0.680051 0.241972
0.492899 0.690148 0.251886
0.610513 0.709858 0.193654
0.768747 0.725522 0.053192
0.921351 0.723366 0.050337
0.999310 0.722265 0.048858
0.206251 0.797163 0.256652
0.217791 0.798149 0.257616
0.302053 0.805349 0.264645
0.406971 0.814312 0.273368
0.525249 0.824416 0.283163
0.650124 0.835083 0.293461
0.769419 0.858747 0.188720
0.915988 0.873125 0.040155
0.994031 0.872023 0.038584
0.227005 0.883327 0.276730
0.238552 0.884314 0.277687
0.322870 0.891516 0.284661
0.427857 0.900484 0.293317
0.546214 0.910592 0.303036
0.671172 0.921263 0.313254
0.795444 0.931874 0.323372
0.910741 0.961350 0.117507
0.990938 0.968125 0.031666
0.000000 0.000000 0.253375
0.015221 0.000000 0.253094
0.132587 0.000000 0.251026
0.278726 0.000000 0.248409
0.443476 0.000000 0.245402
0.617418 0.000000 0.242161
0.790408 0.000000 0.238872
0.943449 0.000000 0.235906
1.000000 0.000000 0.234371
0.000000 0.012033 0.252565
0.014769 0.011807 0.252283
0.132146 0.010159 0.250203
0.278299 0.008106 0.247570
0.443065 0.005792 0.244546
0.617023 0.003350 0.241287
0.790030 0.000921 0.237979
0.943085 0.000000 0.234998
1.000000 0.000000 0.233455
0.000000 0.121009 0.245715
0.011213 0.120783 0.245419
0.128682 0.119133 0.243238
0.274949 0.117080 0.240480
0.439844 0.114765 0.237313
0.613938 0.112321 0.233905
0.787080 0.109891 0.230448
0.940255 0.107741 0.227335
1.000000 0.106643 0.225725
0.000000 0.255211 0.235526
0.012881 0.255081 0.235310
0.127834 0.254139 0.233728
0.271190 0.252955 0.231179
0.436245 0.250639 0.227836
0.610509 0.248193 0.224240
0.783819 0.245762 0.220598
0.937143 0.243611 0.217321
1.000000 0.242512 0.215627
0.085300 0.378885 0.248673
0.097577 0.379694 0.249409
0.187151 0.385616 0.254787
0.292601 0.395590 0.253618
0.432737 0.404121 0.216516
0.607192 0.401674 0.212709
0.780693 0.399241 0.208858
0.934185 0.397088 0.205395
1.000000 0.395989 0.203978
0.139394 0.519677 0.283784
0.151039 0.520662 0.284668
0.236071 0.527851 0.291110
0.341948 0.536803 0.299102
0.451681 0.552708 0.277971
0.602528 0.564377 0.201210
0.774839 0.561942 0.198249
0.927279 0.559788 0.195574
1.000000 0.558688 0.194188
0.177006 0.665711 0.316007
0.188535 0.666696 0.316982
0.272717 0.673891 0.324087
0.377536 0.682849 0.332906
0.495703 0.692947 0.342809
0.612180 0.711545 0.298970
0.768243 0.724878 0.188011
0.920861 0.722722 0.185140
0.998828 0.721621 0.183654
0.209060 0.799962 0.347571
0.220601 0.800948 0.348534
0.304871 0.808148 0.355555
0.409798 0.817112 0.364269
0.528087 0.827217 0.374054
0.652973 0.837884 0.384341
0.770790 0.860076 0.298572
0.915547 0.872480 0.174904
0.993597 0.871379 0.173326
0.229835 0.886127 0.367628
0.241384 0.887114 0.368584
0.325709 0.894317 0.375551
0.430706 0.903285 0.384197
0.549073 0.913394 0.393906
0.674042 0.924066 0.404113
0.798326 0.934677 0.414220
0.911269 0.961726 0.239350
0.990535 0.967481 0.166372
0.000000 0.000000 0.406190
0.014716 0.000000 0.405907
0.132095 0.000000 0.403826
0.278249 0.000000 0.401192
0.443017 0.000000 0.398165
0.616977 0.000000 0.394904
0.789986 0.000000 0.391594
0.943043 0.000000 0.388611
1.000000 0.000000 0.387067
0.000000 0.011307 0.405375
0.014268 0.011081 0.405091
0.131659 0.009432 0.402997
0.277827 0.007380 0.400347
0.442610 0.005066 0.397304
0.616587 0.002623 0.394024
0.789612 0.000194 0.390697
0.942683 0.000000 0.387697
1.000000 0.000000 0.386145
0.000000 0.120282 0.398481
0.010753 0.120056 0.398183
0.128235 0.118407 0.395988
0.274518 0.116353 0.393212
0.439430 0.114038 0.390027
0.613542 0.111594 0.386598
0.786703 0.109164 0.383121
0.939893 0.107014 0.379990
1.000000 0.105916 0.378371
0.000000 0.256159 0.389425
0.006787 0.255933 0.389109
0.124383 0.254283 0.386788
0.270809 0.252228 0.383856
0.435881 0.249911 0.380493
0.610163 0.247466 0.376878
0.783492 0.245034 0.373216
0.936832 0.242883 0.369920
1.000000 0.241784 0.368217
0.001442 0.405572 0.375645
0.017035 0.405488 0.375457
0.130823 0.404896 0.374092
0.272323 0.404208 0.372404
0.432430 0.403393 0.369111
0.606904 0.400946 0.365284
0.780423 0.398513 0.361412
0.933679 0.396360 0.358134
1.000000 0.395261 0.356838
0.136031 0.524979 0.385674
0.147929 0.525893 0.386512
0.234716 0.532595 0.392644
0.342537 0.541002 0.400329
0.453664 0.554761 0.395489
0.601884 0.563648 0.354051
0.774213 0.561213 0.351070
0.926669 0.559059 0.348378
1.000000 0.557959 0.346982
0.180154 0.668880 0.419059
0.191684 0.669866 0.420033
0.275875 0.677061 0.427130
0.380705 0.686020 0.435938
0.498883 0.696118 0.445830
0.614060 0.713444 0.418450
0.767677 0.724149 0.340765
0.920311 0.721993 0.337877
0.998287 0.720892 0.336382
0.212247 0.803134 0.450585
0.223789 0.804120 0.451547
0.308067 0.811320 0.458560
0.413005 0.820285 0.467264
0.531306 0.830390 0.477037
0.656205 0.841058 0.487312
0.772334 0.861566 0.423223
0.915052 0.871750 0.327580
0.993111 0.870649 0.325993
0.233046 0.889300 0.470619
0.244596 0.890287 0.471573
0.328930 0.897490 0.478532
0.433938 0.906459 0.487168
0.552317 0.916569 0.496866
0.677299 0.927241 0.507060
0.801595 0.937854 0.517155
0.911857 0.962136 0.377612
0.990085 0.966750 0.319000
0.000000 0.000000 0.569134
0.014183 0.000000 0.568849
0.131575 0.000000 0.566753
0.277747 0.000000 0.564101
0.442533 0.000000 0.561053
0.616513 0.000000 0.557771
0.789541 0.000000 0.554439
0.942615 0.000000 0.551437
1.000000 0.000000 0.549883
0.000000 0.010533 0.568313
0.013741 0.010307 0.568027
0.131145 0.008658 0.565918
0.277330 0.006605 0.563251
0.442131 0.004291 0.560186
0.616128 0.001848 0.556885
0.789172 0.000000 0.553536
0.942261 0.000000 0.550518
1.000000 0.000000 0.548956
0.000000 0.119507 0.561371
0.010269 0.119281 0.561071
0.127764 0.117632 0.558862
0.274063 0.115578 0.556068
0.438994 0.113262 0.552862
0.613126 0.110818 0.549411
0.786306 0.108388 0.545913
0.939514 0.106238 0.542763
1.000000 0.105140 0.541134
0.000000 0.255384 0.552256
0.006357 0.255158 0.551938
0.123966 0.253507 0.549603
0.270408 0.251452 0.546652
0.435499 0.249135 0.543269
0.609801 0.246690 0.539632
0.783150 0.244258 0.535948
0.936507 0.242107 0.532634
1.000000 0.241008 0.530921
0.000000 0.408870 0.541345
0.002495 0.408643 0.541008
0.120234 0.406992 0.538530
0.266837 0.404935 0.535403
0.432109 0.402617 0.531820
0.606603 0.400169 0.527971
0.780141 0.397736 0.524078
0.932971 0.395583 0.521135
1.000000 0.394484 0.519830
0.010799 0.563852 0.523455
0.026237 0.563815 0.523296
0.138873 0.563571 0.522148
0.278875 0.563332 0.520748
0.435091 0.563160 0.520224
0.601203 0.562871 0.517023
0.773552 0.560436 0.514020
0.926025 0.558282 0.511309
1.000000 0.557181 0.509904
0.183515 0.672260 0.528941
0.195046 0.673245 0.529914
0.279247 0.680442 0.537002
0.384088 0.689401 0.545799
0.502279 0.699500 0.555679
0.616055 0.715456 0.546035
0.767080 0.723371 0.503645
0.919731 0.721215 0.500737
0.997715 0.720114 0.499232
0.215649 0.806516 0.560428
0.227192 0.807502 0.561389
0.311479 0.814703 0.568393
0.416429 0.823668 0.577085
0.534742 0.833774 0.586846
0.659655 0.844443 0.597108
0.773967 0.863138 0.556359
0.914531 0.870972 0.490376
0.992599 0.869870 0.488778
0.236475 0.892684 0.580436
0.248025 0.893671 0.581390
0.332369 0.900875 0.588340
0.437388 0.909844 0.596964
0.555780 0.919954 0.606650
0.680775 0.930627 0.616831
0.805085 0.941241 0.626912
0.912470 0.962554 0.525285
0.989610 0.965971 0.481744
0.000000 0.000000 0.733876
0.013651 0.000000 0.733589
0.131057 0.000000 0.731478
0.277245 0.000000 0.728807
0.442050 0.000000 0.725739
0.616049 0.000000 0.722435
0.789098 0.000000 0.719082
0.942189 0.000000 0.716060
1.000000 0.000000 0.714496
0.000000 0.009749 0.733049
0.013214 0.009524 0.732761
0.130631 0.007875 0.730638
0.276833 0.005822 0.727951
0.441654 0.003507 0.724866
0.615670 0.001064 0.721543
0.788734 0.000000 0.718172
0.941841 0.000000 0.715135
1.000000 0.000000 0.713563
0.000000 0.118724 0.726059
0.009786 0.118498 0.725757
0.127294 0.116848 0.723533
0.273610 0.114794 0.720721
0.438560 0.112479 0.717494
0.612712 0.110034 0.714021
0.785912 0.107604 0.710501
0.939137 0.105454 0.707332
1.000000 0.104355 0.705693
0.000000 0.254600 0.716884
0.005928 0.254374 0.716564
0.123551 0.252723 0.714214
0.270010 0.250668 0.711245
0.435120 0.248351 0.707841
0.609441 0.245905 0.704182
0.782810 0.243473 0.700477
0.936184 0.241322 0.697143
1.000000 0.240223 0.695420
0.000000 0.408085 0.705906
0.002127 0.407859 0.705567
0.119880 0.406207 0.703074
0.266499 0.404150 0.699928
0.431791 0.401832 0.696324
0.606304 0.399384 0.692454
0.779863 0.396951 0.688539
0.932261 0.394798 0.685936
1.000000 0.393698 0.684621
0.000000 0.570793 0.693556
0.000000 0.570567 0.693197
0.116633 0.568913 0.690553
0.263045 0.566855 0.687521
0.427204 0.564535 0.684767
0.600520 0.562086 0.681793
0.772889 0.559650 0.678769
0.925380 0.557496 0.676038
1.000000 0.556395 0.674623
0.021703 0.721403 0.673580
0.036881 0.721406 0.673548
0.147596 0.721460 0.673333
0.285143 0.721611 0.673114
0.439761 0.721900 0.672943
0.602450 0.722353 0.672861
0.766482 0.722584 0.668322
0.919151 0.720428 0.665395
0.997144 0.719327 0.663880
0.215403 0.811030 0.671511
0.227156 0.811956 0.672451
0.312834 0.818756 0.679353
0.419152 0.827319 0.688032
0.538221 0.837196 0.697868
0.663148 0.847865 0.708116
0.775604 0.864710 0.691201
0.914010 0.870185 0.654967
0.992087 0.869083 0.653360
0.239945 0.896105 0.691466
0.251497 0.897092 0.692418
0.335850 0.904297 0.699359
0.440880 0.913267 0.707973
0.559285 0.923378 0.717645
0.684294 0.934051 0.727813
0.808618 0.944665 0.737881
0.913075 0.962956 0.674853
0.989137 0.965184 0.646284
0.000000 0.000000 0.891011
0.013150 0.000000 0.890722
0.130568 0.000000 0.888598
0.276772 0.000000 0.885909
0.441595 0.000000 0.882821
0.615614 0.000000 0.879496
0.788681 0.000000 0.876122
0.941789 0.000000 0.873082
1.000000 0.000000 0.871509
0.000000 0.009002 0.890179
0.012718 0.008777 0.889889
0.130148 0.007127 0.887751
0.276365 0.005074 0.885048
0.441204 0.002760 0.881943
0.615239 0.000317 0.878599
0.788322 0.000000 0.875207
0.941445 0.000000 0.872151
1.000000 0.000000 0.870570
0.000000 0.117976 0.883143
0.009331 0.117750 0.882839
0.126852 0.116100 0.880601
0.273184 0.114046 0.877771
0.438152 0.111731 0.874524
0.612323 0.109286 0.871031
0.785541 0.106856 0.867490
0.938784 0.104705 0.864303
1.000000 0.103607 0.862654
0.000000 0.253852 0.873911
0.005525 0.253626 0.873590
0.123161 0.251975 0.871225
0.269635 0.249920 0.868239
0.434763 0.247603 0.864815
0.609104 0.245157 0.861135
0.782491 0.242725 0.857409
0.935883 0.240573 0.854057
1.000000 0.239474 0.852325
0.000000 0.407337 0.862868
0.001783 0.407111 0.862527
0.119548 0.405458 0.860021
0.266184 0.403402 0.856857
0.431493 0.401083 0.853233
0.606025 0.398635 0.849342
0.779260 0.396202 0.845680
0.931590 0.394049 0.843127
1.000000 0.392949 0.841803
0.000000 0.570044 0.850450
0.000000 0.569818 0.850089
0.116364 0.568164 0.847431
0.262364 0.566106 0.844724
0.426540 0.563786 0.841950
0.599875 0.561336 0.838955
0.772263 0.558901 0.835910
0.924770 0.556746 0.833161
1.000000 0.555645 0.831737
0.000000 0.732986 0.839795
0.000000 0.732759 0.839516
0.109624 0.731105 0.837464
0.255424 0.729045 0.834865
0.419792 0.726723 0.831879
0.593330 0.724272 0.828662
0.765918 0.721834 0.825395
0.918603 0.719678 0.822450
0.996605 0.718577 0.820926
0.027659 0.866946 0.818373
0.042834 0.866955 0.818330
0.153498 0.867056 0.818043
0.290922 0.867280 0.817753
0.445324 0.867674 0.817524
0.607695 0.868262 0.817408
0.768475 0.869035 0.817434
0.913520 0.869434 0.811960
0.991605 0.868332 0.810343
0.167190 0.921240 0.804718
0.180161 0.921842 0.805305
0.274715 0.926280 0.809631
0.392046 0.931913 0.815107
0.523749 0.938415 0.821411
0.662101 0.945463 0.828229
0.798940 0.952674 0.835189
0.913639 0.963319 0.817769
0.988691 0.964433 0.803227
0.000000 0.000000 1.000000
0.012790 0.000000 1.000000
0.130218 0.000000 1.000000
0.276433 0.000000 0.999609
0.441269 0.000000 0.996507
0.615302 0.000000 0.993166
0.788382 0.000000 0.989778
0.941503 0.000000 0.986724
1.000000 0.000000 0.985144
0.000000 0.008462 1.000000
0.012362 0.008236 1.000000
0.129801 0.006587 1.000000
0.276030 0.004533 0.998744
0.440882 0.002219 0.995624
0.614931 0.000000 0.992266
0.788028 0.000000 0.988859
0.941163 0.000000 0.985789
1.000000 0.000000 0.984201
0.000000 0.117435 0.996831
0.009005 0.117209 0.996525
0.126536 0.115559 0.994277
0.272879 0.113505 0.991434
0.437860 0.111189 0.988173
0.612045 0.108745 0.984664
0.785277 0.106314 0.981109
0.938531 0.104164 0.977908
1.000000 0.103065 0.976253
0.000000 0.253311 0.987557
0.005237 0.253085 0.987234
0.122882 0.251434 0.984860
0.269368 0.249378 0.981860
0.434509 0.247061 0.978422
0.608864 0.244615 0.974727
0.782264 0.242183 0.970986
0.935668 0.240031 0.967621
1.000000 0.238932 0.965881
0.000000 0.406795 0.976467
0.001537 0.406569 0.976125
0.119312 0.404917 0.973608
0.265959 0.402860 0.970432
0.431281 0.400541 0.966794
0.605827 0.398093 0.962888
0.778766 0.395659 0.959459
0.931108 0.393506 0.956892
1.000000 0.392406 0.955562
0.000000 0.569502 0.964000
0.000000 0.569276 0.963637
0.116172 0.567622 0.960969
0.261874 0.565564 0.958498
0.426063 0.563243 0.955709
0.599412 0.560794 0.952699
0.771813 0.558358 0.949639
0.924333 0.556203 0.946877
1.000000 0.555103 0.945446
0.000000 0.732443 0.953543
0.000000 0.732217 0.953263
0.109167 0.730562 0.951200
0.254979 0.728502 0.948589
0.419360 0.726180 0.945589
0.592911 0.723729 0.942356
0.765513 0.721291 0.939075
0.918211 0.719135 0.936116
0.996218 0.718034 0.934585
0.000000 0.882208 0.944121
0.000000 0.881981 0.943822
0.103258 0.880325 0.941620
0.249226 0.878264 0.938837
0.413783 0.875940 0.935642
0.587520 0.873487 0.932204
0.760308 0.871048 0.928719
0.913168 0.868891 0.925581
0.991259 0.867788 0.923957
0.015673 0.964799 0.926501
0.031122 0.964737 0.926371
0.143773 0.964327 0.925455
0.283634 0.963925 0.924390
0.440731 0.963626 0.923302
0.605890 0.963499 0.922294
0.769383 0.963577 0.921448
0.913349 0.963826 0.920842
0.988372 0.963889 0.916812
