LUTs/BRX_Masterclass_v2.cube
TITLE "BRX Masterclass v2 Correct+Grade"
LUT_3D_SIZE 33
DOMAIN_MIN 0.0 0.0 0.0
DOMAIN_MAX 1.0 1.0 1.0
0.000000 0.000000 0.000000
0.000000 0.000000 0.000000
0.000000 0.000000 0.000000
0.000000 0.000000 0.000000
0.016070 0.000000 0.000000
0.041845 0.000000 0.000000
0.070274 0.000000 0.000000
0.100880 0.000000 0.000000
0.133416 0.000000 0.000000
0.167700 0.000000 0.000000
0.203576 0.000000 0.000000
0.240900 0.000000 0.000000
0.279530 0.000000 0.000000
0.319323 0.000000 0.000000
0.360138 0.000000 0.000000
0.401830 0.000000 0.000000
0.444251 0.000000 0.000000
0.487249 0.000000 0.000000
0.530673 0.000000 0.000000
0.574363 0.000000 0.000000
0.618162 0.000000 0.000000
0.661904 0.000000 0.000000
0.705425 0.000000 0.000000
0.748555 0.000000 0.000000
0.791122 0.000000 0.000000
0.832951 0.000000 0.000000
0.873839 0.000000 0.000000
0.911264 0.000000 0.000000
0.944135 0.000000 0.000000
0.973053 0.000000 0.000000
0.998505 0.000000 0.000000
1.000000 0.000000 0.000000
1.000000 0.000000 0.000000
0.000000 0.000000 0.000000
0.000000 0.000000 0.000000
0.000000 0.000000 0.000000
0.000000 0.000000 0.000000
0.016070 0.000000 0.000000
0.041845 0.000000 0.000000
0.070274 0.000000 0.000000
0.100880 0.000000 0.000000
0.133416 0.000000 0.000000
0.167700 0.000000 0.000000
0.203576 0.000000 0.000000
0.240900 0.000000 0.000000
0.279530 0.000000 0.000000
0.319323 0.000000 0.000000
0.360138 0.000000 0.000000
0.401830 0.000000 0.000000
0.444251 0.000000 0.000000
0.487249 0.000000 0.000000
0.530673 0.000000 0.000000
0.574363 0.000000 0.000000
0.618162 0.000000 0.000000
0.661904 0.000000 0.000000
0.705425 0.000000 0.000000
0.748555 0.000000 0.000000
0.791122 0.000000 0.000000
0.832951 0.000000 0.000000
0.873839 0.000000 0.000000
0.911264 0.000000 0.000000
0.944135 0.000000 0.000000
0.973053 0.000000 0.000000
0.998505 0.000000 0.000000
1.000000 0.000000 0.000000
1.000000 0.000000 0.000000
0.000000 0.000000 0.000000
0.000000 0.000000 0.000000
0.000000 0.000000 0.000000
0.000000 0.000000 0.000000
0.016070 0.000000 0.000000
0.041845 0.000000 0.000000
0.070274 0.000000 0.000000
0.100880 0.000000 0.000000
0.133416 0.000000 0.000000
0.167700 0.000000 0.000000
0.203576 0.000000 0.000000
0.240900 0.000000 0.000000
0.279530 0.000000 0.000000
0.319323 0.000000 0.000000
0.360138 0.000000 0.000000
0.401830 0.000000 0.000000
0.444251 0.000000 0.000000
0.487249 0.000000 0.000000
0.530673 0.000000 0.000000
0.574363 0.000000 0.000000
0.618162 0.000000 0.000000
0.661904 0.000000 0.000000
0.705425 0.000000 0.000000
0.748555 0.000000 0.000000
0.791122 0.000000 0.000000
0.832951 0.000000 0.000000
0.873839 0.000000 0.000000
0.911264 0.000000 0.000000
0.944135 0.000000 0.000000
0.973053 0.000000 0.000000
0.998505 0.000000 0.000000
1.000000 0.000000 0.000000
1.000000 0.000000 0.000000
0.000000 0.000000 0.000000
0.000000 0.000000 0.000000
0.000000 0.000000 0.000000
0.000000 0.000000 0.000000
0.016070 0.000000 0.000000
0.041845 0.000000 0.000000
0.070274 0.000000 0.000000
0.100880 0.000000 0.000000
0.133416 0.000000 0.000000
0.167700 0.000000 0.000000
0.203576 0.000000 0.000000
0.240900 0.000000 0.000000
0.279530 0.000000 0.000000
0.319323 0.000000 0.000000
0.360138 0.000000 0.000000
0.401830 0.000000 0.000000
0.444251 0.000000 0.000000
0.487249 0.000000 0.000000
0.530673 0.000000 0.000000
0.574363 0.000000 0.000000
0.618162 0.000000 0.000000
0.661904 0.000000 0.000000
0.705425 0.000000 0.000000
0.748555 0.000000 0.000000
0.791122 0.000000 0.000000
0.832951 0.000000 0.000000
0.873839 0.000000 0.000000
0.911264 0.000000 0.000000
0.944135 0.000000 0.000000
0.973053 0.000000 0.000000
0.998505 0.000000 0.000000
1.000000 0.000000 0.000000
1.000000 0.000000 0.000000
0.000000 0.013145 0.000000
0.000000 0.013145 0.000000
0.000000 0.013145 0.000000
0.000000 0.013145 0.000000
0.015610 0.013011 0.000000
0.041388 0.012649 0.000000
0.069819 0.012250 0.000000
0.100428 0.011820 0.000000
0.132967 0.011363 0.000000
0.167254 0.010881 0.000000
0.203134 0.010377 0.000000
0.240461 0.009853 0.000000
0.279094 0.009311 0.000000
0.318892 0.008752 0.000000
0.359711 0.008178 0.000000
0.401406 0.007593 0.000000
0.443831 0.006997 0.000000
0.486834 0.006393 0.000000
0.530261 0.005783 0.000000
0.573956 0.005170 0.000000
0.617758 0.004555 0.000000
0.661505 0.003941 0.000000
0.705030 0.003329 0.000000
0.748164 0.002724 0.000000
0.790735 0.002126 0.000000
0.832568 0.001539 0.000000
0.873461 0.000965 0.000000
0.910888 0.000439 0.000000
0.943763 0.000000 0.000000
0.972684 0.000000 0.000000
0.998138 0.000000 0.000000
1.000000 0.000000 0.000000
1.000000 0.000000 0.000000
0.000539 0.036398 0.000000
0.000539 0.036398 0.000000
0.000539 0.036398 0.000000
0.000539 0.036398 0.000000
0.015365 0.036607 0.000000
0.040572 0.036536 0.000000
0.069009 0.036137 0.000000
0.099623 0.035707 0.000000
0.132167 0.035250 0.000000
0.166460 0.034768 0.000000
0.202346 0.034264 0.000000
0.239680 0.033740 0.000000
0.278320 0.033197 0.000000
0.318124 0.032638 0.000000
0.358950 0.032065 0.000000
0.400653 0.031479 0.000000
0.443085 0.030884 0.000000
0.486095 0.030280 0.000000
0.529530 0.029670 0.000000
0.573232 0.029056 0.000000
0.617042 0.028441 0.000000
0.660796 0.027827 0.000000
0.704328 0.027216 0.000000
0.747470 0.026610 0.000000
0.790048 0.026012 0.000000
0.831888 0.025425 0.000000
0.872788 0.024851 0.000000
0.910222 0.024325 0.000000
0.943102 0.023864 0.000000
0.972028 0.023458 0.000000
0.997487 0.023100 0.000000
1.000000 0.022786 0.000000
1.000000 0.022766 0.000000
0.003159 0.061404 0.001460
0.003159 0.061404 0.001460
0.003159 0.061404 0.001460
0.003159 0.061404 0.001460
0.016852 0.061989 0.000164
0.040274 0.062534 0.000000
0.068129 0.062543 0.000000
0.098750 0.062112 0.000000
0.131300 0.061655 0.000000
0.165600 0.061174 0.000000
0.201492 0.060670 0.000000
0.238833 0.060145 0.000000
0.277480 0.059602 0.000000
0.317292 0.059043 0.000000
0.358126 0.058470 0.000000
0.399836 0.057884 0.000000
0.442276 0.057288 0.000000
0.485295 0.056684 0.000000
0.528738 0.056074 0.000000
0.572448 0.055461 0.000000
0.616267 0.054846 0.000000
0.660029 0.054231 0.000000
0.703570 0.053620 0.000000
0.746719 0.053014 0.000000
0.789305 0.052416 0.000000
0.831154 0.051829 0.000000
0.872061 0.051255 0.000000
0.909502 0.050729 0.000000
0.942389 0.050268 0.000000
0.971320 0.049862 0.000000
0.996783 0.049504 0.000000
1.000000 0.049190 0.000000
1.000000 0.049170 0.000000
0.008055 0.087519 0.005547
0.008055 0.087519 0.005547
0.008055 0.087519 0.005547
0.008055 0.087519 0.005547
0.020529 0.088509 0.003835
0.041995 0.089703 0.000694
0.067756 0.090457 0.000000
0.097829 0.090555 0.000000
0.130386 0.090097 0.000000
0.164692 0.089616 0.000000
0.200592 0.089112 0.000000
0.237941 0.088587 0.000000
0.276596 0.088044 0.000000
0.316415 0.087485 0.000000
0.357257 0.086912 0.000000
0.398977 0.086326 0.000000
0.441425 0.085730 0.000000
0.484453 0.085126 0.000000
0.527904 0.084516 0.000000
0.571624 0.083902 0.000000
0.615451 0.083287 0.000000
0.659223 0.082672 0.000000
0.702772 0.082061 0.000000
0.745930 0.081455 0.000000
0.788525 0.080857 0.000000
0.830382 0.080270 0.000000
0.871298 0.079696 0.000000
0.908747 0.079170 0.000000
0.941640 0.078708 0.000000
0.970577 0.078302 0.000000
0.996045 0.077945 0.000000
1.000000 0.077631 0.000000
1.000000 0.077611 0.000000
0.015616 0.114354 0.012222
0.015616 0.114354 0.012222
0.015616 0.114354 0.012222
0.015616 0.114354 0.012222
0.026794 0.115775 0.010069
0.046181 0.117659 0.006218
0.069650 0.119175 0.001404
0.097363 0.120146 0.000000
0.129436 0.120338 0.000000
0.163750 0.119856 0.000000
0.199658 0.119352 0.000000
0.237014 0.118827 0.000000
0.275677 0.118285 0.000000
0.315506 0.117725 0.000000
0.356357 0.117152 0.000000
0.398085 0.116566 0.000000
0.440543 0.115970 0.000000
0.483579 0.115366 0.000000
0.527041 0.114756 0.000000
0.570770 0.114142 0.000000
0.614606 0.113526 0.000000
0.658387 0.112912 0.000000
0.701946 0.112301 0.000000
0.745114 0.111695 0.000000
0.787718 0.111097 0.000000
0.829584 0.110509 0.000000
0.870508 0.109935 0.000000
0.907965 0.109409 0.000000
0.940866 0.108947 0.000000
0.969809 0.108541 0.000000
0.995283 0.108184 0.000000
1.000000 0.107869 0.000000
1.000000 0.107850 0.000000
0.026205 0.141598 0.021859
0.026205 0.141598 0.021859
0.026205 0.141598 0.021859
0.026205 0.141598 0.021859
0.036017 0.143473 0.019239
0.053214 0.146085 0.014640
0.074269 0.148402 0.008999
0.099384 0.150237 0.002260
0.128865 0.151437 0.000000
0.162781 0.151726 0.000000
0.198697 0.151222 0.000000
0.236062 0.150697 0.000000
0.274734 0.150154 0.000000
0.314572 0.149595 0.000000
0.355432 0.149021 0.000000
0.397170 0.148435 0.000000
0.439637 0.147839 0.000000
0.482684 0.147235 0.000000
0.526155 0.146625 0.000000
0.569894 0.146011 0.000000
0.613741 0.145395 0.000000
0.657532 0.144781 0.000000
0.701100 0.144169 0.000000
0.744278 0.143563 0.000000
0.786892 0.142965 0.000000
0.828767 0.142378 0.000000
0.869701 0.141803 0.000000
0.907167 0.141277 0.000000
0.940075 0.140816 0.000000
0.969025 0.140409 0.000000
0.994504 0.140052 0.000000
1.000000 0.139737 0.000000
1.000000 0.139718 0.000000
0.040162 0.168975 0.034809
0.040162 0.168975 0.034809
0.040162 0.168975 0.034809
0.040162 0.168975 0.034809
0.048544 0.171324 0.031700
0.063450 0.174698 0.026315
0.081979 0.177855 0.019808
0.104376 0.180594 0.012134
0.130968 0.182753 0.003218
0.162094 0.184192 0.000000
0.197719 0.184578 0.000000
0.235093 0.184053 0.000000
0.273775 0.183510 0.000000
0.313622 0.182951 0.000000
0.354492 0.182377 0.000000
0.396240 0.181791 0.000000
0.438717 0.181195 0.000000
0.481774 0.180591 0.000000
0.525256 0.179980 0.000000
0.569005 0.179366 0.000000
0.612862 0.178751 0.000000
0.656664 0.178136 0.000000
0.700243 0.177525 0.000000
0.743431 0.176918 0.000000
0.786055 0.176320 0.000000
0.827940 0.175733 0.000000
0.868884 0.175158 0.000000
0.906358 0.174632 0.000000
0.939274 0.174170 0.000000
0.968231 0.173764 0.000000
0.993717 0.173407 0.000000
1.000000 0.173092 0.000000
1.000000 0.173072 0.000000
0.050982 0.198950 0.044527
0.050982 0.198950 0.044527
0.050982 0.198950 0.044527
0.050982 0.198950 0.044527
0.062596 0.199933 0.045440
0.077215 0.203239 0.041573
0.093116 0.207270 0.034162
0.112685 0.210949 0.025515
0.136273 0.214108 0.015563
0.164235 0.216599 0.004228
0.196908 0.218285 0.000000
0.234115 0.218765 0.000000
0.272806 0.218222 0.000000
0.312663 0.217662 0.000000
0.353543 0.217088 0.000000
0.395301 0.216502 0.000000
0.437789 0.215906 0.000000
0.480857 0.215302 0.000000
0.524349 0.214691 0.000000
0.568109 0.214077 0.000000
0.611978 0.213461 0.000000
0.655790 0.212847 0.000000
0.699380 0.212235 0.000000
0.742578 0.211629 0.000000
0.785213 0.211031 0.000000
0.827109 0.210443 0.000000
0.868063 0.209868 0.000000
0.905547 0.209342 0.000000
0.938470 0.208880 0.000000
0.967435 0.208474 0.000000
0.992927 0.208116 0.000000
1.000000 0.207802 0.000000
1.000000 0.207782 0.000000
0.059310 0.231141 0.051652
0.059310 0.231141 0.051652
0.059310 0.231141 0.051652
0.059310 0.231141 0.051652
0.070928 0.232124 0.052562
0.089562 0.233701 0.054021
0.107986 0.236402 0.052367
0.124628 0.241054 0.042710
0.145106 0.245248 0.031682
0.169793 0.248828 0.019213
0.199041 0.251654 0.005232
0.233175 0.253594 0.000000
0.271834 0.254161 0.000000
0.311702 0.253601 0.000000
0.352592 0.253027 0.000000
0.394361 0.252441 0.000000
0.436860 0.251845 0.000000
0.479939 0.251240 0.000000
0.523442 0.250630 0.000000
0.567214 0.250015 0.000000
0.611093 0.249400 0.000000
0.654917 0.248785 0.000000
0.698518 0.248173 0.000000
0.741728 0.247567 0.000000
0.784374 0.246968 0.000000
0.826280 0.246380 0.000000
0.867245 0.245806 0.000000
0.904738 0.245280 0.000000
0.937670 0.244818 0.000000
0.966642 0.244411 0.000000
0.992141 0.244054 0.000000
1.000000 0.243739 0.000000
1.000000 0.243719 0.000000
0.067918 0.264320 0.058973
0.067918 0.264320 0.058973
0.067918 0.264320 0.058973
0.067918 0.264320 0.058973
0.079539 0.265304 0.059881
0.098177 0.266881 0.061335
0.118735 0.268620 0.062938
0.140481 0.270675 0.063990
0.157756 0.275935 0.051853
0.179069 0.280638 0.038213
0.204788 0.284638 0.023004
0.235253 0.287800 0.006166
0.270766 0.289998 0.000000
0.310745 0.290641 0.000000
0.351646 0.290067 0.000000
0.393426 0.289481 0.000000
0.435937 0.288884 0.000000
0.479027 0.288280 0.000000
0.522542 0.287669 0.000000
0.566325 0.287055 0.000000
0.610216 0.286439 0.000000
0.654051 0.285824 0.000000
0.697664 0.285212 0.000000
0.740885 0.284606 0.000000
0.783542 0.284007 0.000000
0.825460 0.283419 0.000000
0.866435 0.282844 0.000000
0.903939 0.282318 0.000000
0.936880 0.281856 0.000000
0.965859 0.281450 0.000000
0.991364 0.281092 0.000000
1.000000 0.280777 0.000000
1.000000 0.280757 0.000000
0.076777 0.298373 0.066463
0.076777 0.298373 0.066463
0.076777 0.298373 0.066463
0.076777 0.298373 0.066463
0.088401 0.299357 0.067367
0.107044 0.300934 0.068817
0.127607 0.302674 0.070415
0.149745 0.304547 0.072134
0.173278 0.306538 0.073959
0.192322 0.311802 0.061467
0.214421 0.317007 0.044996
0.241122 0.321422 0.026844
0.272742 0.324917 0.006964
0.309554 0.327374 0.000000
0.350711 0.328081 0.000000
0.392503 0.327494 0.000000
0.435025 0.326898 0.000000
0.478127 0.326293 0.000000
0.521654 0.325682 0.000000
0.565449 0.325068 0.000000
0.609352 0.324452 0.000000
0.653199 0.323837 0.000000
0.696823 0.323225 0.000000
0.740056 0.322618 0.000000
0.782725 0.322020 0.000000
0.824654 0.321432 0.000000
0.865640 0.320857 0.000000
0.903154 0.320331 0.000000
0.936104 0.319869 0.000000
0.965091 0.319462 0.000000
0.990604 0.319104 0.000000
1.000000 0.318790 0.000000
1.000000 0.318770 0.000000
0.085859 0.333185 0.074093
0.085859 0.333185 0.074093
0.085859 0.333185 0.074093
0.085859 0.333185 0.074093
0.097486 0.334169 0.074995
0.116134 0.335747 0.076440
0.136703 0.337487 0.078032
0.158846 0.339360 0.079745
0.182386 0.341351 0.081565
0.207190 0.343450 0.083481
0.228166 0.348546 0.071410
0.251022 0.354242 0.051912
0.278664 0.359062 0.030637
0.311380 0.362884 0.007556
0.349407 0.365599 0.000000
0.391596 0.366353 0.000000
0.434130 0.365756 0.000000
0.477244 0.365151 0.000000
0.520783 0.364540 0.000000
0.564590 0.363926 0.000000
0.608505 0.363310 0.000000
0.652365 0.362695 0.000000
0.696002 0.362083 0.000000
0.739246 0.361476 0.000000
0.781927 0.360877 0.000000
0.823868 0.360289 0.000000
0.864865 0.359714 0.000000
0.902390 0.359188 0.000000
0.935349 0.358726 0.000000
0.964344 0.358319 0.000000
0.989863 0.357961 0.000000
1.000000 0.357646 0.000000
1.000000 0.357626 0.000000
0.095135 0.368638 0.081838
0.095135 0.368638 0.081838
0.095135 0.368638 0.081838
0.095135 0.368638 0.081838
0.106765 0.369622 0.082737
0.125419 0.371200 0.084177
0.145992 0.372940 0.085764
0.168142 0.374814 0.087471
0.191688 0.376805 0.089284
0.216499 0.378904 0.091193
0.242462 0.381100 0.093189
0.265143 0.386059 0.081527
0.288736 0.392228 0.058829
0.317283 0.397439 0.034279
0.351037 0.401579 0.007868
0.390193 0.404546 0.000000
0.433258 0.405328 0.000000
0.476384 0.404723 0.000000
0.519935 0.404112 0.000000
0.563755 0.403497 0.000000
0.607683 0.402881 0.000000
0.651554 0.402266 0.000000
0.695203 0.401654 0.000000
0.738461 0.401047 0.000000
0.781153 0.400448 0.000000
0.823106 0.399860 0.000000
0.864115 0.399285 0.000000
0.901650 0.398758 0.000000
0.934618 0.398296 0.000000
0.963622 0.397889 0.000000
0.989148 0.397531 0.000000
1.000000 0.397217 0.000000
1.000000 0.397197 0.000000
0.104575 0.404612 0.089670
0.104575 0.404612 0.089670
0.104575 0.404612 0.089670
0.104575 0.404612 0.089670
0.116208 0.405596 0.090565
0.134867 0.407174 0.092000
0.155446 0.408915 0.093581
0.177602 0.410789 0.095283
0.201154 0.412781 0.097090
0.225972 0.414880 0.098992
0.251943 0.417076 0.100981
0.278961 0.419361 0.103048
0.303111 0.424226 0.091650
0.327430 0.430847 0.065607
0.356850 0.436432 0.037663
0.391582 0.440874 0.007828
0.431776 0.444087 0.000000
0.475551 0.444874 0.000000
0.519115 0.444263 0.000000
0.562948 0.443648 0.000000
0.606888 0.443032 0.000000
0.650772 0.442417 0.000000
0.694434 0.441804 0.000000
0.737703 0.441197 0.000000
0.780408 0.440599 0.000000
0.822373 0.440010 0.000000
0.863394 0.439435 0.000000
0.900928 0.438909 0.000000
0.933642 0.438446 0.000000
0.962421 0.438039 0.000000
0.987750 0.437681 0.000000
1.000000 0.437367 0.000000
1.000000 0.437347 0.000000
0.114148 0.440984 0.097560
0.114148 0.440984 0.097560
0.114148 0.440984 0.097560
0.114148 0.440984 0.097560
0.125784 0.441969 0.098452
0.144448 0.443547 0.099882
0.165033 0.445288 0.101458
0.187195 0.447163 0.103153
0.210754 0.449155 0.104954
0.235579 0.451255 0.106850
0.261557 0.453451 0.108832
0.288582 0.455737 0.110891
0.316553 0.458102 0.113021
0.341933 0.462934 0.101600
0.366974 0.469979 0.072102
0.397235 0.475914 0.040677
0.432883 0.480643 0.007363
0.474017 0.484089 0.000000
0.518327 0.484857 0.000000
0.562173 0.484243 0.000000
0.606125 0.483626 0.000000
0.650022 0.483011 0.000000
0.693697 0.482398 0.000000
0.736979 0.481791 0.000000
0.779508 0.481192 0.000000
0.821148 0.480604 0.000000
0.861853 0.480028 0.000000
0.899108 0.479502 0.000000
0.931832 0.479039 0.000000
0.960619 0.478633 0.000000
0.985956 0.478275 0.000000
1.000000 0.477960 0.000000
1.000000 0.477940 0.000000
0.123821 0.477632 0.105481
0.123821 0.477632 0.105481
0.123821 0.477632 0.105481
0.123821 0.477632 0.105481
0.135461 0.478616 0.106370
0.154130 0.480195 0.107795
0.174721 0.481936 0.109365
0.196889 0.483811 0.111054
0.220455 0.485804 0.112849
0.245287 0.487904 0.114738
0.271272 0.490101 0.116713
0.298305 0.492387 0.118765
0.326284 0.494753 0.120887
0.355106 0.497190 0.123071
0.381476 0.502063 0.111191
0.407235 0.509500 0.078162
0.438305 0.515758 0.043212
0.474802 0.520752 0.006402
0.516772 0.524419 0.000000
0.561433 0.525141 0.000000
0.605399 0.524524 0.000000
0.649009 0.523909 0.000000
0.692346 0.523296 0.000000
0.735294 0.522689 0.000000
0.777681 0.522090 0.000000
0.819334 0.521501 0.000000
0.860050 0.520926 0.000000
0.897317 0.520399 0.000000
0.930050 0.519937 0.000000
0.958846 0.519530 0.000000
0.984190 0.519172 0.000000
1.000000 0.518857 0.000000
1.000000 0.518837 0.000000
0.133563 0.514426 0.113405
0.133563 0.514426 0.113405
0.133563 0.514426 0.113405
0.133563 0.514426 0.113405
0.145206 0.515411 0.114291
0.163880 0.516990 0.115711
0.184477 0.518732 0.117276
0.206651 0.520607 0.118959
0.230224 0.522600 0.120747
0.255062 0.524700 0.122629
0.281055 0.526898 0.124597
0.308096 0.529184 0.126642
0.336083 0.531551 0.128756
0.364913 0.533988 0.130932
0.394483 0.536488 0.133161
0.421607 0.541492 0.120232
0.448084 0.549284 0.083636
0.479877 0.555832 0.045197
0.516801 0.561068 0.005199
0.559141 0.564938 0.000000
0.603608 0.565585 0.000000
0.647179 0.564969 0.000000
0.690529 0.564357 0.000000
0.733490 0.563749 0.000000
0.775889 0.563150 0.000000
0.817554 0.562562 0.000000
0.858283 0.561986 0.000000
0.895560 0.561459 0.000000
0.928302 0.560997 0.000000
0.957107 0.560590 0.000000
0.982459 0.560231 0.000000
1.000000 0.559916 0.000000
1.000000 0.559896 0.000000
0.143338 0.551239 0.121305
0.143338 0.551239 0.121305
0.143338 0.551239 0.121305
0.143338 0.551239 0.121305
0.154984 0.552224 0.122187
0.173664 0.553803 0.123602
0.194267 0.555545 0.125161
0.216447 0.557421 0.126838
0.240026 0.559414 0.128620
0.264872 0.561515 0.130495
0.290872 0.563713 0.132456
0.317921 0.566000 0.134493
0.345915 0.568367 0.136600
0.374754 0.570805 0.138768
0.404148 0.573305 0.141137
0.434026 0.575859 0.143671
0.461338 0.581095 0.129216
0.488183 0.589198 0.089338
0.520411 0.596003 0.047647
0.558029 0.601451 0.004258
0.600966 0.605506 0.000000
0.645391 0.606048 0.000000
0.688753 0.605435 0.000000
0.731726 0.604828 0.000000
0.774139 0.604228 0.000000
0.815816 0.603639 0.000000
0.856556 0.603064 0.000000
0.893845 0.602537 0.000000
0.926597 0.602074 0.000000
0.955410 0.601667 0.000000
0.980769 0.601309 0.000000
1.000000 0.600994 0.000000
1.000000 0.600974 0.000000
0.153112 0.587938 0.129151
0.153112 0.587938 0.129151
0.153112 0.587938 0.129151
0.153112 0.587938 0.129151
0.164761 0.588923 0.130030
0.183446 0.590503 0.131440
0.204055 0.592245 0.132994
0.226242 0.594121 0.134665
0.249827 0.596115 0.136440
0.274680 0.598216 0.138308
0.300611 0.600414 0.140323
0.327367 0.602702 0.142594
0.355058 0.605069 0.144942
0.383585 0.607507 0.147358
0.412843 0.610008 0.149834
0.442730 0.612563 0.152360
0.473139 0.615162 0.154928
0.500763 0.620742 0.137770
0.528312 0.629110 0.094387
0.561226 0.636131 0.049293
0.599450 0.641762 0.002635
0.642851 0.645978 0.000000
0.687025 0.646384 0.000000
0.730011 0.645777 0.000000
0.772436 0.645177 0.000000
0.814125 0.644588 0.000000
0.854877 0.644013 0.000000
0.892177 0.643486 0.000000
0.924938 0.643023 0.000000
0.953760 0.642616 0.000000
0.979126 0.642257 0.000000
1.000000 0.641942 0.000000
1.000000 0.641922 0.000000
0.162848 0.624389 0.136916
0.162848 0.624389 0.136916
0.162848 0.624389 0.136916
0.162848 0.624389 0.136916
0.174501 0.625374 0.137792
0.193191 0.626954 0.139197
0.213658 0.628697 0.140863
0.235604 0.630573 0.142725
0.258934 0.632567 0.144704
0.283518 0.634669 0.146786
0.309244 0.636868 0.148964
0.336007 0.639155 0.151227
0.363707 0.641523 0.153568
0.392241 0.643962 0.155976
0.421507 0.646463 0.158444
0.451403 0.649018 0.160963
0.481820 0.651618 0.163522
0.512652 0.654253 0.166114
0.540399 0.660298 0.145187
0.568642 0.668881 0.098396
0.602187 0.676076 0.050035
0.640919 0.681854 0.000279
0.684641 0.686207 0.000000
0.728348 0.686447 0.000000
0.770786 0.685848 0.000000
0.812487 0.685259 0.000000
0.853251 0.684683 0.000000
0.890561 0.684156 0.000000
0.923333 0.683693 0.000000
0.952163 0.683286 0.000000
0.977536 0.682927 0.000000
0.999850 0.682612 0.000000
1.000000 0.682592 0.000000
0.171795 0.660456 0.145143
0.171795 0.660456 0.145143
0.171795 0.660456 0.145143
0.171795 0.660456 0.145143
0.183322 0.661442 0.146120
0.201810 0.663022 0.147685
0.222201 0.664765 0.149411
0.244154 0.666641 0.151267
0.267490 0.668636 0.153239
0.292081 0.670738 0.155315
0.317814 0.672937 0.157486
0.344584 0.675225 0.159742
0.372292 0.677593 0.162075
0.400834 0.680032 0.164476
0.430108 0.682534 0.166936
0.460012 0.685090 0.169446
0.490438 0.687690 0.171998
0.521279 0.690325 0.174581
0.552424 0.692987 0.177188
0.580125 0.699625 0.151274
0.609043 0.708369 0.101224
0.643157 0.715692 0.049778
0.682288 0.721582 0.000000
0.726174 0.726044 0.000000
0.769194 0.726087 0.000000
0.810907 0.725498 0.000000
0.851683 0.724922 0.000000
0.889004 0.724395 0.000000
0.921785 0.723932 0.000000
0.950623 0.723525 0.000000
0.976004 0.723166 0.000000
0.998324 0.722851 0.000000
0.999738 0.722831 0.000000
0.180228 0.696001 0.153554
0.180228 0.696001 0.153554
0.180228 0.696001 0.153554
0.180228 0.696001 0.153554
0.191758 0.696986 0.154527
0.210251 0.698567 0.156088
0.230647 0.700310 0.157808
0.252606 0.702187 0.159659
0.275949 0.704182 0.161624
0.300546 0.706284 0.163694
0.326286 0.708484 0.165858
0.353064 0.710772 0.168107
0.380779 0.713140 0.170432
0.409329 0.715580 0.172826
0.438612 0.718082 0.175278
0.468523 0.720638 0.177780
0.498958 0.723239 0.180324
0.529807 0.725875 0.182899
0.560961 0.728537 0.185497
0.592306 0.731215 0.188108
0.619823 0.738581 0.155848
0.649389 0.747427 0.102734
0.683997 0.754831 0.048440
0.723404 0.760793 0.000000
0.767285 0.765335 0.000000
0.809390 0.765152 0.000000
0.850177 0.764576 0.000000
0.887509 0.764049 0.000000
0.920299 0.763586 0.000000
0.949145 0.763178 0.000000
0.974533 0.762820 0.000000
0.996859 0.762505 0.000000
0.998274 0.762485 0.000000
0.188529 0.730881 0.161781
0.188529 0.730881 0.161781
0.188529 0.730881 0.161781
0.188529 0.730881 0.161781
0.200062 0.731867 0.162752
0.218560 0.733448 0.164307
0.238962 0.735192 0.166022
0.260927 0.737069 0.167867
0.284276 0.739064 0.169827
0.308880 0.741166 0.171890
0.334627 0.743367 0.174047
0.361412 0.745655 0.176289
0.389135 0.748024 0.178608
0.417692 0.750464 0.180993
0.446983 0.752967 0.183438
0.476902 0.755524 0.185933
0.507345 0.758125 0.188468
0.538202 0.760761 0.191036
0.569364 0.763423 0.193626
0.600718 0.766102 0.196229
0.632149 0.768787 0.198835
0.659375 0.777017 0.158732
0.689548 0.785907 0.102803
0.724563 0.793341 0.045947
0.764111 0.799335 0.000000
0.807803 0.803925 0.000000
0.848738 0.803488 0.000000
