LUTs/BRX_Masterclass_Look_Subtle.cube
TITLE "BRX Masterclass Look Subtle"
LUT_3D_SIZE 5
DOMAIN_MIN 0.0 0.0 0.0
DOMAIN_MAX 1.0 1.0 1.0
0.000684 0.022355 0.033143
0.219981 0.024745 0.034122
0.473297 0.027561 0.035268
0.726601 0.030436 0.036431
0.914153 0.032603 0.037302
0.017070 0.244987 0.036485
0.236339 0.247526 0.037505
0.489621 0.250514 0.038699
0.742892 0.253561 0.039909
0.930420 0.255856 0.040815
0.035879 0.502790 0.040518
0.255114 0.505501 0.041586
0.508358 0.508687 0.042834
0.761150 0.511933 0.044467
0.948049 0.514375 0.045914
0.053714 0.761261 0.045440
0.272215 0.764144 0.047140
0.524610 0.767529 0.049119
0.776993 0.770974 0.051115
0.963863 0.773563 0.052604
0.065443 0.953077 0.050365
0.283919 0.956087 0.052101
0.536284 0.959620 0.054122
0.788637 0.963212 0.056160
0.975485 0.965910 0.057680
0.002342 0.023162 0.247891
0.221637 0.025567 0.248874
0.474949 0.028400 0.250024
0.728250 0.031293 0.251192
0.915799 0.033472 0.252066
0.018719 0.245845 0.251246
0.237985 0.248399 0.252271
0.491264 0.251404 0.253469
0.744532 0.254468 0.254684
0.932056 0.256775 0.255594
0.037517 0.503705 0.255295
0.256749 0.506431 0.256367
0.509990 0.509636 0.257621
0.762540 0.512899 0.259457
0.949437 0.515353 0.260907
0.055102 0.762235 0.260432
0.273600 0.765133 0.262136
0.525992 0.768536 0.264120
0.778372 0.771998 0.266121
0.965238 0.774600 0.267614
0.066823 0.954094 0.265370
0.285295 0.957120 0.267110
0.537657 0.960670 0.269136
0.790007 0.964279 0.271179
0.976851 0.966990 0.272703
0.004257 0.024100 0.495963
0.223548 0.026523 0.496950
0.476857 0.029376 0.498107
0.730154 0.032288 0.499279
0.917700 0.034483 0.500158
0.020622 0.246841 0.499334
0.239885 0.249413 0.500363
0.493160 0.252438 0.501567
0.746424 0.255522 0.502788
0.933946 0.257844 0.503702
0.039407 0.504770 0.503402
0.258636 0.507513 0.504479
0.511728 0.510737 0.505859
0.764144 0.514020 0.507809
0.951038 0.516490 0.509263
0.056704 0.763367 0.508787
0.275199 0.766282 0.510496
0.527587 0.769705 0.512486
0.779962 0.773187 0.514493
0.966826 0.775804 0.515989
0.068415 0.955276 0.513738
0.286884 0.958319 0.515484
0.539241 0.961889 0.517516
0.791587 0.965518 0.519565
0.978429 0.968244 0.521092
0.006170 0.025045 0.744036
0.225458 0.027485 0.745029
0.478763 0.030358 0.746191
0.732056 0.033291 0.747369
0.919600 0.035500 0.748252
0.022525 0.247845 0.747424
0.241784 0.250433 0.748458
0.495055 0.253479 0.749668
0.748315 0.256583 0.750894
0.935834 0.258920 0.751812
0.041296 0.505841 0.751511
0.260522 0.508601 0.752592
0.513335 0.511846 0.754207
0.765747 0.515149 0.756163
0.952638 0.517633 0.757622
0.058305 0.764505 0.757144
0.276796 0.767438 0.758857
0.529180 0.770881 0.760853
0.781552 0.774383 0.762866
0.968412 0.777014 0.764367
0.070006 0.956464 0.762109
0.288471 0.959525 0.763860
0.540825 0.963115 0.765897
0.793166 0.966764 0.767952
0.980005 0.969504 0.769484
0.007586 0.025749 0.927724
0.226872 0.028202 0.928720
0.480173 0.031090 0.929886
0.733464 0.034037 0.931069
0.921005 0.036258 0.931955
0.023932 0.248592 0.931124
0.243189 0.251194 0.932161
0.496457 0.254254 0.933375
0.749714 0.257373 0.934605
0.937231 0.259721 0.935526
0.042694 0.506638 0.935224
0.261917 0.509412 0.936309
0.514524 0.512671 0.938097
0.766933 0.515989 0.940057
0.953822 0.518484 0.941520
0.059490 0.765352 0.941041
0.277978 0.768298 0.942758
0.530359 0.771756 0.944758
0.782727 0.775273 0.946775
0.969586 0.777915 0.948279
0.071183 0.957349 0.946017
0.289645 0.960422 0.947771
0.541996 0.964027 0.949813
0.794335 0.967691 0.951872
0.981171 0.970442 0.953407
